web/frontend/public/assets/luts/Lut_Brighter_LowSaturation.CUBE
#Created by: Adobe Photoshop Export Color Lookup Plugin
TITLE "Lut_v05.psd"
#LUT size
LUT_3D_SIZE 8
#data domain
#LUT data points
DOMAIN_MIN 0.000000 0.000000 0.000000
DOMAIN_MAX 0.903226 0.903226 0.903226
0.025391 0.025146 0.035400
0.127106 0.042572 0.050140
0.255035 0.060669 0.066986
0.385193 0.075134 0.082886
0.500427 0.093628 0.107208
0.604126 0.114990 0.139282
0.699066 0.133850 0.164917
0.781189 0.149780 0.181488
0.046631 0.122589 0.058838
0.136444 0.137512 0.069733
0.255585 0.147430 0.084900
0.379089 0.160156 0.105408
0.498596 0.171936 0.128479
0.611847 0.185547 0.155670
0.710327 0.197662 0.182343
0.788849 0.209869 0.205658
0.070709 0.239288 0.096069
0.153412 0.255341 0.107391
0.269806 0.270355 0.114319
0.395752 0.278198 0.130157
0.512695 0.288849 0.157440
0.622894 0.300079 0.182068
0.717926 0.310303 0.203674
0.795349 0.320160 0.224213
0.097595 0.360352 0.145691
0.175995 0.373047 0.156647
0.288300 0.397736 0.169373
0.408234 0.407806 0.173279
0.530151 0.417664 0.189453
0.638275 0.423706 0.212311
0.731750 0.432770 0.233948
0.808472 0.441956 0.254089
0.132782 0.480713 0.199066
0.204834 0.489166 0.208130
0.308899 0.512115 0.221802
0.428955 0.535339 0.233734
0.540192 0.540039 0.235535
0.653656 0.549347 0.247711
0.746796 0.554840 0.267548
0.821686 0.560486 0.287811
0.167969 0.593750 0.251434
0.234680 0.600647 0.258118
0.332794 0.620178 0.271942
0.445404 0.641235 0.284790
0.557434 0.658173 0.294281
0.663696 0.662781 0.297272
0.758850 0.670227 0.308167
0.835510 0.676819 0.326691
0.206970 0.694580 0.301880
0.268799 0.700775 0.306915
0.360687 0.716400 0.320679
0.465759 0.734650 0.334351
0.575562 0.753082 0.347412
0.678467 0.764130 0.355286
0.767761 0.767670 0.359741
0.843994 0.773956 0.368988
0.259216 0.777771 0.348785
0.308777 0.782623 0.352783
0.390381 0.794617 0.365509
0.489014 0.810944 0.379395
0.593414 0.827820 0.393585
0.695587 0.845032 0.407623
0.781281 0.849945 0.412994
0.853119 0.853241 0.418427
0.042206 0.045044 0.160889
0.158783 0.062836 0.187500
0.288483 0.073029 0.191711
0.399353 0.088196 0.196136
0.503387 0.102966 0.202820
0.606903 0.121277 0.218048
0.703552 0.139557 0.234863
0.781616 0.157074 0.251740
0.048157 0.125427 0.158051
0.158447 0.161499 0.201935
0.277771 0.164642 0.204376
0.409302 0.175049 0.214539
0.535339 0.183807 0.225433
0.648132 0.190491 0.237823
0.745758 0.196350 0.251892
0.822571 0.205200 0.266785
0.072632 0.235657 0.185181
0.156616 0.289429 0.212067
0.290070 0.291809 0.237549
0.418762 0.300659 0.245392
0.542969 0.308838 0.253174
0.657196 0.314056 0.261993
0.756226 0.319580 0.274109
0.833771 0.326141 0.287079
0.103760 0.359375 0.221802
0.174866 0.429443 0.239105
0.308655 0.432281 0.261566
0.427399 0.427948 0.279510
0.548279 0.437347 0.288849
0.663086 0.445221 0.296967
0.760986 0.451599 0.307312
0.839294 0.456848 0.318268
0.138397 0.481415 0.262299
0.198761 0.561920 0.275085
0.323822 0.570221 0.290070
0.448090 0.558197 0.314972
0.557678 0.558502 0.325165
0.669220 0.567780 0.335358
0.766174 0.574371 0.344543
0.844818 0.581024 0.355957
0.172150 0.594269 0.304901
0.230530 0.684479 0.318695
0.341003 0.695923 0.330658
0.468597 0.686798 0.347473
0.574860 0.675079 0.369324
0.679230 0.679321 0.373932
0.772858 0.687073 0.383820
0.850220 0.693970 0.395538
0.208740 0.694611 0.349121
0.282257 0.789764 0.367981
0.368683 0.799774 0.378662
0.487823 0.794922 0.390472
0.600281 0.786102 0.405609
0.693878 0.778839 0.421021
0.781738 0.782440 0.426239
0.856750 0.789032 0.435059
0.259521 0.777557 0.390930
0.342102 0.875763 0.417450
0.406219 0.883545 0.426300
0.511536 0.883545 0.436066
0.621613 0.875153 0.446686
0.714233 0.865601 0.461365
0.795441 0.863586 0.471100
0.865936 0.866943 0.476990
0.052368 0.056519 0.297821
0.166168 0.085052 0.342834
0.308044 0.094849 0.348969
0.445618 0.114807 0.363678
0.560547 0.128387 0.362579
0.651764 0.145935 0.362366
0.732269 0.160614 0.366180
0.797852 0.175293 0.372681
0.066895 0.144836 0.286438
0.160461 0.178589 0.352600
0.306793 0.199829 0.361969
0.443054 0.192444 0.361633
0.552277 0.200256 0.359802
0.649994 0.206024 0.361969
0.745453 0.211212 0.369720
0.822540 0.221008 0.379852
0.079742 0.241791 0.286926
0.170227 0.294373 0.354797
0.316193 0.321594 0.383850
0.435822 0.321594 0.382172
0.557220 0.330078 0.389740
0.669617 0.336639 0.397461
0.767090 0.342834 0.405182
0.843109 0.350098 0.412903
0.106628 0.352234 0.312500
0.173157 0.416992 0.370911
0.306793 0.448517 0.387817
0.452576 0.455597 0.420013
0.570465 0.461731 0.424316
0.682373 0.468140 0.428345
0.778229 0.473389 0.433411
0.855103 0.480957 0.441742
0.143463 0.475006 0.350647
0.191864 0.556793 0.393005
0.319824 0.577972 0.405853
0.463928 0.584930 0.435303
0.578613 0.581451 0.457031
0.688202 0.589844 0.464386
0.783386 0.595856 0.469269
0.860718 0.602966 0.475372
0.178406 0.590271 0.388824
0.225983 0.683868 0.419464
0.341034 0.698303 0.429718
0.476929 0.708496 0.450256
0.595734 0.699249 0.484253
0.697266 0.699493 0.497864
0.788971 0.707214 0.507721
0.865845 0.713837 0.512695
0.217010 0.692932 0.428802
0.281616 0.789215 0.450043
0.372040 0.800873 0.458740
0.492981 0.812805 0.473419
0.615051 0.806549 0.502441
0.712189 0.796936 0.534241
0.798187 0.800568 0.540039
0.871887 0.807434 0.548676
0.260010 0.775940 0.469452
0.346252 0.876251 0.481873
0.411865 0.885010 0.490875
0.518921 0.896820 0.505249
0.633087 0.892548 0.526245
0.730896 0.884552 0.554382
0.812347 0.879944 0.574890
0.881165 0.883331 0.580658
0.069519 0.075195 0.425781
0.162750 0.097351 0.454590
0.326569 0.123016 0.507080
0.459442 0.135101 0.508240
0.583862 0.156708 0.526672
0.704193 0.167206 0.535034
0.780334 0.183563 0.531433
0.841888 0.201080 0.531860
0.086670 0.162994 0.423370
0.160492 0.179260 0.488068
0.317657 0.204346 0.524567
0.461395 0.238525 0.522858
0.587463 0.243652 0.532990
0.702301 0.229736 0.529022
0.783081 0.237030 0.525299
0.848694 0.248871 0.524719
0.100830 0.258881 0.409180
0.174042 0.304657 0.491150
0.316803 0.334015 0.527802
0.467773 0.360687 0.541687
0.589447 0.346039 0.536957
0.684692 0.350006 0.533569
0.769867 0.355042 0.534607
0.843506 0.363434 0.539764
0.115784 0.362823 0.419220
0.185425 0.419434 0.495972
0.326263 0.452789 0.532104
0.478485 0.485229 0.565796
0.585876 0.481659 0.561218
0.694275 0.488068 0.567108
0.788239 0.496307 0.573456
0.863556 0.505493 0.580200
0.144623 0.468567 0.443726
0.199982 0.533783 0.510895
0.321594 0.568329 0.544922
0.464752 0.599152 0.565521
0.604309 0.609406 0.599182
0.709259 0.613861 0.601990
0.801208 0.619934 0.605011
0.876373 0.626740 0.609131
0.182098 0.584106 0.482697
0.230042 0.664337 0.539703
0.332794 0.694427 0.564209
0.472870 0.714661 0.578491
0.614838 0.724335 0.609741
0.716339 0.720947 0.630646
0.806213 0.728271 0.637238
0.880890 0.734711 0.641846
0.222717 0.687744 0.520081
0.280090 0.775055 0.569305
0.371704 0.801300 0.582214
0.496216 0.815094 0.595428
0.625702 0.827057 0.618500
0.732391 0.818512 0.652618
0.814819 0.818909 0.664917
0.886688 0.826141 0.673645
0.267090 0.771210 0.556519
0.343445 0.867859 0.592834
0.419098 0.886047 0.601685
0.524811 0.897736 0.613617
0.641205 0.910736 0.630035
0.745911 0.903870 0.661255
0.829681 0.896484 0.690796
0.896027 0.899780 0.697052
0.092743 0.100983 0.544281
0.169952 0.115112 0.559143
0.324738 0.154694 0.638031
0.481934 0.170959 0.647736
0.598785 0.172577 0.651703
0.708923 0.194305 0.668304
0.807556 0.211700 0.683350
0.887115 0.224518 0.687012
0.109467 0.184174 0.551727
0.161743 0.181335 0.609314
0.313232 0.228851 0.661560
0.482208 0.254944 0.665405
0.604431 0.275024 0.667938
0.713135 0.293213 0.681030
0.812714 0.276459 0.683319
0.890594 0.275208 0.679565
0.123932 0.282501 0.541321
0.177185 0.309814 0.621704
0.320892 0.358032 0.674408
0.478058 0.359711 0.683960
0.610413 0.398773 0.686279
0.718475 0.398254 0.692200
0.815369 0.375397 0.685211
0.878845 0.383270 0.680023
0.136749 0.376434 0.530365
0.190125 0.428040 0.613953
0.333344 0.487732 0.681061
0.479614 0.494751 0.691986
0.617462 0.521912 0.705963
0.722198 0.503326 0.698853
0.802887 0.506226 0.693665
0.867737 0.514038 0.693695
0.152252 0.483093 0.547729
0.207275 0.544464 0.627533
0.343628 0.592316 0.684875
0.488342 0.604553 0.697083
0.627777 0.634369 0.725983
0.719604 0.628937 0.718658
0.808777 0.636108 0.722473
0.882263 0.645081 0.727936
0.184174 0.580353 0.571533
0.230988 0.644012 0.639069
0.346558 0.685730 0.690674
0.477783 0.707825 0.702148
0.616638 0.733582 0.721497
0.736786 0.743195 0.752045
0.822693 0.748596 0.755035
0.895844 0.754822 0.757629
0.222443 0.682404 0.605896
0.278809 0.757843 0.671173
0.370483 0.784027 0.703033
0.493286 0.812286 0.714386
0.623840 0.829742 0.729706
0.747650 0.837921 0.758606
0.831604 0.836884 0.777313
0.901367 0.843750 0.783600
0.269287 0.766449 0.641022
0.338348 0.850586 0.700317
0.410522 0.873047 0.714478
0.522552 0.898407 0.727020
0.638733 0.910034 0.740082
0.756226 0.920990 0.763184
0.846527 0.913971 0.793457
0.910095 0.915070 0.802368
0.114868 0.127747 0.657104
0.182831 0.140167 0.671600
0.323090 0.188843 0.733307
0.486359 0.204529 0.768707
0.617554 0.228302 0.770447
0.719177 0.230164 0.775574
0.811096 0.245087 0.789276
0.891449 0.266022 0.807007
0.129639 0.200623 0.665863
0.173340 0.195557 0.716278
0.306915 0.236847 0.753510
0.478027 0.262299 0.786041
0.623230 0.315277 0.786011
0.724548 0.321899 0.789734
0.816589 0.336273 0.801697
0.897552 0.335388 0.812744
0.147583 0.302246 0.659851
0.194305 0.318390 0.733887
0.324677 0.362366 0.777344
0.472076 0.373779 0.788879
0.627991 0.417908 0.804932
0.732025 0.441803 0.807861
0.823639 0.453827 0.818756
0.904724 0.428864 0.820496
0.164886 0.403107 0.654327
0.217041 0.443878 0.733185
0.346802 0.498291 0.792450
0.486359 0.511078 0.805908
0.627350 0.523834 0.822601
0.739685 0.561005 0.826050
0.831055 0.556519 0.831512
0.910950 0.529449 0.825378
0.177582 0.496155 0.652924
0.234924 0.549133 0.729462
0.363617 0.604034 0.789307
0.500610 0.624786 0.809845
0.631531 0.643433 0.830444
0.748199 0.667755 0.842438
0.836395 0.647003 0.836151
0.899323 0.649048 0.830292
0.198456 0.595490 0.671143
0.264313 0.659943 0.752075
0.382172 0.703705 0.802826
0.511261 0.714447 0.812103
0.641571 0.740234 0.834473
0.758545 0.765686 0.858490
0.834717 0.760834 0.851868
0.901917 0.764771 0.852234
0.227783 0.682495 0.691620
0.273529 0.745667 0.757874
0.376587 0.779999 0.803864
0.498779 0.798706 0.816711
0.626953 0.825653 0.836029
0.748047 0.846008 0.851837
0.848877 0.854828 0.878265
0.913879 0.857941 0.879089
0.261597 0.761566 0.715759
0.313751 0.832001 0.778992
0.399231 0.863129 0.818909
0.514496 0.882507 0.826294
0.637299 0.906982 0.842987
0.754333 0.921997 0.857239
0.858185 0.928925 0.882507
0.924194 0.930176 0.898834
0.140656 0.157928 0.757233
0.203949 0.176056 0.763336
0.327942 0.218750 0.807861
0.485443 0.254669 0.852753
0.634705 0.284271 0.875336
0.738312 0.300690 0.874573
0.821472 0.304504 0.878998
0.893860 0.312622 0.888824
0.154358 0.220795 0.760620
0.198700 0.224701 0.807465
0.315948 0.263794 0.840271
0.477417 0.304840 0.878906
0.632080 0.335083 0.885529
0.744263 0.379578 0.887268
0.827515 0.383667 0.891205
0.898987 0.393158 0.900238
0.176056 0.323944 0.759613
0.223724 0.335602 0.825287
0.337616 0.376404 0.862946
0.477478 0.403473 0.884277
0.629700 0.421722 0.901154
0.753143 0.485779 0.904816
0.835968 0.492340 0.908264
0.906525 0.502716 0.912048
0.197845 0.427643 0.759186
0.255554 0.462524 0.834137
0.369141 0.513397 0.885345
0.499756 0.536011 0.904694
0.627502 0.537689 0.905334
0.759308 0.584473 0.919037
0.843628 0.604340 0.920319
0.914246 0.613007 0.923401
0.216675 0.519135 0.756378
0.286072 0.572784 0.837555
0.394379 0.625092 0.886414
0.518250 0.648285 0.905762
0.641937 0.658356 0.920593
0.759766 0.672302 0.928711
0.850372 0.703827 0.930389
0.921234 0.704132 0.932159
0.240387 0.608521 0.765717
0.316162 0.669952 0.845276
0.413147 0.713318 0.882782
0.531525 0.733215 0.901398
0.653351 0.755646 0.919922
0.762939 0.773315 0.934937
0.857788 0.794250 0.939728
0.928833 0.779083 0.937225
0.265015 0.696167 0.785767
0.344299 0.763763 0.865662
0.428650 0.792389 0.885712
0.542084 0.807678 0.902191
0.659821 0.829895 0.918579
0.769501 0.851532 0.933838
0.866302 0.872101 0.947418
0.925598 0.870697 0.945374
0.274567 0.766937 0.796753
0.319855 0.830353 0.861572
0.404022 0.850830 0.882050
0.520691 0.872528 0.898956
0.639740 0.895966 0.915619
0.754547 0.918854 0.930481
0.860016 0.935242 0.942993
0.934204 0.940430 0.955933
0.177948 0.200134 0.831635
0.233337 0.217651 0.837494
0.343506 0.257996 0.874329
0.493286 0.310822 0.905914
0.640076 0.353760 0.919495
0.754425 0.384125 0.922577
0.835419 0.397278 0.923981
0.900055 0.403625 0.924744
0.187988 0.254974 0.833832
0.242706 0.272888 0.885773
0.339813 0.307465 0.907288
0.482513 0.363312 0.917664
0.637329 0.400879 0.925110
0.755798 0.432953 0.928528
0.840973 0.459503 0.930939
0.906372 0.464996 0.931946
0.209412 0.350311 0.841370
0.269073 0.369263 0.901825
0.360107 0.401398 0.913086
0.489319 0.444397 0.923218
0.626801 0.453217 0.929688
0.758179 0.506561 0.937561
0.848846 0.554016 0.940643
0.913330 0.559814 0.941711
0.234833 0.452820 0.844086
0.301910 0.488495 0.902039
0.391754 0.525330 0.916656
0.509644 0.559326 0.930328
0.628998 0.556030 0.935944
0.758453 0.590515 0.947266
0.856018 0.648315 0.950134
0.919952 0.654419 0.951233
0.262695 0.547150 0.846466
0.333557 0.594849 0.900360
0.419678 0.632019 0.915710
0.532196 0.659851 0.933136
0.647522 0.668854 0.946045
0.756042 0.683319 0.952087
0.861237 0.728027 0.958679
0.926636 0.744324 0.960175
0.285736 0.626984 0.846863
0.361847 0.684814 0.898193
0.440216 0.717682 0.912598
0.547821 0.740875 0.929626
0.660736 0.761780 0.946503
0.765045 0.779327 0.959229
0.863007 0.798676 0.966522
0.933441 0.825317 0.968079
0.320770 0.711884 0.865784
0.387115 0.767609 0.899445
0.458923 0.786896 0.911499
0.562103 0.808960 0.926514
0.674072 0.833221 0.942841
0.774048 0.855713 0.957977
0.866394 0.873840 0.970612
0.939850 0.895874 0.974823
0.338135 0.780396 0.876526
0.422791 0.841949 0.905212
0.487000 0.858582 0.916107
0.597595 0.879639 0.931946
0.701813 0.898865 0.946289
0.798279 0.916992 0.959351
0.880829 0.933838 0.970551
0.945587 0.949951 0.979584
