web/frontend/public/assets/luts/Lut_Brighter.CUBE
#Created by: Adobe Photoshop Export Color Lookup Plugin
TITLE "Lut_v05.psd"
#LUT size
LUT_3D_SIZE 5
#data domain
#LUT data points
DOMAIN_MIN 0.000000 0.000000 0.000000
DOMAIN_MAX 0.903226 0.903226 0.903226
0.024292 0.023987 0.036774
0.247437 0.027069 0.036163
0.500305 0.021576 0.035248
0.704742 0.029236 0.070618
0.873413 0.035706 0.085022
0.033966 0.232635 0.063751
0.256622 0.257721 0.075256
0.500366 0.241638 0.083740
0.715515 0.230713 0.101471
0.877319 0.222931 0.119873
0.047577 0.469299 0.135376
0.251526 0.490540 0.145935
0.517822 0.517456 0.154663
0.738342 0.501465 0.158936
0.896576 0.490936 0.176025
0.078491 0.688446 0.211761
0.260559 0.695740 0.214661
0.510986 0.732666 0.234680
0.747101 0.746277 0.242676
0.912720 0.737885 0.247223
0.144745 0.854553 0.280060
0.287354 0.853821 0.279358
0.515381 0.883087 0.301300
0.741669 0.911346 0.322327
0.915039 0.915222 0.329834
0.009247 0.015015 0.295380
0.293182 0.044800 0.342651
0.557831 0.039001 0.325806
0.740997 0.040863 0.299957
0.880524 0.047455 0.291504
0.028046 0.227753 0.283447
0.266693 0.273193 0.349365
0.525879 0.256531 0.330414
0.752686 0.236908 0.314667
0.918396 0.223450 0.306702
0.052917 0.462646 0.319611
0.235565 0.547424 0.343903
0.528961 0.532837 0.384827
0.754608 0.518402 0.366272
0.921234 0.506470 0.353149
0.081512 0.686401 0.363739
0.236725 0.783142 0.358643
0.525696 0.771240 0.391083
0.756989 0.759583 0.431824
0.920746 0.752075 0.426117
0.132690 0.855194 0.417206
0.282562 0.954224 0.394714
0.527679 0.950409 0.412170
0.756348 0.928223 0.469452
0.923798 0.926331 0.488586
0.000031 0.011688 0.544159
0.261292 0.052612 0.636505
0.581970 0.066254 0.647858
0.815125 0.082611 0.658844
0.963013 0.083984 0.635284
0.023193 0.230255 0.537079
0.223297 0.268005 0.648102
0.558655 0.303284 0.654022
0.801758 0.260864 0.637604
0.941437 0.250183 0.607147
0.043152 0.459808 0.540619
0.236023 0.542938 0.656189
0.539978 0.550781 0.667389
0.760681 0.537689 0.650269
0.921875 0.532166 0.637939
0.089630 0.674072 0.578979
0.230927 0.768829 0.669678
0.510986 0.781494 0.656372
0.760162 0.767456 0.693359
0.920410 0.761139 0.681366
0.147552 0.844879 0.621368
0.280670 0.947662 0.656281
0.518982 0.951630 0.649170
0.761505 0.940033 0.687195
0.925262 0.931152 0.722198
0.000031 0.026917 0.764130
0.223480 0.071716 0.810425
0.573242 0.112671 0.880402
0.810669 0.133301 0.883362
0.982086 0.152100 0.900787
0.027130 0.230408 0.766479
0.191681 0.240082 0.854279
0.537048 0.270203 0.891541
0.795959 0.346405 0.890533
0.974823 0.338135 0.901672
0.055511 0.460144 0.755249
0.222717 0.530518 0.872437
0.511871 0.538574 0.884216
0.779144 0.583191 0.897430
0.966278 0.539886 0.892029
0.087738 0.671265 0.775452
0.261475 0.752197 0.884583
0.531982 0.759979 0.888000
0.771118 0.780334 0.903778
0.926788 0.773102 0.890900
0.133636 0.836731 0.801361
0.256958 0.917328 0.890503
0.511627 0.937988 0.892853
0.755554 0.946564 0.891937
0.927795 0.936005 0.918549
0.037445 0.076050 0.923248
0.218231 0.118744 0.943481
0.542511 0.201935 0.995697
0.810211 0.276550 1.000000
0.967865 0.294983 1.000000
0.058838 0.249573 0.931793
0.206421 0.263092 0.990723
0.505920 0.310181 0.995300
0.798950 0.413696 0.999329
0.961823 0.454987 0.998169
0.097473 0.478394 0.933167
0.259033 0.535034 0.989197
0.510376 0.551392 0.990143
0.776978 0.586090 0.997314
0.950989 0.651306 0.993927
0.152466 0.665070 0.932220
0.309753 0.738190 0.978333
0.540527 0.760040 0.984772
0.759033 0.776184 0.987518
0.942780 0.820465 0.989075
0.203461 0.829010 0.955933
0.367584 0.899567 0.977570
0.591553 0.914734 0.980957
0.792999 0.928314 0.982971
0.939148 0.945007 0.984650
