web/frontend/public/assets/luts/Lut_v05.lut.CUBE
#Created by: Adobe Photoshop Export Color Lookup Plugin
TITLE "Lut_v05.psd"
#LUT size
LUT_3D_SIZE 8
#data domain
#LUT data points
DOMAIN_MIN 0.000000 0.000000 0.000000
DOMAIN_MAX 0.903226 0.903226 0.903226
0.019897 0.019836 0.030090
0.116089 0.021973 0.030579
0.238342 0.022400 0.029785
0.372223 0.019775 0.028778
0.500610 0.021271 0.037872
0.624146 0.026123 0.056213
0.742981 0.030670 0.069489
0.848846 0.034698 0.074677
0.026306 0.110382 0.040314
0.120636 0.121765 0.047058
0.236176 0.116028 0.046783
0.362701 0.111786 0.050568
0.494659 0.106049 0.056915
0.628357 0.101501 0.069275
0.750244 0.097382 0.083069
0.850189 0.096466 0.096344
0.030365 0.221344 0.060425
0.118378 0.232880 0.066803
0.246246 0.246857 0.071228
0.377991 0.238098 0.070984
0.508057 0.231750 0.081909
0.639465 0.226898 0.091461
0.757843 0.222931 0.100616
0.856964 0.220734 0.110840
0.036072 0.343750 0.094879
0.119598 0.349274 0.098358
0.243103 0.374359 0.107727
0.384735 0.384186 0.110474
0.523804 0.377441 0.111694
0.654236 0.367493 0.119568
0.771454 0.362213 0.128418
0.870239 0.359344 0.137726
0.049072 0.473938 0.133545
0.127228 0.472809 0.133667
0.243195 0.497253 0.143829
0.383850 0.522797 0.153259
0.527313 0.527130 0.155792
0.666779 0.520599 0.154449
0.785095 0.510162 0.161591
0.882202 0.504944 0.170898
0.066711 0.604462 0.173157
0.139526 0.601868 0.171661
0.248077 0.620209 0.180084
0.380402 0.644470 0.190826
0.523224 0.663879 0.199341
0.669434 0.667999 0.202667
0.792847 0.661774 0.202362
0.893341 0.655243 0.210083
0.089508 0.725952 0.212372
0.157196 0.723083 0.209412
0.258606 0.734802 0.216217
0.383240 0.756378 0.227722
0.522949 0.778290 0.239258
0.663208 0.790924 0.246918
0.794006 0.793854 0.251648
0.896179 0.788849 0.251617
0.127319 0.826599 0.247559
0.182739 0.824127 0.244598
0.273254 0.830536 0.249725
0.391815 0.850098 0.261230
0.525757 0.870300 0.273560
0.665802 0.890747 0.286224
0.789856 0.895844 0.291931
0.898285 0.898499 0.297150
0.015259 0.018250 0.147217
0.139343 0.031586 0.171021
0.271484 0.028595 0.162445
0.388580 0.025299 0.150879
0.505524 0.024048 0.143005
0.629120 0.026794 0.144135
0.750000 0.031311 0.147736
0.850220 0.037903 0.153961
0.021301 0.108154 0.144226
0.124634 0.128052 0.174133
0.249237 0.120880 0.166382
0.388245 0.113129 0.159210
0.532196 0.104095 0.153748
0.670654 0.094208 0.152893
0.795898 0.086090 0.155212
0.896881 0.082886 0.161011
0.029297 0.217804 0.160828
0.107880 0.261230 0.172699
0.251038 0.253052 0.190765
0.389038 0.245911 0.182281
0.531860 0.237366 0.173523
0.671844 0.226715 0.167511
0.797913 0.217865 0.166718
0.899139 0.212433 0.169586
0.037720 0.342377 0.180481
0.103638 0.409180 0.180695
0.249084 0.400330 0.195007
0.392029 0.392731 0.213928
0.532501 0.385986 0.208191
0.673767 0.378357 0.201202
0.799316 0.370331 0.198120
0.902130 0.363312 0.198059
0.050751 0.474640 0.204712
0.105194 0.560638 0.200409
0.242218 0.556641 0.204803
0.393036 0.538513 0.231720
0.535583 0.536713 0.242828
0.674103 0.530396 0.239746
0.799469 0.522461 0.235870
0.903290 0.517975 0.235718
0.066559 0.605103 0.233795
0.116425 0.708801 0.230072
0.236786 0.706970 0.229034
0.393127 0.692688 0.247375
0.533203 0.674225 0.271973
0.677826 0.677917 0.276855
0.800140 0.672089 0.275299
0.902893 0.666656 0.276245
0.086884 0.726410 0.266113
0.150085 0.838623 0.264282
0.244568 0.837006 0.263458
0.391602 0.826996 0.274841
0.541687 0.812744 0.292511
0.672638 0.800262 0.310272
0.802155 0.803223 0.315613
0.903351 0.798859 0.315033
0.125641 0.826904 0.295074
0.195160 0.944489 0.299103
0.266449 0.943573 0.299347
0.397125 0.938446 0.307098
0.546722 0.925262 0.320404
0.680389 0.909698 0.338257
0.799103 0.904785 0.349396
0.906006 0.907471 0.355133
0.004761 0.010071 0.281342
0.123962 0.030670 0.323334
0.282562 0.038788 0.330017
0.436371 0.046173 0.332947
0.572021 0.038544 0.315125
0.684601 0.040710 0.300049
0.786713 0.043304 0.291412
0.871521 0.048340 0.287842
0.017029 0.109344 0.269531
0.104431 0.124725 0.324097
0.265961 0.142609 0.330536
0.423584 0.124939 0.321106
0.551331 0.115692 0.303070
0.672577 0.105804 0.292236
0.795410 0.096130 0.288116
0.896698 0.093414 0.288361
0.025513 0.216675 0.268402
0.110016 0.254089 0.324463
0.256927 0.263397 0.336761
0.396484 0.255798 0.327179
0.538086 0.247375 0.318298
0.677216 0.238464 0.311157
0.803101 0.230713 0.306030
0.903564 0.226715 0.303589
0.040924 0.334473 0.285583
0.099426 0.395569 0.334442
0.235077 0.411102 0.332367
0.397858 0.401764 0.353821
0.538452 0.393250 0.343506
0.678467 0.384125 0.332306
0.803314 0.375153 0.323975
0.905182 0.370941 0.321259
0.053741 0.466797 0.307434
0.093018 0.556244 0.338013
0.228973 0.561371 0.333130
0.391296 0.552368 0.352020
0.540436 0.544373 0.376068
0.678802 0.537720 0.369598
0.803589 0.530304 0.360748
0.906799 0.525543 0.355255
0.069519 0.599823 0.331329
0.105286 0.710052 0.346405
0.231140 0.708923 0.341003
0.384155 0.704803 0.349426
0.538635 0.687347 0.387817
0.681488 0.684845 0.402924
0.802582 0.679260 0.401398
0.905975 0.674042 0.395081
0.091339 0.723663 0.358307
0.143890 0.839264 0.359314
0.244507 0.838593 0.355469
0.381897 0.837585 0.357788
0.543579 0.824463 0.390533
0.677856 0.806274 0.427582
0.805634 0.809296 0.433441
0.905701 0.805603 0.432953
0.120331 0.825836 0.387665
0.196503 0.944916 0.374878
0.270172 0.944946 0.374725
0.393158 0.944946 0.377533
0.546753 0.935699 0.401550
0.686554 0.920105 0.434631
0.804535 0.910065 0.458771
0.909302 0.912781 0.464355
0.000153 0.007690 0.416321
0.102234 0.023285 0.443756
0.278015 0.040161 0.503387
0.440369 0.051483 0.501770
0.594299 0.065063 0.511780
0.747986 0.055878 0.505219
0.847168 0.059357 0.485260
0.927704 0.066254 0.473297
0.012848 0.107056 0.413269
0.082764 0.104919 0.472351
0.253418 0.123383 0.510529
0.426361 0.156647 0.503052
0.586456 0.154053 0.507080
0.735748 0.122650 0.488007
0.841888 0.115540 0.470734
0.928619 0.114960 0.458923
0.023376 0.215790 0.395569
0.089355 0.245087 0.473419
0.235077 0.257324 0.496948
0.413818 0.279633 0.505829
0.574127 0.258759 0.495758
0.694336 0.249512 0.476471
0.805328 0.241302 0.463867
0.902954 0.237701 0.457581
0.033386 0.335815 0.404449
0.095459 0.383728 0.476471
0.241211 0.400269 0.498474
0.404663 0.413696 0.514252
0.546570 0.406006 0.504944
0.683411 0.396759 0.495331
0.806305 0.390839 0.487488
0.906494 0.388580 0.482513
0.055756 0.459015 0.422668
0.101440 0.527008 0.487549
0.228607 0.549011 0.509705
0.381470 0.563660 0.509277
0.545837 0.553040 0.530426
0.682007 0.543854 0.519745
0.804321 0.537262 0.509155
0.905701 0.533020 0.501648
0.073578 0.591919 0.448425
0.111786 0.684814 0.499573
0.214630 0.705627 0.512146
0.372009 0.708466 0.505646
0.539276 0.698761 0.525391
0.683594 0.690491 0.550812
0.803925 0.685516 0.545776
0.904938 0.680267 0.538757
0.096069 0.716644 0.472565
0.139984 0.821381 0.510590
0.238251 0.839691 0.511108
0.379852 0.836792 0.506866
0.536316 0.832703 0.517822
0.684021 0.815460 0.560211
0.806976 0.813324 0.574951
0.905273 0.810638 0.574738
0.127808 0.818726 0.497345
0.186432 0.934845 0.517944
0.273376 0.945587 0.513580
0.395416 0.943115 0.511047
0.537750 0.943146 0.515167
0.687195 0.928558 0.553986
0.808472 0.913330 0.591492
0.910065 0.915985 0.598083
0.000031 0.012115 0.551361
0.091339 0.022491 0.566162
0.251862 0.057587 0.658386
0.441803 0.065430 0.665833
0.599335 0.065338 0.669983
0.746216 0.081177 0.680847
0.876373 0.084900 0.685150
0.983734 0.082611 0.675873
0.012146 0.107941 0.559540
0.063202 0.087677 0.617767
0.223480 0.123871 0.663330
0.426575 0.151550 0.672516
0.588654 0.171021 0.671997
0.736176 0.183929 0.680878
0.873199 0.152924 0.673004
0.980316 0.136414 0.656921
0.021942 0.220062 0.544708
0.068787 0.230927 0.628906
0.214691 0.257874 0.663147
0.402191 0.256805 0.677887
0.575073 0.296722 0.673859
0.727173 0.292328 0.677643
0.861786 0.255157 0.657379
0.947357 0.252411 0.638458
0.032227 0.332062 0.529327
0.076508 0.374023 0.616119
0.221436 0.412323 0.667389
0.383392 0.404602 0.667267
0.561615 0.430664 0.677338
0.715332 0.407654 0.668365
0.823792 0.399353 0.647919
0.910645 0.397217 0.635437
0.043152 0.463837 0.547058
0.092163 0.523254 0.629059
0.228699 0.551697 0.671417
0.390320 0.549316 0.670319
0.554321 0.563934 0.683807
0.689331 0.557343 0.674316
0.808228 0.552094 0.664337
0.906891 0.550049 0.657623
0.074738 0.586151 0.565857
0.114746 0.657532 0.636963
0.228516 0.685394 0.679077
0.374481 0.698029 0.676727
0.537323 0.708374 0.676727
0.687866 0.697510 0.696472
0.805115 0.691803 0.687744
0.904938 0.687683 0.678162
0.097137 0.709900 0.588715
0.140900 0.799011 0.653290
0.236084 0.818329 0.684937
0.371857 0.833832 0.672363
0.526367 0.834717 0.669067
0.685852 0.824554 0.689117
0.809509 0.817719 0.711700
0.905884 0.815521 0.709015
0.131866 0.812347 0.612091
0.180115 0.912994 0.664642
0.258759 0.930115 0.676025
0.389557 0.944702 0.667816
0.531372 0.940338 0.664886
0.678619 0.935516 0.677643
0.813202 0.919495 0.717316
0.911011 0.918976 0.728516
0.000031 0.020081 0.688171
0.082947 0.028320 0.702393
0.229675 0.067932 0.763245
0.422180 0.082397 0.817657
0.595581 0.103027 0.813110
0.742065 0.102966 0.819489
0.872620 0.113129 0.831970
0.979736 0.123169 0.842957
0.010864 0.105194 0.698181
0.054413 0.083740 0.754944
0.199463 0.115692 0.780151
0.399048 0.142578 0.829773
0.586731 0.191772 0.816895
0.732513 0.197571 0.820587
0.865112 0.208405 0.831696
0.977051 0.196289 0.836334
0.024933 0.221008 0.686707
0.064819 0.220337 0.768951
0.199615 0.244568 0.793976
0.372894 0.258087 0.812714
0.573242 0.295654 0.822968
0.721039 0.320618 0.822571
0.855774 0.331390 0.833984
0.972473 0.293335 0.828979
0.038605 0.340271 0.675507
0.080231 0.369080 0.761871
0.212341 0.402832 0.807281
0.368073 0.406830 0.814209
0.551178 0.410645 0.827057
0.709167 0.453552 0.824738
0.848541 0.447418 0.832855
0.964844 0.405029 0.816376
0.048798 0.458557 0.671051
0.096069 0.505890 0.752472
0.227783 0.541992 0.798248
0.381195 0.555756 0.813965
0.537537 0.555511 0.817749
0.700317 0.581787 0.827118
0.840698 0.557068 0.822632
0.928497 0.550476 0.803711
0.067017 0.588745 0.689240
0.120850 0.654175 0.774536
0.243591 0.678833 0.811157
0.391998 0.683136 0.813873
0.547791 0.693146 0.819916
0.696350 0.707245 0.831940
0.814667 0.701477 0.822998
0.910736 0.698486 0.814697
0.095917 0.706329 0.707123
0.133789 0.779877 0.779694
0.234985 0.795227 0.813751
0.374664 0.809570 0.821869
0.527710 0.825592 0.823914
0.682373 0.833191 0.823883
0.814270 0.823608 0.841522
0.908661 0.820557 0.835144
0.122467 0.806976 0.721863
0.158691 0.892120 0.788605
0.247253 0.909302 0.820953
0.379120 0.924683 0.820831
0.525330 0.936829 0.818542
0.675232 0.936798 0.816711
0.815948 0.927826 0.835938
0.912842 0.922363 0.853760
0.005951 0.033325 0.814667
0.084534 0.049286 0.816193
0.217743 0.084808 0.855835
0.397736 0.129395 0.927948
0.590790 0.140778 0.943542
0.739929 0.156647 0.938507
0.864990 0.159058 0.944122
0.972961 0.164276 0.955414
0.017090 0.108063 0.817810
0.061249 0.096832 0.871704
0.189453 0.125977 0.890869
0.373596 0.182526 0.956329
0.576294 0.192780 0.947083
0.732819 0.237030 0.940308
0.858551 0.240234 0.944977
0.966461 0.247925 0.955811
0.034790 0.225403 0.809784
0.076324 0.219666 0.884033
0.194763 0.242371 0.905334
0.355011 0.279327 0.939575
0.554260 0.280518 0.951904
0.724213 0.349121 0.943542
0.849854 0.356049 0.947083
0.957764 0.364410 0.957672
0.051727 0.347321 0.803375
0.098236 0.366364 0.887054
0.213593 0.399200 0.926575
0.360565 0.427429 0.951904
0.530396 0.410095 0.935333
0.713531 0.460114 0.948517
0.840271 0.483185 0.949036
0.949036 0.489746 0.959869
0.068542 0.463348 0.794861
0.124146 0.507874 0.883301
0.237671 0.545410 0.923218
0.378693 0.577911 0.954437
0.529114 0.555420 0.936157
0.696716 0.566010 0.952728
0.831268 0.605042 0.950470
0.942688 0.601593 0.959320
0.091248 0.581451 0.800537
0.154755 0.640259 0.885101
0.258270 0.671448 0.916687
0.394135 0.692719 0.935150
0.541962 0.696472 0.937531
0.684052 0.700195 0.943848
0.824799 0.723541 0.951874
0.940613 0.701019 0.950958
0.115936 0.701233 0.819794
0.180023 0.772125 0.905029
0.274231 0.796722 0.934692
0.405914 0.805481 0.941010
0.550049 0.807831 0.938568
0.692169 0.819458 0.945282
0.823242 0.832397 0.952209
0.917145 0.827332 0.946838
0.123779 0.804901 0.832428
0.154388 0.881226 0.906708
0.244232 0.892792 0.936340
0.379333 0.905975 0.944763
0.523956 0.915558 0.945557
0.671997 0.928833 0.947571
0.814697 0.933960 0.946594
0.916473 0.926361 0.951324
0.030640 0.064117 0.908051
0.097076 0.078278 0.908569
0.216736 0.111572 0.936646
0.387543 0.179199 0.987488
0.577301 0.206360 1.000000
0.739746 0.234161 1.000000
0.861725 0.248077 1.000000
0.961456 0.255646 1.000000
0.037415 0.129181 0.910187
0.089142 0.130371 0.966644
0.195618 0.155334 0.985992
0.361572 0.211334 0.994751
0.563385 0.254852 1.000000
0.732056 0.285522 1.000000
0.858246 0.314331 0.999084
0.959473 0.321136 0.999603
0.051300 0.236145 0.910645
0.106049 0.236176 0.981567
0.205658 0.257477 0.988983
0.353485 0.294250 0.989532
0.538086 0.310974 0.997528
0.720886 0.365387 1.000000
0.852142 0.418976 0.996613
0.952393 0.426086 0.997131
0.070587 0.356689 0.907166
0.130859 0.377411 0.986359
0.230682 0.405701 0.990234
0.364899 0.432373 0.988770
0.521851 0.425903 0.989014
0.704254 0.461029 0.999146
0.845001 0.530365 0.993774
0.944794 0.537872 0.994293
0.092743 0.474884 0.902893
0.161804 0.516266 0.979431
0.258820 0.548279 0.984680
0.387878 0.579712 0.988983
0.529327 0.564453 0.987396
0.683105 0.574860 0.990021
0.837189 0.630432 0.991699
0.937805 0.651337 0.991119
0.117676 0.582886 0.896271
0.193146 0.642853 0.971802
0.281464 0.672668 0.977264
0.406128 0.704346 0.981689
0.544220 0.699402 0.985504
0.680237 0.702820 0.985565
0.825409 0.723633 0.989990
0.932404 0.759216 0.987701
0.152405 0.697571 0.911835
0.220917 0.762512 0.969177
0.302795 0.777130 0.972595
0.422668 0.791870 0.975067
0.556885 0.804474 0.978149
0.691803 0.819092 0.981750
0.817322 0.829041 0.983429
0.928253 0.856873 0.984253
0.168243 0.796631 0.926697
0.255524 0.870483 0.970490
0.330292 0.882782 0.973846
0.450378 0.893250 0.976257
0.588287 0.902435 0.977966
0.718750 0.911713 0.979309
0.834625 0.921631 0.980347
0.927063 0.934082 0.981598
