web/frontend/public/assets/luts/Lut_LowSaturation.CUBE
#Created by: Adobe Photoshop Export Color Lookup Plugin
TITLE "Lut_LowSaturation.psd"
#LUT size
LUT_3D_SIZE 5
#data domain
#LUT data points
DOMAIN_MIN 0.000000 0.000000 0.000000
DOMAIN_MAX 0.903226 0.903226 0.903226
0.020782 0.020721 0.028534
0.184265 0.047180 0.052673
0.391144 0.072906 0.080444
0.583954 0.110870 0.132874
0.759033 0.145020 0.170685
0.053741 0.174591 0.070282
0.196320 0.197021 0.083374
0.395050 0.213104 0.117523
0.599579 0.237457 0.162170
0.769409 0.260101 0.202209
0.098999 0.366150 0.146881
0.227661 0.392853 0.165375
0.418640 0.418335 0.176758
0.627533 0.433289 0.209778
0.794434 0.452087 0.248505
0.161682 0.573151 0.234619
0.273956 0.591919 0.249847
0.452209 0.631195 0.271942
0.648010 0.647278 0.282532
0.820099 0.662781 0.311096
0.239349 0.750732 0.318207
0.329956 0.761871 0.330109
0.490417 0.795380 0.353851
0.679047 0.828369 0.378021
0.834656 0.834747 0.387299
0.041168 0.044525 0.221222
0.226746 0.073242 0.260101
0.442291 0.099487 0.271637
0.619171 0.132416 0.281311
0.765778 0.160919 0.298950
0.059143 0.176636 0.212708
0.230347 0.234589 0.284180
0.431458 0.243530 0.290771
0.646454 0.261993 0.311188
0.820343 0.279877 0.332642
0.106903 0.360931 0.260956
0.237671 0.451538 0.305450
0.449219 0.452148 0.344452
0.660767 0.468445 0.360229
0.834686 0.484650 0.378448
0.168488 0.571167 0.328522
0.282288 0.682709 0.357513
0.485168 0.684082 0.390472
0.674469 0.676758 0.420868
0.843048 0.692169 0.441742
0.239777 0.750397 0.401886
0.357117 0.870148 0.426880
0.526062 0.877991 0.449493
0.708923 0.859283 0.487183
0.858063 0.860382 0.504272
0.070496 0.075836 0.430817
0.243652 0.125153 0.518860
0.477631 0.137146 0.528503
0.699524 0.172272 0.559570
0.856476 0.205078 0.562714
0.094604 0.209106 0.423370
0.237427 0.264130 0.533875
0.479248 0.298767 0.549988
0.699371 0.289337 0.553497
0.846436 0.307953 0.551392
0.117004 0.368195 0.426208
0.253845 0.457977 0.539825
0.492706 0.501129 0.585541
0.685547 0.504395 0.584991
0.852509 0.525513 0.599976
0.174561 0.559570 0.477844
0.275940 0.663818 0.570129
0.489777 0.707214 0.594513
0.706451 0.712769 0.641541
0.868347 0.727325 0.652985
0.251495 0.740387 0.544037
0.355560 0.862122 0.605530
0.534546 0.889587 0.624084
0.736328 0.893829 0.668121
0.883698 0.889008 0.699280
0.112488 0.125092 0.645386
0.248047 0.163910 0.690857
0.510468 0.214417 0.771393
0.713440 0.227692 0.773346
0.886261 0.256378 0.804932
0.136627 0.244537 0.648804
0.250244 0.278290 0.741791
0.498352 0.320984 0.792389
0.718842 0.374878 0.793396
0.893402 0.384033 0.816010
0.162506 0.400726 0.631775
0.285217 0.482910 0.755432
0.504395 0.526306 0.801300
0.728912 0.568909 0.820160
0.902832 0.542755 0.822052
0.194977 0.572235 0.652191
0.319214 0.665802 0.767792
0.524719 0.706635 0.805908
0.746582 0.754456 0.848480
0.889008 0.753571 0.842194
0.242737 0.730713 0.687317
0.330719 0.826111 0.782074
0.521332 0.873260 0.819214
0.742889 0.910522 0.847260
0.910950 0.918335 0.887939
0.169647 0.188568 0.817230
0.275421 0.222198 0.834564
0.518585 0.308899 0.910156
0.746857 0.357086 0.919403
0.891266 0.371552 0.920837
0.189972 0.290283 0.821533
0.295227 0.326813 0.903992
0.503906 0.388458 0.919403
0.750061 0.455841 0.930695
0.899719 0.487488 0.933014
0.225952 0.448914 0.818390
0.345032 0.519714 0.906219
0.529449 0.567139 0.930542
0.749512 0.595917 0.945709
0.909637 0.651672 0.948608
0.265442 0.598663 0.815796
0.381439 0.686310 0.898743
0.557129 0.734558 0.928162
0.754456 0.769165 0.955353
0.922241 0.812805 0.963928
0.305634 0.747742 0.846283
0.420746 0.832367 0.902924
0.591766 0.868774 0.928497
0.783478 0.905579 0.954681
0.934723 0.939941 0.975494
