web/frontend/public/assets/luts/Lut_LowSaturation.CUBE
#Created by: Adobe Photoshop Export Color Lookup Plugin
TITLE "Lut_LowSaturation.psd"
#LUT size
LUT_3D_SIZE 8
#data domain
#LUT data points
DOMAIN_MIN 0.000000 0.000000 0.000000
DOMAIN_MAX 0.903226 0.903226 0.903226
0.020782 0.020721 0.028534
0.105316 0.034790 0.041260
0.213440 0.050659 0.055817
0.332062 0.064880 0.071045
0.446167 0.082916 0.094086
0.556641 0.105469 0.125244
0.663177 0.126617 0.151794
0.759033 0.145020 0.170685
0.039642 0.101013 0.049561
0.112671 0.113525 0.057892
0.213531 0.122375 0.072021
0.325867 0.134308 0.090179
0.443604 0.147034 0.112244
0.564117 0.162811 0.140656
0.674469 0.178131 0.168335
0.765900 0.192993 0.192841
0.059143 0.199615 0.079773
0.127075 0.213409 0.089722
0.225983 0.226440 0.095306
0.341339 0.234009 0.110382
0.457550 0.245728 0.136444
0.575562 0.259552 0.162170
0.682526 0.272675 0.185608
0.772949 0.285217 0.207520
0.084137 0.308350 0.123230
0.147614 0.319336 0.132568
0.242920 0.342499 0.143890
0.352509 0.352081 0.147552
0.474976 0.362427 0.165009
0.591400 0.371094 0.188995
0.697357 0.382599 0.212006
0.787323 0.394165 0.233459
0.116486 0.425415 0.171814
0.175079 0.432098 0.179504
0.263824 0.455536 0.192383
0.373505 0.479401 0.203918
0.484283 0.484131 0.206696
0.607147 0.494446 0.221405
0.713531 0.501465 0.242920
0.801666 0.510712 0.264343
0.152588 0.543640 0.222260
0.205872 0.548645 0.227875
0.289154 0.569214 0.240814
0.391479 0.592224 0.253387
0.503143 0.610840 0.263245
0.617004 0.615875 0.267029
0.726227 0.625000 0.280945
0.816711 0.632812 0.301025
0.191376 0.655701 0.271729
0.240295 0.659912 0.275818
0.318604 0.676392 0.288696
0.414062 0.697083 0.301971
0.523285 0.718231 0.315186
0.632751 0.730835 0.323669
0.734985 0.734924 0.328796
0.825348 0.742523 0.340851
0.239349 0.750732 0.318207
0.279663 0.754059 0.321350
0.349640 0.766541 0.333221
0.439636 0.785461 0.346649
0.543457 0.805145 0.360840
0.653595 0.825226 0.375427
0.749725 0.830963 0.381409
0.834656 0.834747 0.387299
0.034790 0.037079 0.132660
0.131042 0.051666 0.155212
0.242828 0.061462 0.159332
0.345764 0.075836 0.164429
0.449371 0.090973 0.173065
0.560059 0.110840 0.190338
0.668610 0.131653 0.209473
0.759735 0.150970 0.228088
0.043182 0.103821 0.130463
0.130737 0.133301 0.167847
0.232605 0.136322 0.170013
0.353729 0.147034 0.180511
0.480591 0.157898 0.193359
0.603363 0.168549 0.209625
0.715179 0.179169 0.227173
0.806152 0.191498 0.244629
0.060181 0.196533 0.153625
0.129730 0.242950 0.176697
0.243103 0.244629 0.198059
0.361633 0.253387 0.206238
0.486908 0.263397 0.216583
0.611115 0.272461 0.229492
0.724548 0.282104 0.245239
0.816345 0.292114 0.261597
0.088379 0.307373 0.186096
0.148193 0.373047 0.202271
0.260681 0.374359 0.221008
0.369354 0.369873 0.236176
0.491577 0.379913 0.247589
0.616119 0.390533 0.259766
0.728790 0.400055 0.273682
0.821625 0.408417 0.287933
0.121063 0.426117 0.224213
0.174347 0.508179 0.239166
0.278778 0.514435 0.251862
0.390930 0.501007 0.271851
0.500183 0.501068 0.281158
0.621643 0.511536 0.294220
0.733337 0.520538 0.307220
0.826660 0.530487 0.321716
0.155701 0.544189 0.266388
0.208282 0.642883 0.284363
0.300110 0.652435 0.294739
0.414215 0.641357 0.307831
0.519745 0.627319 0.325562
0.631866 0.631958 0.330719
0.739716 0.641205 0.343567
0.831482 0.649689 0.358368
0.192047 0.655762 0.310577
0.259064 0.763916 0.334961
0.330627 0.771881 0.343811
0.437164 0.765839 0.353577
0.548492 0.754730 0.365814
0.647919 0.745514 0.378510
0.748810 0.749634 0.384247
0.837952 0.757538 0.395935
0.240082 0.750671 0.352814
0.317902 0.864594 0.386383
0.371643 0.870941 0.393799
0.465607 0.870361 0.402557
0.573822 0.859772 0.410889
0.673218 0.847595 0.422577
0.764099 0.844727 0.431305
0.847504 0.848633 0.437836
0.044281 0.048004 0.251190
0.138123 0.071564 0.290405
0.260193 0.080658 0.296631
0.390167 0.099243 0.310547
0.509247 0.115143 0.312469
0.609680 0.134491 0.315643
0.701630 0.151367 0.322632
0.778778 0.167572 0.331848
0.056458 0.120239 0.241150
0.133270 0.147858 0.297852
0.258087 0.166504 0.307068
0.386139 0.162201 0.307861
0.498169 0.172577 0.308960
0.605133 0.181976 0.315125
0.714600 0.191589 0.327087
0.805908 0.204498 0.340363
0.066956 0.201904 0.241028
0.141205 0.246002 0.298981
0.265656 0.270477 0.325409
0.376862 0.271362 0.324524
0.499908 0.281738 0.333954
0.622162 0.291962 0.345032
0.734650 0.301849 0.356537
0.824982 0.312439 0.367828
0.090515 0.300812 0.263855
0.145386 0.360840 0.314758
0.258606 0.389252 0.330200
0.391693 0.394653 0.358765
0.511322 0.401917 0.364929
0.633484 0.410645 0.372314
0.744354 0.418945 0.381226
0.835785 0.429413 0.392944
0.125458 0.419586 0.299835
0.170135 0.503174 0.339386
0.275635 0.521484 0.350586
0.405365 0.526184 0.376343
0.519135 0.522095 0.396118
0.639038 0.531738 0.405975
0.749115 0.540863 0.414520
0.841064 0.550385 0.424286
0.161438 0.539764 0.338257
0.205414 0.642792 0.369354
0.299957 0.654388 0.378082
0.421356 0.662598 0.395966
0.538330 0.651001 0.426117
0.648346 0.650940 0.439209
0.754150 0.660034 0.451874
0.845490 0.668549 0.460693
0.198944 0.653687 0.378876
0.259247 0.763672 0.404144
0.334534 0.773163 0.411804
0.442505 0.783661 0.425262
0.562897 0.775116 0.450531
0.665161 0.762665 0.478943
0.764038 0.766815 0.485291
0.851532 0.775146 0.496552
0.241364 0.749084 0.420380
0.321777 0.865051 0.440735
0.376770 0.872498 0.448334
0.472534 0.883362 0.461456
0.584747 0.877380 0.479767
0.689972 0.866699 0.504547
0.780273 0.860474 0.523468
0.861694 0.864349 0.529785
0.059448 0.064087 0.371002
0.136841 0.082733 0.397369
0.278534 0.108398 0.451630
0.403412 0.117889 0.450806
0.533142 0.139038 0.469543
0.667938 0.155701 0.480865
0.757202 0.174957 0.478638
0.830444 0.193848 0.481049
0.074310 0.136963 0.368591
0.135651 0.151062 0.428253
0.269958 0.175537 0.465820
0.403168 0.202820 0.461823
0.534302 0.209961 0.473328
0.663208 0.205231 0.473022
0.757904 0.216156 0.472931
0.836029 0.230042 0.475616
0.085510 0.217407 0.353241
0.146881 0.256775 0.429138
0.268158 0.284332 0.464447
0.407135 0.307465 0.476746
0.533478 0.296722 0.473755
0.638702 0.304504 0.472687
0.737396 0.313141 0.476776
0.824921 0.324646 0.484863
0.098938 0.310272 0.362213
0.156769 0.362488 0.432587
0.276581 0.393250 0.467163
0.416779 0.423462 0.498779
0.526642 0.421204 0.495239
0.645599 0.429779 0.503235
0.754059 0.440918 0.512451
0.843353 0.453064 0.522217
0.126068 0.412964 0.385437
0.172028 0.478180 0.448273
0.275177 0.510956 0.481323
0.405060 0.541046 0.500061
0.544342 0.549744 0.532745
0.659332 0.555145 0.537079
0.765564 0.563751 0.542847
0.854980 0.573090 0.549896
0.165283 0.533020 0.424805
0.209076 0.620605 0.480591
0.290192 0.649963 0.503937
0.418518 0.668976 0.516510
0.556519 0.676392 0.546173
0.667023 0.672211 0.567291
0.770630 0.680878 0.576141
0.859436 0.689056 0.583405
0.204590 0.647766 0.463593
0.258392 0.746948 0.513062
0.334045 0.773590 0.526581
0.445770 0.785370 0.537750
0.573181 0.795746 0.559570
0.685577 0.784851 0.593201
0.780273 0.785065 0.606140
0.865601 0.793732 0.617065
0.249176 0.743317 0.501526
0.316528 0.854828 0.542328
0.382874 0.873444 0.550262
0.478241 0.883545 0.560730
0.592682 0.895752 0.576263
0.704865 0.886597 0.606537
0.797668 0.876953 0.636078
0.876343 0.880798 0.643127
0.082672 0.089661 0.491913
0.146973 0.102020 0.507080
0.281219 0.145447 0.592957
0.427002 0.155029 0.599640
0.548370 0.156464 0.603027
0.671783 0.177155 0.621063
0.787384 0.197815 0.639191
0.882996 0.215424 0.645081
0.097382 0.158478 0.499664
0.141815 0.157959 0.557159
0.268524 0.197876 0.603607
0.425232 0.223450 0.614075
0.550842 0.239929 0.614960
0.672607 0.257904 0.629944
0.790771 0.250305 0.636292
0.884918 0.255615 0.635468
0.109039 0.240692 0.486450
0.154572 0.265289 0.566803
0.274445 0.305481 0.611938
0.419128 0.311981 0.629059
0.553589 0.345581 0.629028
0.675110 0.347687 0.637177
0.790161 0.333130 0.633087
0.866333 0.344421 0.629364
0.120087 0.324097 0.473358
0.165527 0.372101 0.555511
0.285126 0.423340 0.616302
0.418915 0.434509 0.632477
0.558746 0.460999 0.646332
0.676392 0.444855 0.640625
0.770721 0.451050 0.636749
0.848053 0.461700 0.638489
0.135742 0.427368 0.490326
0.183960 0.488586 0.568848
0.294830 0.530273 0.620972
0.427887 0.545593 0.636841
0.569153 0.576355 0.666473
0.671326 0.572113 0.659973
0.774567 0.581573 0.665588
0.861816 0.592957 0.673096
0.166229 0.528534 0.513092
0.207428 0.597015 0.581390
0.299561 0.634094 0.629272
0.419952 0.660400 0.644226
0.559326 0.687469 0.663544
0.689117 0.696350 0.695587
0.788727 0.703369 0.700287
0.875092 0.711151 0.704071
0.204346 0.641632 0.549683
0.254578 0.726410 0.615997
0.328735 0.753601 0.652618
0.440033 0.781860 0.659912
0.568909 0.799194 0.674500
0.702850 0.807098 0.705231
0.798004 0.804199 0.724518
0.880768 0.812500 0.732605
0.251373 0.737671 0.586273
0.308197 0.833923 0.646423
0.369995 0.857544 0.666046
0.475891 0.884460 0.676453
0.591248 0.895264 0.688782
0.713562 0.905945 0.712799
0.815887 0.895874 0.744324
0.891144 0.897156 0.754395
0.106445 0.117554 0.615143
0.162811 0.128571 0.630585
0.280914 0.169983 0.689056
0.434631 0.193207 0.739441
0.568451 0.209717 0.736542
0.682129 0.211548 0.741974
0.790100 0.226288 0.758575
0.885864 0.248047 0.779755
0.119202 0.177094 0.624725
0.157318 0.175720 0.680542
0.267151 0.209412 0.709045
0.425629 0.241730 0.756134
0.571503 0.280609 0.748535
0.684204 0.286285 0.752167
0.792572 0.301117 0.766815
0.890198 0.305359 0.781433
0.133453 0.261536 0.614929
0.173981 0.277344 0.693481
0.281860 0.313568 0.729340
0.417114 0.333862 0.751831
0.573395 0.368286 0.764221
0.688141 0.389526 0.765961
0.796387 0.403259 0.779663
0.895050 0.385071 0.784546
0.148193 0.351074 0.605591
0.192322 0.389709 0.687927
0.300629 0.436035 0.742218
0.428833 0.457031 0.763947
0.570740 0.467041 0.779480
0.693665 0.502960 0.781464
0.801727 0.500763 0.789764
0.898895 0.477966 0.785339
0.160370 0.441010 0.602325
0.208588 0.493469 0.680725
0.316559 0.541656 0.735443
0.442993 0.570648 0.765259
0.574005 0.587250 0.784515
0.701630 0.613068 0.797394
0.806183 0.593018 0.792450
0.881744 0.597076 0.786835
0.180267 0.544220 0.620667
0.235870 0.611816 0.703186
0.333893 0.648529 0.748779
0.453400 0.667694 0.766510
0.584686 0.692749 0.788300
0.712921 0.721069 0.814819
0.801025 0.715942 0.807312
0.883179 0.723328 0.810516
0.207001 0.639832 0.640411
0.250000 0.710083 0.709961
0.330109 0.736786 0.750854
0.442261 0.763275 0.772614
0.569916 0.792023 0.790741
0.702332 0.815399 0.808380
0.817596 0.824585 0.838043
0.896851 0.830566 0.841492
0.244110 0.731873 0.667267
0.288239 0.812592 0.734009
0.356659 0.837341 0.770355
0.462921 0.864777 0.786224
0.585388 0.891144 0.801910
0.711914 0.907349 0.817047
0.830719 0.914673 0.845642
0.906891 0.914062 0.862549
0.133728 0.148743 0.730164
0.185394 0.163666 0.735718
0.288544 0.199066 0.774811
0.438110 0.250153 0.844238
0.587616 0.264893 0.858948
0.702454 0.277069 0.855530
0.799469 0.280609 0.860626
0.886871 0.289795 0.873291
0.144897 0.199219 0.733795
0.184113 0.205811 0.787109
0.279755 0.237183 0.810608
0.431580 0.297852 0.875305
0.582977 0.306519 0.867310
0.705750 0.342010 0.864960
0.802826 0.345825 0.869415
0.889313 0.356262 0.881042
0.161804 0.284241 0.727631
0.203674 0.296814 0.799255
0.297516 0.330139 0.830261
0.427948 0.374298 0.869537
0.577606 0.379700 0.880341
0.711975 0.436218 0.878998
0.808350 0.442474 0.882660
0.893280 0.451691 0.893250
0.179962 0.376465 0.722992
0.229279 0.409149 0.803650
0.324768 0.453491 0.851044
0.448517 0.495911 0.888672
0.572937 0.485596 0.878174
0.716827 0.530029 0.894836
0.814728 0.549255 0.897369
0.899628 0.556885 0.907898
0.196625 0.464813 0.716461
0.256073 0.518433 0.802490
0.349335 0.565552 0.850189
0.467316 0.610138 0.892883
0.586731 0.605957 0.891235
0.716949 0.620544 0.909729
0.821381 0.652985 0.911438
0.906433 0.651550 0.919067
0.218903 0.557556 0.723785
0.283081 0.621735 0.807037
0.366516 0.660980 0.846283
0.477753 0.694336 0.876923
0.599762 0.713196 0.894226
0.719940 0.731873 0.914398
0.830017 0.754578 0.925629
0.914337 0.734955 0.922150
0.243713 0.653717 0.743713
0.308136 0.726959 0.827728
0.384583 0.759857 0.864319
0.489563 0.781097 0.883484
0.607544 0.797729 0.896179
0.728149 0.822662 0.917175
0.840576 0.847382 0.937225
0.910248 0.842926 0.932587
0.254578 0.735535 0.756439
0.294006 0.807770 0.827148
0.364441 0.830078 0.863129
0.470490 0.855255 0.884583
0.588165 0.877655 0.900269
0.712189 0.903442 0.917572
0.833160 0.922455 0.931915
0.921143 0.928528 0.947266
0.169647 0.188568 0.817230
0.214630 0.202972 0.822357
0.305328 0.235535 0.850861
0.447083 0.302277 0.903290
0.593994 0.329620 0.916870
0.719879 0.353363 0.919098
0.814148 0.365082 0.920135
0.891266 0.371552 0.920837
0.177795 0.232880 0.819611
0.225464 0.250763 0.876038
0.306641 0.280151 0.899933
0.433807 0.329559 0.913116
0.589569 0.369171 0.921631
0.719879 0.395752 0.924133
0.818298 0.418945 0.925873
0.896271 0.424683 0.926941
0.193787 0.310913 0.820984
0.247162 0.330597 0.890930
0.324249 0.359070 0.907440
0.438660 0.397278 0.916443
0.577515 0.415314 0.924927
0.720337 0.461212 0.932129
0.824310 0.504700 0.934143
0.901154 0.510681 0.935272
0.214630 0.402344 0.819244
0.276428 0.439056 0.897308
0.353149 0.472656 0.910706
0.459656 0.507111 0.922638
0.578247 0.509247 0.928772
0.718475 0.540771 0.941132
0.830444 0.597656 0.943024
0.906616 0.603973 0.944153
0.237366 0.493408 0.817230
0.306488 0.545685 0.893860
0.379364 0.580719 0.908386
0.482056 0.618744 0.925293
0.596771 0.622162 0.937988
0.714478 0.635132 0.944733
0.835327 0.682190 0.951721
0.912933 0.699615 0.953217
0.258972 0.576477 0.813507
0.330872 0.642059 0.889984
0.398041 0.674622 0.903900
0.497406 0.712219 0.920593
0.610962 0.723969 0.938171
0.724274 0.740875 0.952026
0.836853 0.761444 0.960266
0.920288 0.791107 0.961853
0.289093 0.668823 0.831116
0.352753 0.734222 0.890320
0.414917 0.754303 0.901764
0.510223 0.778381 0.916290
0.620911 0.802521 0.932953
0.734467 0.828461 0.950287
0.840790 0.849487 0.964874
0.927734 0.874451 0.969696
0.305634 0.747742 0.846283
0.380219 0.819427 0.895142
0.437866 0.836975 0.905853
0.533813 0.857697 0.920349
0.647369 0.879364 0.936218
0.757019 0.900391 0.951111
0.855621 0.920471 0.964417
0.934723 0.939941 0.975494
