web/frontend/public/assets/luts/Lut_Brighter_LowSaturation.CUBE
#Created by: Adobe Photoshop Export Color Lookup Plugin
TITLE "Lut_v05.psd"
#LUT size
LUT_3D_SIZE 5
#data domain
#LUT data points
DOMAIN_MIN 0.000000 0.000000 0.000000
DOMAIN_MAX 0.903226 0.903226 0.903226
0.025391 0.025146 0.035400
0.221863 0.055847 0.062225
0.445984 0.082947 0.092133
0.628815 0.119995 0.147034
0.781189 0.149780 0.181488
0.063965 0.209961 0.084351
0.235596 0.236450 0.100067
0.450897 0.252472 0.137024
0.644409 0.273163 0.180695
0.792145 0.290680 0.217804
0.114746 0.421112 0.172363
0.269226 0.449768 0.193085
0.475647 0.475403 0.204346
0.671265 0.488617 0.234161
0.815033 0.502319 0.270508
0.176910 0.620697 0.264099
0.313660 0.640900 0.281036
0.507111 0.676422 0.303619
0.691437 0.690765 0.313049
0.838715 0.703796 0.337280
0.259216 0.777771 0.348785
0.367828 0.790619 0.362213
0.541168 0.819458 0.386597
0.718292 0.847717 0.409912
0.853119 0.853241 0.418427
0.050354 0.054138 0.264069
0.270386 0.086945 0.308441
0.496704 0.113098 0.318756
0.660126 0.143158 0.322845
0.786804 0.168488 0.335663
0.071564 0.212494 0.254517
0.275757 0.280579 0.337555
0.490234 0.288086 0.342682
0.689819 0.300476 0.357178
0.838013 0.311981 0.371948
0.124268 0.415771 0.308167
0.279175 0.509857 0.357483
0.509979 0.512878 0.402130
0.705841 0.526062 0.412598
0.853729 0.537567 0.424377
0.185577 0.619049 0.376251
0.317841 0.722107 0.403687
0.541382 0.726929 0.442200
0.719543 0.721497 0.475739
0.863007 0.734222 0.490936
0.258148 0.776947 0.448761
0.388794 0.882202 0.465851
0.574646 0.891846 0.491425
0.747528 0.877777 0.535400
0.877258 0.879181 0.552765
0.081299 0.088074 0.485504
0.284790 0.138367 0.572632
0.532196 0.153412 0.583130
0.732330 0.186218 0.611267
0.864258 0.212799 0.611206
0.109283 0.247437 0.479675
0.279572 0.311859 0.599091
0.539062 0.348267 0.611786
0.736938 0.329224 0.610901
0.860687 0.341644 0.604523
0.134369 0.423431 0.484589
0.298035 0.522247 0.608002
0.554535 0.562592 0.650238
0.730896 0.562927 0.647278
0.873138 0.579498 0.658173
0.191742 0.608582 0.536438
0.315125 0.708405 0.633240
0.547546 0.749695 0.655396
0.752045 0.757507 0.701813
0.889801 0.769470 0.709717
0.269531 0.768768 0.599854
0.390747 0.875885 0.656769
0.582916 0.904205 0.677765
0.777039 0.911133 0.721832
0.903168 0.907593 0.751129
0.120331 0.134979 0.683838
0.283997 0.181000 0.732300
0.561829 0.229889 0.798798
0.746704 0.247406 0.802979
0.892120 0.275330 0.829163
0.149292 0.280487 0.687500
0.285553 0.319153 0.783478
0.553680 0.358948 0.824341
0.757935 0.423798 0.830231
0.903442 0.427399 0.847260
0.180328 0.455139 0.679230
0.326996 0.544250 0.802399
0.563019 0.582611 0.842133
0.771515 0.625336 0.860992
0.915985 0.595703 0.859436
0.214600 0.621490 0.700714
0.363312 0.717102 0.817383
0.583069 0.751770 0.848297
0.788116 0.794983 0.887695
0.907166 0.791565 0.880066
0.260468 0.760681 0.733765
0.368469 0.846680 0.826385
0.574951 0.891174 0.856995
0.781891 0.924866 0.883759
0.927795 0.933929 0.920807
0.177948 0.200134 0.831635
0.308594 0.242523 0.857758
0.566559 0.324585 0.912598
0.777893 0.388458 0.923035
0.900055 0.403625 0.924744
0.204376 0.325439 0.840881
0.325531 0.363617 0.909088
0.553162 0.413788 0.922943
0.784088 0.500977 0.936188
0.911499 0.535034 0.939148
0.248413 0.501801 0.845306
0.380188 0.571747 0.912506
0.581421 0.610992 0.938568
0.786438 0.645813 0.952301
0.923340 0.700104 0.955750
0.293335 0.647827 0.849731
0.421082 0.726807 0.907715
0.608398 0.768738 0.937256
0.791748 0.804382 0.962250
0.935150 0.843903 0.969910
0.338135 0.780396 0.876526
0.468079 0.854156 0.913116
0.650848 0.889435 0.939331
0.820709 0.921417 0.962372
0.945587 0.949951 0.979584
