web/frontend/public/assets/luts/Lut_LowSaturation.CUBE
#Created by: Adobe Photoshop Export Color Lookup Plugin
TITLE "Lut_LowSaturation.psd"
#LUT size
LUT_3D_SIZE 32
#data domain
DOMAIN_MIN 0.0 0.0 0.0
DOMAIN_MAX 1.0 1.0 1.0
#LUT data points
0.020782 0.020721 0.028534
0.035217 0.021851 0.029907
0.056915 0.025513 0.033417
0.081696 0.030243 0.037384
0.105316 0.034790 0.041260
0.129944 0.039337 0.045593
0.156799 0.043762 0.049316
0.184265 0.047180 0.052673
0.213440 0.050659 0.055817
0.241394 0.054688 0.060120
0.271179 0.058868 0.064697
0.301178 0.062744 0.068939
0.332062 0.064880 0.071045
0.361816 0.067993 0.074432
0.391144 0.072906 0.080444
0.418640 0.077667 0.086761
0.446167 0.082916 0.094086
0.473694 0.088440 0.101807
0.501465 0.093964 0.109802
0.529541 0.099884 0.118164
0.556641 0.105469 0.125244
0.583954 0.110870 0.132874
0.610565 0.116272 0.139709
0.636566 0.121307 0.146240
0.663177 0.126617 0.151794
0.688629 0.131500 0.156982
0.713562 0.136230 0.161835
0.736694 0.140656 0.166260
0.759033 0.145020 0.170685
0.779480 0.149078 0.174835
0.797516 0.153534 0.180237
0.814117 0.157837 0.185333
0.022339 0.034851 0.031921
0.038300 0.038147 0.035187
0.059967 0.041229 0.038422
0.081360 0.044678 0.041931
0.104614 0.048370 0.045410
0.127350 0.052155 0.049011
0.153046 0.055939 0.052307
0.180115 0.059357 0.056000
0.207611 0.063354 0.059723
0.235474 0.067749 0.064606
0.264221 0.071960 0.069183
0.294312 0.074890 0.072388
0.324524 0.077118 0.075653
0.353943 0.081940 0.081787
0.384003 0.085907 0.087097
0.414246 0.088898 0.092010
0.444489 0.092285 0.097046
0.474579 0.096771 0.102905
0.503693 0.102264 0.110321
0.532928 0.107513 0.117401
0.561951 0.112946 0.123962
0.590485 0.118317 0.131378
0.618225 0.123474 0.137634
0.644653 0.128693 0.144287
0.670197 0.133881 0.150604
0.694672 0.139008 0.156891
0.717957 0.143768 0.162750
0.739929 0.148285 0.168304
0.760590 0.152954 0.173981
0.779877 0.157196 0.179535
0.797821 0.161407 0.184875
0.814423 0.165222 0.189850
0.028534 0.057465 0.038055
0.042786 0.060791 0.041382
0.062469 0.063141 0.043854
0.083618 0.064240 0.046539
0.108215 0.067261 0.049377
0.129608 0.069366 0.052979
0.154846 0.072662 0.056030
0.180939 0.075897 0.059692
0.207520 0.079865 0.064362
0.235107 0.083801 0.069000
0.263947 0.086639 0.072845
0.293915 0.088745 0.075470
0.323761 0.092560 0.080994
0.353363 0.096558 0.086884
0.383453 0.099487 0.091461
0.414032 0.102325 0.096161
0.444580 0.106354 0.102020
0.475281 0.110992 0.109192
0.504761 0.115875 0.117401
0.533875 0.120331 0.124023
0.562531 0.124573 0.130920
0.590851 0.129120 0.137787
0.618530 0.133575 0.144196
0.645020 0.138580 0.150818
0.670563 0.143097 0.156372
0.695038 0.147644 0.162109
0.718262 0.152008 0.167419
0.740173 0.156342 0.172913
0.760803 0.160614 0.178680
0.780121 0.164612 0.183899
0.798126 0.168671 0.189026
0.814697 0.172455 0.194031
0.035034 0.078217 0.044159
0.047180 0.081177 0.046844
0.065247 0.086578 0.049072
0.087799 0.088593 0.050690
0.110107 0.089081 0.053223
0.134125 0.090942 0.056000
0.158325 0.093414 0.059357
0.183960 0.096863 0.063721
0.210083 0.100250 0.068604
0.237000 0.103149 0.072144
0.265320 0.105438 0.075012
0.293793 0.108673 0.079712
0.322815 0.112549 0.085632
0.352905 0.115692 0.090759
0.382935 0.118622 0.095612
0.413116 0.121552 0.100952
0.443787 0.125061 0.106903
0.474426 0.129669 0.115265
0.505035 0.133575 0.122437
0.534424 0.137726 0.129120
0.563446 0.142059 0.136688
0.592194 0.146149 0.143677
0.620178 0.150208 0.150726
0.646973 0.154022 0.157227
0.672577 0.157684 0.163269
0.697205 0.161377 0.169586
0.720276 0.164795 0.175201
0.742126 0.168671 0.181122
0.762665 0.172150 0.186584
0.781891 0.176178 0.191895
0.799744 0.180023 0.196838
0.816315 0.183563 0.201416
0.039642 0.101013 0.049561
0.051727 0.102539 0.052063
0.068176 0.107208 0.054810
0.090088 0.112762 0.056549
0.112671 0.113525 0.057892
0.136993 0.115143 0.060364
0.162048 0.117065 0.064026
0.187408 0.119476 0.068268
0.213531 0.122375 0.072021
0.240631 0.124603 0.074982
0.268463 0.127563 0.079132
0.296753 0.131195 0.085236
0.325867 0.134308 0.090179
0.355225 0.137146 0.094879
0.384338 0.140076 0.099518
0.413818 0.143127 0.105133
0.443604 0.147034 0.112244
0.474701 0.150909 0.119141
0.505432 0.154968 0.126312
0.535004 0.158997 0.133575
0.564117 0.162811 0.140656
0.592804 0.166870 0.147644
0.620850 0.170807 0.154907
0.647980 0.174500 0.161377
0.674469 0.178131 0.168335
0.699402 0.181885 0.174469
0.722961 0.185547 0.180664
0.745117 0.189117 0.186646
0.765900 0.192993 0.192841
0.785034 0.196533 0.198151
0.802917 0.199738 0.203522
0.819336 0.202637 0.208221
0.044464 0.124908 0.056061
0.056610 0.126465 0.058563
0.072693 0.130615 0.061340
0.093384 0.135498 0.063782
0.116150 0.139435 0.065887
0.139435 0.140411 0.066711
0.165222 0.142548 0.069275
0.191528 0.144653 0.073059
0.217468 0.145874 0.075623
0.244476 0.148193 0.078796
0.271881 0.151428 0.084991
0.300171 0.154297 0.090027
0.329315 0.157288 0.094910
0.358673 0.160187 0.099274
0.387726 0.163177 0.104340
0.416931 0.166748 0.111298
0.446625 0.170105 0.117554
0.477020 0.174072 0.124390
0.507324 0.177765 0.130890
0.536224 0.181396 0.137817
0.564819 0.184998 0.144135
0.593384 0.189270 0.151306
0.621338 0.192902 0.158264
0.648529 0.196655 0.164948
0.675110 0.200317 0.171082
0.700317 0.203735 0.176849
0.723877 0.207397 0.182892
0.746063 0.210907 0.189056
0.766907 0.214539 0.195099
0.786255 0.217926 0.200623
0.804352 0.221405 0.205719
0.821014 0.224457 0.210754
0.050079 0.149231 0.063995
0.062317 0.150726 0.066467
0.077118 0.154266 0.068939
0.096954 0.159302 0.070404
0.119537 0.164429 0.072296
0.143097 0.167511 0.074127
0.167603 0.168549 0.075226
0.194214 0.170471 0.077423
0.221802 0.172607 0.079956
0.248505 0.173676 0.083984
0.275940 0.176147 0.090027
0.304138 0.178619 0.094574
0.333038 0.181519 0.099304
0.362396 0.184448 0.104279
0.391327 0.187592 0.110809
0.420349 0.190918 0.117310
0.449921 0.194519 0.123535
0.480255 0.198181 0.130249
0.510651 0.201874 0.136719
0.539764 0.205475 0.143250
0.568146 0.209198 0.149933
0.595978 0.212677 0.156372
0.623169 0.216156 0.162811
0.649719 0.219452 0.168854
0.675751 0.223053 0.174652
0.701263 0.226318 0.180511
0.725037 0.229797 0.186523
0.747192 0.233612 0.192352
0.767975 0.236969 0.197968
0.787415 0.240204 0.203613
0.805359 0.243256 0.208466
0.822052 0.246399 0.213531
0.053741 0.174591 0.070282
0.065247 0.175781 0.071930
0.079926 0.178589 0.074463
0.100616 0.183502 0.077545
0.122803 0.188629 0.080566
0.147003 0.194031 0.083099
0.170898 0.195984 0.083313
0.196320 0.197021 0.083374
0.223785 0.199005 0.085724
0.252136 0.201294 0.090576
0.280121 0.202728 0.095123
0.308136 0.204559 0.100342
0.337036 0.206940 0.104187
0.366272 0.209961 0.110046
0.395050 0.213104 0.117523
0.424103 0.216156 0.123291
0.453644 0.219513 0.129242
0.483673 0.223145 0.136353
0.513947 0.226868 0.142700
0.543427 0.230438 0.149414
0.571808 0.234070 0.155792
0.599579 0.237457 0.162170
0.626678 0.240753 0.168335
0.653107 0.243927 0.174316
0.679169 0.247437 0.179962
0.703796 0.250580 0.185547
0.727325 0.253784 0.191284
0.749146 0.257019 0.196625
0.769409 0.260101 0.202209
0.788544 0.263336 0.207367
0.806580 0.266418 0.212280
0.823212 0.269653 0.216949
0.059143 0.199615 0.079773
0.071228 0.200653 0.081726
0.086029 0.203094 0.084869
0.105438 0.208252 0.087250
0.127075 0.213409 0.089722
0.150482 0.218933 0.092072
0.175415 0.224213 0.094147
0.199890 0.225403 0.094635
0.225983 0.226440 0.095306
0.254181 0.228546 0.097687
0.283417 0.230896 0.101562
0.312592 0.232666 0.105560
0.341339 0.234009 0.110382
0.370239 0.236694 0.116760
0.398956 0.239441 0.123291
0.428040 0.242371 0.129150
0.457550 0.245728 0.136444
0.487366 0.249268 0.142517
0.517456 0.252777 0.149170
0.546997 0.256256 0.155853
0.575562 0.259552 0.162170
0.603210 0.263000 0.168365
0.630310 0.266235 0.174286
0.656616 0.269409 0.180084
0.682526 0.272675 0.185608
0.707214 0.275818 0.191193
0.730804 0.279236 0.196869
0.752777 0.282288 0.202332
0.772949 0.285217 0.207520
0.791687 0.288116 0.212646
0.809204 0.291107 0.217346
0.825562 0.294098 0.222168
0.064240 0.225983 0.088348
0.075409 0.226654 0.089630
0.090088 0.229126 0.092499
0.109619 0.233582 0.095612
0.131226 0.238983 0.098511
0.154022 0.244385 0.100830
0.178772 0.250031 0.103058
0.204254 0.254425 0.105103
0.229431 0.255554 0.105713
0.256348 0.256653 0.106506
0.285400 0.258728 0.108582
0.315186 0.261078 0.112488
0.345795 0.263580 0.117462
0.374512 0.264893 0.123779
0.403290 0.266937 0.129639
0.432281 0.269684 0.135986
0.461456 0.272858 0.142487
0.491302 0.276001 0.149200
0.521149 0.279572 0.156006
0.550995 0.282928 0.162109
0.579468 0.286224 0.168640
0.606964 0.289520 0.174652
0.633789 0.292480 0.180420
0.660339 0.295685 0.186066
0.686005 0.299011 0.191803
0.710693 0.302216 0.197449
0.734161 0.305206 0.202698
0.755981 0.308289 0.208313
0.776520 0.311493 0.213409
0.795349 0.314453 0.218414
0.812683 0.317169 0.223083
0.828918 0.319702 0.227600
0.069946 0.252686 0.099213
0.081421 0.253113 0.100189
0.095154 0.255341 0.103333
0.115082 0.259735 0.106689
0.136444 0.265228 0.110260
0.159027 0.270752 0.113251
0.182861 0.276398 0.115723
0.208588 0.282227 0.118195
0.233826 0.285461 0.119446
0.259918 0.286682 0.119385
0.287567 0.287720 0.119415
0.317230 0.290131 0.121490
0.347900 0.292572 0.125671
0.378632 0.295227 0.131927
0.407898 0.296692 0.136902
0.436707 0.298248 0.143250
0.465790 0.301178 0.149658
0.495453 0.304169 0.156128
0.525238 0.307373 0.162415
0.555054 0.310760 0.168854
0.583496 0.313843 0.175018
0.610870 0.316986 0.181152
0.637634 0.319855 0.186737
0.664001 0.323151 0.192749
0.689758 0.326172 0.198486
0.714233 0.329193 0.203979
0.737732 0.332245 0.209381
0.759644 0.335419 0.214630
0.780029 0.338318 0.219849
0.798859 0.341125 0.224884
0.816254 0.343903 0.229584
0.832428 0.346710 0.234192
0.076935 0.280334 0.111176
0.088318 0.280731 0.112091
0.101624 0.282501 0.114410
0.120880 0.286469 0.117920
0.141602 0.291992 0.120758
0.163818 0.297577 0.123871
0.187286 0.303284 0.126648
0.212372 0.309174 0.129181
0.239014 0.315155 0.131836
0.264008 0.317261 0.132568
0.291382 0.318512 0.133087
0.319580 0.319641 0.133636
0.350037 0.322083 0.135956
0.380707 0.324646 0.139465
0.411469 0.327209 0.144470
0.441406 0.329529 0.151306
0.470337 0.330902 0.156860
0.499725 0.333038 0.163300
0.529480 0.336060 0.169220
0.559082 0.339264 0.175812
0.587341 0.342285 0.181732
0.614777 0.345093 0.187958
0.641724 0.348206 0.193726
0.668030 0.351135 0.199524
0.693604 0.354309 0.205048
0.717957 0.357208 0.210510
0.741333 0.360229 0.216064
0.763123 0.363220 0.221252
0.783844 0.366119 0.226318
0.802521 0.368835 0.231445
0.819916 0.371552 0.236084
0.836090 0.374207 0.240814
0.084137 0.308350 0.123230
0.095245 0.308868 0.124359
0.108002 0.310211 0.126312
0.126831 0.313416 0.129364
0.147614 0.319336 0.132568
0.169220 0.325012 0.135254
0.191986 0.330719 0.138062
0.216736 0.336548 0.140900
0.242920 0.342499 0.143890
0.270142 0.348358 0.146332
0.295288 0.349487 0.146667
0.323456 0.350830 0.147339
0.352509 0.352081 0.147552
0.382996 0.354584 0.149963
0.413574 0.357117 0.153931
0.444214 0.359863 0.159088
0.474976 0.362427 0.165009
0.504150 0.363678 0.170990
0.533722 0.365540 0.176727
0.563232 0.368378 0.183044
0.591400 0.371094 0.188995
0.618835 0.373932 0.194672
0.645538 0.376465 0.200439
0.671936 0.379578 0.206299
0.697357 0.382599 0.212006
0.721619 0.385559 0.217529
0.744995 0.388763 0.223145
0.766785 0.391357 0.228424
0.787323 0.394165 0.233459
0.806061 0.396790 0.238495
0.823395 0.399506 0.243195
0.839600 0.402069 0.247833
0.091095 0.337006 0.134613
0.102203 0.337463 0.135590
0.114410 0.338501 0.137238
0.133148 0.341370 0.140442
0.153931 0.347046 0.144196
0.175446 0.352783 0.147278
0.197998 0.358612 0.150238
0.222107 0.364441 0.153137
0.247498 0.370392 0.155884
0.274445 0.376556 0.158691
0.301849 0.381256 0.160950
0.327789 0.382446 0.161346
0.356781 0.383881 0.161682
0.385651 0.385071 0.162109
0.415924 0.387482 0.164551
0.446442 0.389984 0.168152
0.477203 0.392792 0.173309
0.508484 0.395386 0.178925
0.538239 0.397064 0.184723
0.567444 0.398468 0.190521
0.595551 0.400513 0.196198
0.623077 0.403229 0.201965
0.649872 0.406006 0.207855
0.675995 0.408752 0.213562
0.701141 0.411499 0.219086
0.725464 0.414520 0.224731
0.748535 0.417267 0.230164
0.770447 0.420258 0.235626
0.790894 0.422882 0.240662
0.809692 0.425751 0.245789
0.827087 0.428040 0.250580
0.843140 0.430481 0.255096
0.098999 0.366150 0.146881
0.110321 0.366669 0.147797
0.121857 0.367340 0.149170
0.140411 0.370239 0.152222
0.160797 0.375488 0.155914
0.181915 0.381104 0.159119
0.204041 0.386932 0.162384
0.227661 0.392853 0.165375
0.252533 0.398865 0.168182
0.278900 0.404846 0.171051
0.306976 0.411102 0.173767
0.334045 0.414581 0.175446
0.361115 0.415863 0.175751
0.389893 0.417236 0.175964
0.418640 0.418335 0.176758
0.448853 0.420715 0.179016
0.479462 0.423248 0.182404
0.510590 0.425903 0.187317
0.541840 0.428619 0.192902
0.572083 0.430786 0.198578
0.600098 0.431946 0.204041
0.627533 0.433289 0.209778
0.654327 0.435944 0.215393
0.680206 0.438416 0.220917
0.705231 0.441193 0.226654
0.729431 0.444092 0.232300
0.752319 0.446625 0.237671
0.774048 0.449493 0.243103
0.794434 0.452087 0.248505
0.813293 0.454742 0.253418
0.830811 0.457153 0.258362
0.846802 0.459595 0.262848
0.107605 0.395844 0.159271
0.118622 0.396301 0.160370
0.130371 0.396881 0.161285
0.147919 0.399536 0.164124
0.168152 0.404053 0.167938
0.188873 0.409698 0.170990
0.210571 0.415588 0.174103
0.233582 0.421326 0.177246
0.258057 0.427185 0.180176
0.283875 0.433167 0.183136
0.311279 0.439270 0.186157
0.340057 0.445404 0.188873
0.366821 0.447693 0.189972
0.394196 0.448914 0.190186
0.422729 0.450134 0.191010
0.451385 0.451385 0.191711
0.481750 0.453674 0.194061
0.512665 0.456177 0.197479
0.543793 0.458801 0.201874
0.574829 0.461517 0.207153
0.604645 0.464020 0.212646
0.631989 0.465088 0.218018
0.658569 0.466675 0.223572
0.684357 0.468536 0.228973
0.709442 0.470947 0.234528
0.733429 0.473663 0.240234
0.756104 0.476044 0.245575
0.777771 0.478699 0.250916
0.797974 0.481171 0.256226
0.817017 0.483856 0.261383
0.834503 0.486237 0.266083
0.850433 0.488434 0.270599
0.116486 0.425415 0.171814
0.127441 0.425903 0.172729
0.138855 0.426544 0.173828
0.156036 0.428925 0.176422
0.175079 0.432098 0.179504
0.195770 0.438293 0.183136
0.217133 0.443970 0.186127
0.239746 0.449768 0.189392
0.263824 0.455536 0.192383
0.289215 0.461456 0.195404
0.316162 0.467560 0.198273
0.344330 0.473602 0.201233
0.373505 0.479401 0.203918
0.399384 0.480591 0.204620
0.426697 0.481689 0.205017
0.455231 0.482941 0.205780
0.484283 0.484131 0.206696
0.515015 0.486542 0.208984
0.545898 0.489105 0.212250
0.576843 0.491730 0.216278
0.607147 0.494446 0.221405
0.636475 0.497314 0.227081
0.663025 0.498566 0.232208
0.688721 0.499847 0.237457
0.713531 0.501465 0.242920
0.737305 0.503387 0.248383
0.759949 0.505768 0.253815
0.781616 0.508423 0.259308
0.801666 0.510712 0.264343
0.820648 0.513031 0.269470
0.837982 0.515472 0.274170
0.853882 0.517792 0.279022
0.126007 0.455261 0.184509
0.136383 0.455658 0.185455
0.147766 0.456360 0.186615
0.164062 0.458344 0.188599
0.182678 0.461182 0.191589
0.203094 0.466980 0.195129
0.224030 0.472565 0.198334
0.246216 0.478271 0.201416
0.269714 0.483917 0.204498
0.294769 0.489716 0.207550
0.321228 0.495636 0.210602
0.348694 0.501526 0.213531
0.377350 0.507477 0.216461
0.405792 0.512085 0.218750
0.431213 0.513184 0.219452
0.459229 0.514343 0.220032
0.488129 0.515656 0.220825
0.517456 0.516876 0.221680
0.548218 0.519379 0.224030
0.579193 0.522095 0.227112
0.609253 0.524597 0.231110
0.638458 0.527222 0.236084
0.666626 0.529938 0.241455
0.693024 0.531647 0.246765
0.717621 0.532928 0.251984
0.741180 0.534119 0.257111
0.763855 0.535706 0.262543
0.785156 0.537659 0.267883
0.805237 0.539978 0.272980
0.824158 0.542328 0.278015
0.841492 0.544495 0.282684
0.857330 0.546478 0.287415
0.134918 0.484833 0.196899
0.145020 0.485229 0.197876
0.156342 0.485870 0.198975
0.172150 0.487640 0.200745
0.190399 0.490387 0.203644
0.210480 0.495605 0.207550
0.231018 0.501007 0.210480
0.252777 0.506592 0.213562
0.276062 0.512299 0.216736
0.300568 0.517975 0.219727
0.326569 0.523773 0.222839
0.353729 0.529694 0.225830
0.381531 0.535645 0.228760
0.410461 0.541626 0.231659
0.437744 0.544952 0.233337
0.463562 0.546051 0.234100
0.492340 0.547363 0.234802
0.521667 0.548737 0.235596
0.551178 0.550140 0.236694
0.581818 0.552704 0.239014
0.611664 0.555145 0.242065
0.640594 0.557617 0.246063
0.668671 0.560059 0.250885
0.695892 0.562744 0.256165
0.721924 0.565002 0.261658
0.745514 0.566162 0.266663
0.767822 0.567474 0.271881
0.788940 0.568573 0.276825
0.808899 0.570160 0.281891
0.827789 0.571716 0.286865
0.845062 0.573944 0.291595
0.860992 0.575989 0.296417
0.143921 0.514313 0.209503
0.153870 0.514679 0.210510
0.165253 0.515411 0.211609
0.180267 0.516785 0.213013
0.197968 0.519440 0.215790
0.217621 0.523682 0.219482
0.238068 0.529480 0.222809
0.259705 0.535004 0.225800
0.282440 0.540680 0.228851
0.306671 0.546417 0.231934
0.332245 0.552216 0.234985
0.359070 0.558167 0.238007
0.386566 0.564056 0.241089
0.414703 0.569946 0.244019
0.443634 0.575806 0.247040
0.470398 0.578094 0.248291
0.496765 0.579254 0.248901
0.526001 0.580505 0.249695
0.555450 0.581940 0.250641
0.584625 0.583221 0.251587
0.614227 0.585602 0.254028
0.642944 0.588013 0.257202
0.670837 0.590179 0.261169
0.697937 0.592712 0.265869
0.724182 0.595184 0.271027
0.749268 0.597809 0.276398
0.771973 0.599060 0.281403
0.792938 0.600128 0.286407
0.812775 0.601379 0.291229
0.831512 0.602844 0.296051
0.848663 0.603943 0.300842
0.864471 0.605377 0.305359
0.152588 0.543640 0.222260
0.162567 0.544098 0.222992
0.173889 0.544861 0.224182
0.188110 0.545929 0.225220
0.205872 0.548645 0.227875
0.224670 0.551605 0.231018
0.245514 0.558044 0.234772
0.266724 0.563629 0.237762
0.289154 0.569214 0.240814
0.313110 0.574951 0.243988
0.338196 0.580688 0.247131
0.364655 0.586578 0.250244
0.391479 0.592224 0.253387
0.419189 0.598053 0.256439
0.447784 0.603821 0.259430
0.477234 0.609802 0.262482
0.503143 0.610840 0.263245
0.530487 0.612091 0.264008
0.559784 0.613373 0.264832
0.588928 0.614746 0.265808
0.617004 0.615875 0.267029
0.645447 0.618042 0.269409
0.673218 0.620361 0.272675
0.700195 0.622589 0.276550
0.726227 0.625000 0.280945
0.751099 0.627228 0.285950
0.774933 0.629730 0.291260
0.796997 0.631714 0.296356
0.816711 0.632812 0.301025
0.835266 0.633881 0.305756
0.852417 0.635193 0.310364
0.868256 0.636353 0.314697
0.161682 0.573151 0.234619
0.171326 0.573547 0.235718
0.182526 0.574280 0.236542
0.196472 0.575287 0.237396
0.213623 0.577728 0.239899
0.232269 0.580475 0.242737
0.252869 0.586487 0.246887
0.273956 0.591919 0.249847
0.296234 0.597565 0.252991
0.319977 0.603119 0.256104
0.344788 0.608795 0.259308
0.370514 0.614471 0.262543
0.397003 0.620056 0.265656
0.424133 0.625458 0.268707
0.452209 0.631195 0.271942
0.481171 0.636841 0.274994
0.509949 0.641449 0.277557
0.536133 0.642609 0.278320
0.564209 0.643768 0.279205
0.593079 0.645111 0.280029
0.620880 0.646240 0.281189
0.648010 0.647278 0.282532
0.675568 0.649323 0.284912
0.702332 0.651459 0.288055
0.728302 0.653778 0.291931
0.753052 0.656097 0.296173
0.776764 0.658325 0.300964
0.799103 0.660461 0.305939
0.820099 0.662781 0.311096
0.839020 0.664062 0.315674
0.856201 0.665222 0.320160
0.872009 0.666473 0.324341
0.170929 0.601837 0.246948
0.180847 0.602386 0.248108
0.191864 0.603149 0.248901
0.205353 0.604126 0.249725
0.221985 0.606323 0.252014
0.240417 0.609070 0.254913
0.260773 0.614227 0.258881
0.281586 0.619598 0.261932
0.303406 0.624847 0.264923
0.326874 0.630310 0.268280
0.350952 0.635590 0.271393
0.376251 0.641052 0.274597
0.402161 0.646423 0.277771
0.429260 0.651978 0.281006
0.457031 0.657562 0.284271
0.485535 0.663116 0.287506
0.514648 0.668762 0.290649
0.542908 0.672150 0.292664
0.569153 0.673309 0.293610
0.597290 0.674438 0.294373
0.624817 0.675568 0.295471
0.651703 0.676666 0.296753
0.678101 0.677612 0.298096
0.704681 0.679657 0.300659
0.730438 0.681885 0.303619
0.755096 0.684113 0.307190
0.778595 0.686066 0.311371
0.800842 0.688324 0.315918
0.821808 0.690216 0.320526
0.841583 0.692688 0.325470
0.859894 0.694580 0.330109
0.875732 0.695648 0.334137
0.180542 0.629181 0.259399
0.190765 0.629791 0.260468
0.201752 0.630615 0.261108
0.214844 0.631500 0.261932
0.230927 0.633514 0.263885
0.248932 0.636139 0.266815
0.268585 0.640381 0.270599
0.289429 0.645874 0.273834
0.311066 0.651184 0.277069
0.333954 0.656494 0.280182
0.357788 0.661713 0.283417
0.382355 0.666962 0.286774
0.407959 0.672211 0.289978
0.434540 0.677551 0.293182
0.461945 0.682922 0.296478
0.490082 0.688477 0.299805
0.518829 0.693817 0.302948
0.548523 0.699585 0.306305
0.575623 0.701660 0.307709
0.601746 0.702698 0.308624
0.628662 0.703674 0.309570
0.655304 0.704681 0.310730
0.681641 0.705841 0.312073
0.707062 0.706848 0.313477
0.732635 0.708710 0.315918
0.757080 0.710724 0.318909
0.780518 0.712769 0.322266
0.802704 0.714874 0.326324
0.823547 0.716888 0.330505
0.843262 0.718872 0.334869
0.861542 0.720978 0.339294
0.878540 0.723083 0.343750
0.191376 0.655701 0.271729
0.201721 0.656372 0.272766
0.212402 0.657227 0.273376
0.224915 0.658142 0.274231
0.240295 0.659912 0.275818
0.257721 0.662476 0.278717
0.276611 0.665588 0.281891
0.297516 0.671417 0.285675
0.318604 0.676392 0.288696
0.341095 0.681671 0.292053
0.364410 0.686676 0.295197
0.388702 0.691772 0.298553
0.414062 0.697083 0.301971
0.440247 0.702240 0.305328
0.467194 0.707520 0.308655
0.494873 0.712891 0.311920
0.523285 0.718231 0.315186
0.552551 0.723694 0.318512
0.581787 0.728973 0.321686
0.607513 0.730011 0.322693
0.632751 0.730835 0.323669
0.659271 0.731781 0.324738
0.685120 0.732788 0.325836
0.710510 0.733856 0.327301
0.734985 0.734924 0.328796
0.759308 0.736725 0.331146
0.782562 0.738678 0.333984
0.804626 0.740753 0.337250
0.825348 0.742523 0.340851
0.845123 0.744690 0.344849
0.863281 0.746613 0.349030
0.880219 0.748627 0.353119
0.202637 0.681244 0.283844
0.212769 0.681915 0.284576
0.223022 0.682709 0.285217
0.235352 0.683655 0.286133
0.249878 0.685242 0.287689
0.266876 0.687744 0.290466
0.285248 0.690430 0.293396
0.305725 0.695770 0.297241
0.326569 0.700867 0.300415
0.348236 0.705750 0.303650
0.371338 0.710815 0.307037
0.395294 0.715820 0.310211
0.420166 0.720856 0.313660
0.445892 0.725861 0.316864
0.472809 0.731201 0.320435
0.500000 0.736298 0.323792
0.528107 0.741577 0.327179
0.556793 0.746948 0.330566
0.586060 0.752350 0.334015
0.613464 0.755981 0.336456
0.637695 0.756836 0.337524
0.663300 0.757751 0.338531
0.689117 0.758667 0.339569
0.714142 0.759644 0.340759
0.738464 0.760773 0.342194
0.761871 0.761780 0.343750
0.784912 0.763550 0.346161
0.806824 0.765533 0.348938
0.827454 0.767426 0.351959
0.847015 0.769318 0.355408
0.865112 0.771301 0.359100
0.881958 0.773010 0.362915
0.214783 0.705688 0.295807
0.224548 0.706390 0.296509
0.234222 0.707123 0.296906
0.245605 0.707916 0.297760
0.259857 0.709473 0.299286
0.276367 0.711853 0.302002
0.293976 0.714355 0.304871
0.313995 0.719147 0.308624
0.334137 0.723969 0.311707
0.355530 0.728729 0.314972
0.378204 0.733612 0.318146
0.401794 0.738464 0.321442
0.426575 0.743591 0.324982
0.452087 0.748596 0.328461
0.478394 0.753632 0.331787
0.505219 0.758636 0.335266
0.533081 0.763885 0.338715
0.561493 0.769135 0.342163
0.590027 0.774475 0.345703
0.618439 0.779572 0.349121
0.643646 0.781677 0.350922
0.667542 0.782532 0.351959
0.692963 0.783417 0.352997
0.717896 0.784424 0.354156
0.742096 0.785400 0.355438
0.765320 0.786469 0.356903
0.787415 0.787415 0.358490
0.809174 0.789337 0.360870
0.829651 0.790985 0.363495
0.849091 0.792694 0.366333
0.866974 0.794647 0.369690
0.883728 0.796234 0.373077
0.227051 0.728851 0.307281
0.236481 0.729584 0.307648
0.245422 0.730255 0.308167
0.256409 0.731049 0.308929
0.269684 0.732422 0.310516
0.285492 0.734711 0.313019
0.302826 0.737183 0.315857
0.321777 0.741089 0.319458
0.341888 0.745819 0.322632
0.363037 0.750610 0.325897
0.385345 0.755371 0.329254
0.408630 0.760254 0.332520
0.433197 0.765198 0.335999
0.458282 0.770081 0.339447
0.484192 0.774994 0.342926
0.510864 0.780060 0.346436
0.538361 0.785156 0.350037
