web/frontend/public/assets/luts/Lut_Brighter.CUBE
#Created by: Adobe Photoshop Export Color Lookup Plugin
TITLE "Lut_v05.psd"
#LUT size
LUT_3D_SIZE 32
#data domain
DOMAIN_MIN 0.0 0.0 0.0
DOMAIN_MAX 1.0 1.0 1.0
#LUT data points
0.024292 0.023987 0.036774
0.045654 0.024872 0.037384
0.073883 0.025543 0.036896
0.108582 0.025879 0.036713
0.141174 0.026306 0.037140
0.175720 0.026825 0.036896
0.211548 0.027222 0.036682
0.247437 0.027069 0.036163
0.285126 0.026520 0.035675
0.320984 0.026245 0.036072
0.358551 0.025238 0.035980
0.395294 0.024078 0.035828
0.431946 0.022766 0.034119
0.466766 0.021423 0.032898
0.500305 0.021576 0.035248
0.531067 0.022400 0.038910
0.561249 0.023590 0.044006
0.590790 0.024780 0.049408
0.620148 0.025909 0.054871
0.649384 0.027100 0.060577
0.677155 0.028198 0.065277
0.704742 0.029236 0.070618
0.731262 0.030273 0.074585
0.756805 0.031250 0.078400
0.782745 0.032257 0.080017
0.807098 0.033142 0.081757
0.830750 0.034058 0.083130
0.852509 0.034912 0.083893
0.873413 0.035706 0.085022
0.892517 0.036438 0.085938
0.909119 0.038483 0.090088
0.924408 0.040558 0.093903
0.025635 0.044617 0.039551
0.046997 0.046783 0.041992
0.076080 0.046478 0.041656
0.106659 0.046509 0.041168
0.138245 0.046661 0.041534
0.170654 0.046814 0.041962
0.204956 0.047180 0.041565
0.240387 0.047424 0.041595
0.276276 0.047699 0.041901
0.312225 0.047546 0.042053
0.348541 0.047028 0.042236
0.385345 0.045593 0.042084
0.421417 0.043945 0.041534
0.455872 0.043823 0.043915
0.490631 0.042450 0.045197
0.524689 0.041168 0.046509
0.558289 0.038513 0.047119
0.590698 0.037903 0.049133
0.621490 0.038574 0.053314
0.651886 0.039032 0.056763
0.681610 0.039246 0.059662
0.710358 0.040131 0.064270
0.738007 0.040741 0.066772
0.763916 0.041718 0.070831
0.788666 0.043060 0.074707
0.812012 0.044250 0.078308
0.834045 0.045685 0.081726
0.854706 0.046844 0.084869
0.873962 0.048492 0.088898
0.891907 0.049896 0.092651
0.908539 0.051483 0.096405
0.923828 0.052856 0.099823
0.027557 0.074310 0.042572
0.046875 0.077026 0.044556
0.078918 0.080017 0.046783
0.110016 0.077759 0.046112
0.142273 0.076874 0.045624
0.173187 0.075714 0.045624
0.206635 0.075348 0.045471
0.241028 0.074951 0.046204
0.275787 0.074524 0.046600
0.311371 0.073578 0.047211
0.347656 0.072327 0.047302
0.384277 0.070190 0.046997
0.420074 0.068756 0.048523
0.454956 0.067322 0.050385
0.489349 0.065399 0.051483
0.523712 0.062317 0.051453
0.557251 0.060883 0.053558
0.590027 0.059937 0.056824
0.621155 0.059265 0.061981
0.651459 0.058624 0.065125
0.680908 0.057800 0.068848
0.709534 0.057251 0.072571
0.737183 0.056702 0.076233
0.763214 0.057281 0.079865
0.787994 0.057617 0.082062
0.811371 0.058350 0.085510
0.833374 0.058990 0.088104
0.854004 0.059906 0.091370
0.873291 0.060913 0.095093
0.891266 0.061981 0.098450
0.907959 0.063324 0.102081
0.923279 0.064484 0.105621
0.029816 0.103546 0.045135
0.047729 0.105286 0.047272
0.077148 0.111633 0.049194
0.112549 0.113831 0.050964
0.145081 0.111267 0.050629
0.177460 0.108887 0.050140
0.210480 0.108154 0.049927
0.244537 0.107361 0.050568
0.278687 0.106506 0.050964
0.313324 0.105286 0.051483
0.348724 0.103668 0.051239
0.383789 0.102264 0.052002
0.418701 0.101288 0.053833
0.454010 0.099579 0.055115
0.488464 0.097321 0.055969
0.522400 0.094666 0.057007
0.556000 0.092499 0.059387
0.588715 0.091339 0.064056
0.620819 0.089355 0.067291
0.651184 0.087372 0.070709
0.680511 0.086029 0.075165
0.709259 0.084534 0.078400
0.736969 0.083130 0.082001
0.763428 0.082275 0.085999
0.788300 0.081268 0.089355
0.811981 0.080750 0.093414
0.833954 0.080200 0.096436
0.854553 0.080383 0.100128
0.873840 0.080292 0.104004
0.891693 0.080780 0.108215
0.908295 0.081757 0.111603
0.923553 0.082520 0.114899
0.031342 0.134277 0.048553
0.049286 0.134521 0.050323
0.076813 0.140869 0.052734
0.111176 0.147552 0.054718
0.146606 0.148010 0.056122
0.180878 0.146484 0.055298
0.214600 0.143982 0.055511
0.248505 0.142181 0.055573
0.282623 0.141052 0.055908
0.317383 0.139618 0.055573
0.352295 0.138031 0.056183
0.387054 0.137085 0.058350
0.421936 0.135529 0.059631
0.456390 0.133453 0.060364
0.489929 0.131317 0.060333
0.522888 0.129425 0.062134
0.555450 0.127655 0.066284
0.588715 0.126190 0.069305
0.621094 0.124451 0.071930
0.651459 0.123108 0.075470
0.681000 0.121490 0.078583
0.709656 0.119812 0.082672
0.737244 0.118835 0.086273
0.763763 0.117096 0.089478
0.789062 0.115723 0.093475
0.812653 0.114716 0.096405
0.834747 0.114258 0.099548
0.855377 0.113770 0.103363
0.874542 0.113739 0.107574
0.892426 0.114166 0.110901
0.909027 0.114624 0.114319
0.924286 0.114624 0.118011
0.032990 0.166626 0.053619
0.051208 0.166687 0.055328
0.076935 0.171753 0.057404
0.110352 0.178070 0.059113
0.145721 0.182831 0.061157
0.182404 0.183960 0.062439
0.217834 0.182404 0.061462
0.253082 0.180328 0.061401
0.286957 0.177155 0.061127
0.321594 0.175537 0.060455
0.356018 0.174164 0.063141
0.390625 0.172577 0.064301
0.425476 0.170990 0.065430
0.460205 0.168793 0.065308
0.493378 0.166992 0.066956
0.525909 0.165619 0.070343
0.558380 0.163971 0.072815
0.590912 0.162170 0.075470
0.622711 0.160492 0.078247
0.652435 0.158813 0.081360
0.681519 0.157166 0.084015
0.710022 0.156250 0.088043
0.737640 0.154663 0.090851
0.764069 0.153473 0.094116
0.789551 0.152344 0.096924
0.813416 0.151184 0.099701
0.835571 0.150665 0.103088
0.856171 0.150208 0.106445
0.875427 0.150330 0.109924
0.893219 0.150299 0.113068
0.909821 0.150482 0.116516
0.925018 0.150757 0.119354
0.033752 0.199341 0.058685
0.052216 0.199310 0.059967
0.077423 0.202789 0.061646
0.109650 0.209198 0.063751
0.144989 0.215973 0.065857
0.181519 0.219666 0.067902
0.219238 0.220673 0.069122
0.255310 0.219055 0.067810
0.291626 0.217255 0.067108
0.325989 0.213531 0.066864
0.360352 0.211273 0.069305
0.394836 0.209442 0.070831
0.429688 0.207458 0.070404
0.463928 0.205658 0.072113
0.496857 0.203888 0.074860
0.529175 0.202301 0.078156
0.561493 0.200623 0.080292
0.593842 0.199280 0.082977
0.625732 0.197357 0.085663
0.655701 0.195709 0.088318
0.684479 0.194427 0.091309
0.712341 0.192841 0.094147
0.739136 0.191345 0.097229
0.765015 0.189880 0.099915
0.789978 0.188660 0.102325
0.814117 0.187561 0.104828
0.836426 0.186798 0.107574
0.857056 0.186646 0.110992
0.876282 0.186340 0.114227
0.894104 0.186157 0.117371
0.910614 0.186096 0.120544
0.925873 0.186401 0.123383
0.033966 0.232635 0.063751
0.052368 0.232178 0.065125
0.076965 0.234406 0.067291
0.109467 0.240692 0.070282
0.144073 0.247162 0.072906
0.181183 0.254028 0.075012
0.218048 0.256561 0.075348
0.256622 0.257721 0.075256
0.293243 0.255981 0.073822
0.329651 0.253998 0.074982
0.364716 0.250763 0.076141
0.399017 0.247437 0.077423
0.433746 0.245300 0.077240
0.467773 0.243469 0.079224
0.500366 0.241638 0.083740
0.532837 0.239716 0.085480
0.564911 0.238220 0.087677
0.596893 0.236603 0.091095
0.628662 0.235107 0.093201
0.659027 0.233459 0.095886
0.687805 0.232056 0.098724
0.715515 0.230713 0.101471
0.742188 0.228912 0.104156
0.767944 0.227448 0.106659
0.792847 0.226318 0.109009
0.816193 0.225098 0.111176
0.838257 0.224091 0.113922
0.858612 0.223358 0.116699
0.877319 0.222931 0.119873
0.894989 0.222748 0.122589
0.911530 0.222809 0.125702
0.926727 0.223175 0.128143
0.035980 0.265564 0.073273
0.054321 0.265015 0.073944
0.078064 0.265930 0.075317
0.109741 0.272400 0.077667
0.143768 0.278870 0.080139
0.179901 0.285706 0.082611
0.217896 0.292358 0.084503
0.255219 0.293701 0.085388
0.294159 0.294861 0.085876
0.330872 0.293182 0.084198
0.367737 0.291290 0.084106
0.403625 0.288483 0.083893
0.437958 0.284851 0.084869
0.471588 0.282196 0.088013
0.504150 0.280182 0.090942
0.536438 0.278229 0.093140
0.568451 0.276520 0.096649
0.600311 0.274963 0.098694
0.631775 0.273407 0.101227
0.662109 0.271698 0.103851
0.691040 0.269928 0.106567
0.718658 0.268585 0.109161
0.745361 0.267029 0.111359
0.770874 0.265686 0.113892
0.795624 0.264404 0.115784
0.819031 0.263000 0.118744
0.841125 0.262421 0.121094
0.861603 0.261566 0.123779
0.880280 0.260986 0.126465
0.897522 0.260559 0.129517
0.913574 0.260345 0.132050
0.928528 0.260529 0.134827
0.035767 0.299713 0.080170
0.054504 0.298645 0.079895
0.077240 0.299438 0.081757
0.109436 0.304504 0.083923
0.143005 0.311157 0.086517
0.178864 0.317780 0.088928
0.216278 0.324707 0.091461
0.254761 0.330048 0.093140
0.292694 0.331238 0.093903
0.331940 0.332367 0.094391
0.368927 0.330597 0.092651
0.405579 0.328735 0.092590
0.442200 0.326691 0.093323
0.475494 0.322845 0.096558
0.508209 0.319244 0.098694
0.540375 0.317078 0.101257
0.572021 0.315399 0.104218
0.603790 0.313507 0.106903
0.634949 0.311859 0.109619
0.665649 0.310303 0.111694
0.694427 0.308746 0.114532
0.721832 0.307159 0.117096
0.748291 0.305603 0.119385
0.773987 0.304199 0.121338
0.798462 0.303070 0.123718
0.821777 0.301941 0.126282
0.843872 0.300781 0.128357
0.864136 0.299988 0.131256
0.883148 0.299713 0.133820
0.900482 0.299316 0.136688
0.916412 0.299042 0.139069
0.931244 0.298645 0.141785
0.036804 0.333557 0.090363
0.055786 0.332214 0.089844
0.078156 0.332825 0.091522
0.109772 0.336670 0.094116
0.143402 0.343231 0.097870
0.178375 0.349823 0.100616
0.215118 0.356628 0.103058
0.253845 0.363556 0.105286
0.291351 0.367462 0.106598
0.330170 0.368866 0.105896
0.369690 0.369934 0.105560
0.406555 0.368439 0.103485
0.443359 0.366577 0.103851
0.479095 0.364563 0.106354
0.512360 0.361206 0.107391
0.544220 0.357452 0.110199
0.575775 0.354797 0.112762
0.607391 0.352936 0.115326
0.638489 0.351135 0.117676
0.669098 0.349518 0.120209
0.697876 0.347870 0.122406
0.725128 0.346283 0.125000
0.751465 0.344391 0.126984
0.776917 0.343231 0.129700
0.801453 0.341949 0.131805
0.824615 0.340698 0.134369
0.846619 0.339661 0.136597
0.867065 0.339172 0.139130
0.885895 0.338318 0.141693
0.903198 0.337982 0.144440
0.919159 0.337585 0.147186
0.933960 0.337769 0.149811
0.039398 0.367828 0.101990
0.057770 0.366455 0.101410
0.079346 0.366547 0.102631
0.110596 0.369049 0.103851
0.143799 0.375519 0.106750
0.178192 0.382111 0.109589
0.214264 0.388733 0.112335
0.252319 0.395630 0.114899
0.291718 0.402557 0.117188
0.328491 0.404938 0.117676
0.368073 0.406281 0.118164
0.407288 0.407379 0.118317
0.444122 0.405792 0.116425
0.480133 0.404205 0.115814
0.515198 0.402252 0.116455
0.548340 0.399658 0.119629
0.579773 0.395996 0.121124
0.611023 0.392395 0.124084
0.642120 0.390228 0.125824
0.672485 0.388550 0.128296
0.701019 0.386932 0.130707
0.728394 0.385101 0.133118
0.754791 0.383545 0.135345
0.780090 0.382141 0.137756
0.804504 0.380951 0.139893
0.827545 0.379608 0.142212
0.849396 0.378784 0.144714
0.869720 0.377930 0.147156
0.888916 0.377258 0.149658
0.906067 0.376801 0.152527
0.921997 0.376404 0.154999
0.936768 0.376404 0.157898
0.041138 0.401825 0.113770
0.060516 0.400574 0.113434
0.082214 0.400238 0.113556
0.111969 0.401245 0.114410
0.144409 0.407715 0.117126
0.178680 0.414215 0.119598
0.214233 0.420715 0.122559
0.251465 0.427429 0.125244
0.290131 0.434174 0.127716
0.329376 0.440765 0.129883
0.366272 0.441986 0.130066
0.405640 0.443298 0.130676
0.444977 0.444427 0.130463
0.481018 0.442963 0.128265
0.516022 0.441315 0.128021
0.550171 0.439575 0.128906
0.583557 0.437378 0.130585
0.614655 0.433655 0.132996
0.645599 0.430420 0.134674
0.675903 0.427368 0.137115
0.704346 0.425385 0.139099
0.731720 0.423615 0.141205
0.757721 0.421692 0.143768
0.783142 0.420410 0.146057
0.807373 0.419128 0.148315
0.830292 0.417938 0.150787
0.852173 0.417236 0.153351
0.872498 0.416107 0.155853
0.891479 0.415466 0.158234
0.908722 0.414825 0.161133
0.924622 0.414490 0.163696
0.939392 0.414276 0.166382
0.043884 0.435669 0.124329
0.063416 0.434387 0.123688
0.084198 0.433746 0.123596
0.113647 0.434387 0.124573
0.146027 0.439606 0.127106
0.179749 0.446045 0.130096
0.214966 0.452515 0.132904
0.251434 0.459015 0.135651
0.289093 0.465637 0.138306
0.328247 0.472382 0.140625
0.367157 0.477539 0.142609
0.404205 0.478760 0.142883
0.443756 0.480194 0.142578
0.481934 0.481232 0.142700
0.516907 0.479706 0.140228
0.551117 0.478027 0.139709
0.584686 0.476349 0.140625
0.618103 0.474396 0.142029
0.649200 0.471161 0.143982
0.679230 0.467621 0.145721
0.707642 0.464355 0.147705
0.735016 0.461914 0.149811
0.761078 0.460205 0.152344
0.786224 0.458496 0.154602
0.810242 0.457031 0.156921
0.833160 0.455994 0.159363
0.854797 0.454834 0.161926
0.875183 0.454163 0.164551
0.894073 0.453339 0.166931
0.911407 0.452942 0.169739
0.927338 0.452271 0.172455
0.941986 0.451996 0.175110
0.047577 0.469299 0.135376
0.066376 0.468079 0.134857
0.086914 0.467102 0.134308
0.116425 0.467743 0.135040
0.147949 0.471619 0.136841
0.181183 0.477753 0.140137
0.215637 0.484131 0.143066
0.251526 0.490540 0.145935
0.288757 0.497070 0.148499
0.326996 0.503571 0.150879
0.366791 0.510315 0.153198
0.404388 0.513977 0.154633
0.442291 0.515259 0.154663
0.480743 0.516541 0.154510
0.517822 0.517456 0.154663
0.551941 0.515900 0.152588
0.585663 0.514374 0.151489
0.618988 0.512634 0.152039
0.651794 0.510773 0.153625
0.682892 0.508270 0.155029
0.711212 0.504791 0.156525
0.738342 0.501465 0.158936
0.764496 0.498688 0.161163
0.789368 0.496094 0.163361
0.813232 0.494781 0.165802
0.836060 0.493774 0.168335
0.857513 0.492371 0.170654
0.877716 0.491699 0.173431
0.896576 0.490936 0.176025
0.913971 0.490265 0.178711
0.930023 0.489716 0.181396
0.944611 0.489502 0.184082
0.051605 0.502686 0.146210
0.070648 0.501465 0.145721
0.090149 0.500305 0.145020
0.119385 0.500763 0.145416
0.149963 0.503113 0.146973
0.182709 0.509186 0.149780
0.216827 0.515472 0.152649
0.252075 0.521545 0.155609
0.288727 0.527802 0.158264
0.326416 0.534180 0.161102
0.365356 0.540558 0.163574
0.405121 0.547028 0.165985
0.441772 0.549347 0.166718
0.479248 0.550537 0.166748
0.516357 0.551605 0.167175
0.552643 0.552612 0.167511
0.586273 0.550995 0.165253
0.619629 0.549500 0.164154
0.652435 0.547791 0.164062
0.684479 0.546051 0.165131
0.714569 0.544037 0.166687
0.741547 0.540558 0.168396
0.767487 0.537720 0.170563
0.792358 0.534943 0.172638
0.816284 0.532257 0.174805
0.838928 0.530365 0.177521
0.860138 0.529144 0.179871
0.880371 0.528107 0.182587
0.899017 0.527222 0.185272
0.916565 0.526672 0.188019
0.932587 0.526093 0.190491
0.947174 0.525604 0.193207
0.055878 0.535187 0.157318
0.074738 0.534027 0.156799
0.095215 0.532990 0.155731
0.122864 0.533173 0.155975
0.152130 0.534088 0.156891
0.184540 0.539948 0.159729
0.218170 0.545959 0.162476
0.252960 0.551910 0.165497
0.289062 0.557983 0.168365
0.326202 0.564117 0.171173
0.364685 0.570435 0.173676
0.403839 0.576660 0.176239
0.443146 0.582611 0.178467
0.477936 0.583740 0.178802
0.514679 0.584717 0.179016
0.550964 0.585846 0.179352
0.586945 0.586761 0.179871
0.620300 0.585236 0.177673
0.653046 0.583832 0.176361
0.685089 0.582153 0.175934
0.715607 0.580505 0.177094
0.744690 0.578918 0.178741
0.770660 0.575867 0.180389
0.795410 0.572968 0.182373
0.819122 0.570465 0.184570
0.841583 0.567993 0.186981
0.862823 0.565796 0.189392
0.882965 0.564148 0.192108
0.901550 0.563049 0.194733
0.918976 0.562317 0.197479
0.934967 0.561829 0.199982
0.949463 0.561432 0.202820
0.060211 0.567291 0.168396
0.079041 0.566162 0.167786
0.099670 0.565186 0.166779
0.126526 0.565033 0.166443
0.155304 0.565582 0.167267
0.186371 0.570282 0.169678
0.219421 0.575989 0.172516
0.253998 0.581848 0.175537
0.289520 0.587646 0.178284
0.326294 0.593597 0.180969
0.364380 0.599579 0.183807
0.402740 0.605560 0.186432
0.441406 0.611572 0.188873
0.478912 0.616180 0.190704
0.512909 0.617157 0.191193
0.549316 0.618164 0.191528
0.585297 0.619263 0.192078
0.620819 0.620087 0.192566
0.653534 0.618744 0.190094
0.685638 0.617310 0.188690
0.716156 0.615631 0.188446
0.745209 0.614075 0.189484
0.772766 0.612671 0.191101
0.798279 0.610229 0.193054
0.821777 0.607483 0.195007
0.844147 0.604858 0.197083
0.865387 0.602539 0.199554
0.885254 0.600586 0.202057
0.903839 0.598694 0.204681
0.921295 0.597168 0.207306
0.937225 0.596313 0.209839
0.951721 0.595642 0.212555
0.064575 0.598572 0.179413
0.083344 0.597473 0.178589
0.103607 0.596466 0.177612
0.129761 0.596161 0.176880
0.158203 0.596588 0.177704
0.188721 0.599945 0.179626
0.221191 0.605469 0.182434
0.255035 0.611115 0.185303
0.290466 0.616852 0.188202
0.326569 0.622559 0.191071
0.364136 0.628326 0.193756
0.402130 0.634216 0.196442
0.439911 0.640076 0.199097
0.478027 0.645935 0.201477
0.513397 0.649078 0.202850
0.547729 0.650024 0.203400
0.583710 0.651093 0.203796
0.619385 0.652161 0.204285
0.654297 0.653015 0.204803
0.686310 0.651764 0.202393
0.716797 0.650238 0.201111
0.745758 0.648743 0.201111
0.773285 0.647247 0.202057
0.799713 0.645844 0.203735
0.824585 0.644165 0.205811
0.846924 0.641541 0.207642
0.867920 0.639313 0.210052
0.887634 0.636902 0.212219
0.906128 0.635101 0.214966
0.923553 0.633240 0.217346
0.939453 0.631866 0.220123
0.954010 0.630615 0.222839
0.069855 0.629211 0.190033
0.087219 0.628082 0.189606
0.108246 0.627228 0.188507
0.133240 0.626617 0.187408
0.161224 0.627014 0.188232
0.190887 0.628937 0.189514
0.222961 0.634430 0.192505
0.256622 0.639862 0.195221
0.291443 0.645447 0.198029
0.327240 0.651062 0.200897
0.364380 0.656708 0.203888
0.402008 0.662445 0.206360
0.439362 0.668152 0.209229
0.476471 0.673828 0.211639
0.513580 0.679413 0.214172
0.547760 0.681488 0.215118
0.582245 0.682495 0.215607
0.617920 0.683472 0.216187
0.653107 0.684601 0.216583
0.686981 0.685272 0.216827
0.717377 0.683929 0.214844
0.746246 0.682526 0.213837
0.773834 0.680969 0.213776
0.800140 0.679596 0.214996
0.825317 0.678284 0.216553
0.849121 0.677155 0.218597
0.870514 0.674805 0.220886
0.890106 0.672424 0.223145
0.908539 0.670471 0.225311
0.925873 0.668884 0.227875
0.941681 0.667084 0.230347
0.956177 0.665771 0.233002
0.073608 0.659149 0.201263
0.091522 0.658112 0.200531
0.112640 0.657288 0.199371
0.136688 0.656372 0.197845
0.164490 0.656769 0.198486
0.193390 0.657440 0.199524
0.225311 0.662750 0.202118
0.258362 0.668182 0.204926
0.292755 0.673584 0.207825
0.328522 0.679108 0.210785
0.364899 0.684601 0.213531
0.402069 0.690216 0.216309
0.438507 0.695557 0.219147
0.475281 0.701080 0.221802
0.512146 0.706512 0.224335
0.549042 0.712158 0.226929
0.581635 0.713013 0.227386
0.616608 0.713989 0.227844
0.651703 0.715057 0.228302
0.685852 0.716034 0.228943
0.717957 0.716705 0.229584
0.746735 0.715240 0.227844
0.774292 0.713837 0.226959
0.800659 0.712402 0.226959
0.825775 0.711090 0.227844
0.849426 0.709839 0.229523
0.871887 0.708740 0.231689
0.892517 0.707336 0.234009
0.910889 0.705261 0.236176
0.928131 0.703430 0.238434
0.943909 0.701843 0.240875
0.958466 0.700378 0.243195
0.078491 0.688446 0.211761
0.096619 0.687469 0.211182
0.117126 0.686646 0.209839
0.140839 0.685699 0.208282
0.167755 0.685913 0.208740
0.196381 0.686279 0.209442
0.227783 0.690552 0.211761
0.260559 0.695740 0.214661
0.294708 0.701080 0.217468
0.330048 0.706390 0.220459
0.366150 0.711700 0.223419
0.402405 0.717041 0.226257
0.438599 0.722260 0.229218
0.474701 0.727325 0.231781
0.510986 0.732666 0.234680
0.547363 0.737854 0.237152
0.582977 0.742065 0.239197
0.615570 0.743011 0.239807
0.650543 0.743927 0.240387
0.684448 0.744965 0.240906
0.716431 0.745728 0.241699
0.747101 0.746277 0.242676
0.774628 0.744751 0.240814
0.800934 0.743500 0.240051
0.826080 0.742279 0.240234
0.849731 0.741119 0.241150
0.872192 0.739960 0.242767
0.893127 0.738800 0.244781
0.912720 0.737885 0.247223
0.930267 0.736267 0.249420
0.946167 0.734589 0.251617
0.960754 0.733307 0.253754
0.083954 0.716522 0.222382
0.102631 0.715668 0.221710
0.123016 0.714874 0.220184
0.146118 0.713989 0.218536
0.171936 0.713989 0.218872
0.200348 0.714386 0.219635
0.230621 0.717224 0.221649
0.263397 0.722260 0.224304
0.296814 0.727234 0.227234
0.331757 0.732269 0.230255
0.367004 0.737244 0.233215
0.402771 0.742249 0.236115
0.438293 0.747223 0.239075
0.474396 0.752380 0.241943
0.510406 0.757416 0.244812
0.546417 0.762543 0.247559
0.582336 0.767639 0.250275
0.616577 0.770691 0.251892
0.649506 0.771606 0.252533
0.683105 0.772461 0.252991
0.714935 0.773224 0.253815
0.745544 0.773956 0.254669
0.774933 0.774445 0.255707
0.801239 0.773102 0.254333
0.826324 0.771912 0.253479
0.850067 0.770844 0.253510
0.872375 0.769531 0.254364
0.893341 0.768677 0.255981
0.912933 0.767426 0.257904
0.931305 0.766907 0.260101
0.948212 0.766113 0.262360
0.962891 0.764618 0.264313
0.090576 0.742798 0.233032
0.110077 0.741943 0.232056
0.129578 0.741272 0.230621
0.151703 0.740356 0.229156
0.177399 0.740265 0.228912
0.204956 0.740570 0.229675
0.234467 0.742310 0.231079
0.266632 0.747162 0.234039
0.299896 0.752075 0.236969
0.334167 0.756958 0.239960
0.368896 0.761749 0.243042
0.403717 0.766541 0.246094
0.438873 0.771301 0.249023
0.474609 0.776184 0.251953
0.510071 0.781067 0.254974
0.545776 0.786041 0.257782
0.581268 0.790894 0.260498
0.617035 0.795990 0.263275
0.649597 0.797821 0.264374
0.682220 0.798584 0.265015
0.713470 0.799225 0.265778
0.743958 0.799957 0.266571
0.773407 0.800659 0.267578
0.801453 0.801270 0.268646
0.826508 0.799835 0.267120
0.850159 0.798706 0.266571
0.872559 0.797546 0.266541
0.893555 0.796570 0.267426
0.913116 0.795685 0.268799
0.931519 0.794830 0.270447
0.948486 0.794159 0.272491
0.964203 0.793640 0.274689
0.098633 0.767914 0.243317
0.118469 0.767090 0.242310
0.137177 0.766418 0.240814
0.158722 0.765625 0.239410
0.183319 0.765381 0.238922
0.210144 0.765686 0.239807
0.238525 0.766418 0.240875
0.270355 0.771057 0.243622
0.302826 0.775635 0.246460
0.336487 0.780396 0.249664
0.370544 0.784973 0.252533
0.404999 0.789551 0.255615
0.440033 0.794373 0.258820
0.475128 0.798981 0.261932
0.510315 0.803711 0.264893
0.545624 0.808533 0.267731
0.580688 0.813232 0.270569
0.616089 0.818115 0.273407
0.650574 0.822784 0.275970
0.681366 0.823517 0.276733
0.712433 0.824127 0.277557
0.742706 0.824738 0.278351
0.771881 0.825409 0.279175
0.799988 0.826050 0.280334
0.826752 0.826599 0.281433
0.850372 0.825378 0.280151
0.872711 0.824249 0.279541
0.893707 0.823364 0.279633
0.913269 0.822357 0.280182
0.931824 0.821655 0.281403
0.948700 0.820984 0.283020
0.964417 0.820526 0.284821
0.109161 0.791595 0.253174
0.127808 0.790863 0.251984
0.145935 0.790253 0.250458
0.166351 0.789551 0.249237
0.189850 0.789215 0.248779
0.215973 0.789520 0.249634
0.243805 0.789825 0.250488
0.274536 0.793610 0.253021
0.306396 0.798218 0.256073
0.339050 0.802582 0.258942
0.372742 0.807129 0.262085
0.406891 0.811615 0.265259
0.441254 0.816132 0.268341
0.475952 0.820587 0.271301
0.511047 0.825348 0.274506
0.545776 0.829803 0.277405
0.580658 0.834503 0.280365
0.615509 0.839233 0.283264
0.650085 0.843964 0.286133
0.682129 0.847076 0.288239
0.711426 0.847656 0.289062
0.741730 0.848267 0.289886
0.770874 0.848877 0.290710
0.798737 0.849487 0.291565
0.825500 0.850189 0.292664
0.850830 0.850739 0.293915
0.873108 0.849548 0.292664
0.894043 0.848755 0.292236
0.913605 0.847839 0.292175
0.932037 0.847015 0.292816
0.948975 0.846466 0.293884
0.964661 0.845795 0.295319
0.120544 0.814026 0.262848
0.138824 0.813324 0.261322
0.155273 0.812744 0.260071
0.174225 0.812012 0.258881
0.196838 0.811676 0.258453
0.222565 0.811951 0.259155
0.249115 0.812164 0.260040
0.278656 0.815033 0.262207
0.309875 0.819336 0.265167
0.342041 0.823578 0.268158
0.375214 0.827942 0.271179
0.408844 0.832275 0.274231
0.442993 0.836792 0.277435
0.477478 0.841217 0.280579
0.511963 0.845642 0.283661
0.546356 0.850067 0.286713
0.580902 0.854584 0.289703
0.615509 0.859192 0.292664
0.649323 0.863831 0.295776
0.682281 0.868225 0.298676
0.711578 0.869965 0.300140
0.740997 0.870544 0.301086
0.769989 0.871124 0.301758
0.797821 0.871765 0.302704
0.824463 0.872375 0.303772
0.849731 0.873047 0.304810
0.873566 0.873566 0.306061
0.894440 0.872681 0.305054
0.914001 0.871643 0.304596
0.932343 0.870880 0.304565
0.949188 0.870239 0.305176
0.964874 0.869537 0.306152
0.132385 0.834961 0.271759
0.149261 0.834381 0.270264
0.164703 0.833832 0.268982
0.182678 0.833130 0.267975
0.204437 0.832794 0.267548
0.228577 0.833038 0.268250
0.254700 0.833252 0.269104
0.282623 0.834991 0.270874
0.313568 0.839203 0.273804
0.345520 0.843445 0.276855
0.378387 0.847656 0.280060
0.411407 0.851959 0.283081
0.445435 0.856293 0.286316
0.479248 0.860565 0.289368
0.513306 0.864868 0.292603
0.547516 0.869293 0.295624
0.581848 0.873718 0.298859
0.615997 0.878204 0.301880
