web/frontend/public/assets/luts/Lut_v05.lut.CUBE
#Created by: Adobe Photoshop Export Color Lookup Plugin
TITLE "Lut_v05.psd"
#LUT size
LUT_3D_SIZE 32
#data domain
DOMAIN_MIN 0.0 0.0 0.0
DOMAIN_MAX 1.0 1.0 1.0
#LUT data points
0.019897 0.019836 0.030090
0.037384 0.020294 0.030609
0.060547 0.021057 0.030945
0.089111 0.021423 0.030792
0.116089 0.021973 0.030579
0.144928 0.022217 0.030945
0.175110 0.022675 0.030670
0.205719 0.022552 0.030426
0.238342 0.022400 0.029785
0.269958 0.022217 0.030060
0.303772 0.021515 0.030090
0.337646 0.020813 0.029968
0.372223 0.019775 0.028778
0.405823 0.018799 0.028259
0.438873 0.019135 0.030334
0.469757 0.020050 0.033600
0.500610 0.021271 0.037872
0.531372 0.022461 0.042450
0.562439 0.023651 0.047424
0.593842 0.024902 0.052490
0.624146 0.026123 0.056213
0.654633 0.027283 0.060883
0.684357 0.028442 0.064362
0.713318 0.029541 0.067780
0.742981 0.030670 0.069489
0.771118 0.031769 0.071167
0.798676 0.032806 0.072449
0.824188 0.033783 0.073517
0.848846 0.034698 0.074677
0.871460 0.035583 0.075714
0.891235 0.037537 0.079193
0.909424 0.039459 0.082336
0.020905 0.036530 0.032867
0.038483 0.038300 0.034607
0.062347 0.038269 0.034637
0.087524 0.038330 0.034546
0.113678 0.038544 0.034424
0.140686 0.038910 0.034454
0.169525 0.039246 0.034332
0.199646 0.039246 0.034576
0.230621 0.039642 0.034576
0.262146 0.039612 0.035095
0.294708 0.039246 0.035248
0.328430 0.038513 0.034943
0.362213 0.037018 0.034973
0.395233 0.037201 0.037048
0.429260 0.036377 0.038269
0.463318 0.035400 0.039856
0.497559 0.033417 0.040497
0.531281 0.033234 0.042328
0.563843 0.034027 0.046051
0.596558 0.034668 0.049469
0.629059 0.035217 0.051910
0.660919 0.036255 0.056091
0.691956 0.036987 0.058594
0.721405 0.038177 0.062042
0.749786 0.039551 0.065277
0.776825 0.040924 0.068359
0.802521 0.042358 0.071503
0.826782 0.043610 0.074432
0.849487 0.045197 0.077698
0.870728 0.046631 0.080994
0.890503 0.048126 0.084290
0.908752 0.049469 0.087341
0.023102 0.060883 0.035461
0.039062 0.063141 0.037140
0.064697 0.065582 0.039459
0.090271 0.063721 0.038818
0.117004 0.062744 0.038483
0.142792 0.061737 0.038849
0.170929 0.061676 0.038605
0.200195 0.061371 0.038910
0.230164 0.061066 0.039368
0.261414 0.060669 0.039734
0.293884 0.059601 0.040100
0.327423 0.058136 0.039490
0.360962 0.057220 0.040924
0.394348 0.056274 0.042480
0.428009 0.054962 0.043488
0.462341 0.052643 0.043976
0.496490 0.051819 0.045593
0.530579 0.051178 0.048828
0.563477 0.050995 0.053253
0.596100 0.050690 0.056183
0.628265 0.050232 0.059662
0.659973 0.050171 0.063080
0.691010 0.050110 0.066071
0.720612 0.050903 0.069336
0.749054 0.051483 0.071594
0.776093 0.052399 0.074280
0.801758 0.053284 0.076660
0.825958 0.054260 0.079498
0.848724 0.055389 0.082825
0.870026 0.056488 0.085968
0.889862 0.057800 0.088898
0.908112 0.058990 0.091919
0.024963 0.084961 0.037689
0.039703 0.086365 0.039246
0.063232 0.091614 0.041321
0.092407 0.093445 0.042847
0.119354 0.091339 0.042328
0.146393 0.089417 0.041992
0.174194 0.088654 0.042267
0.203217 0.088104 0.042389
0.232727 0.087311 0.043213
0.263153 0.086578 0.043365
0.294861 0.085205 0.043304
0.326965 0.084290 0.044037
0.359650 0.083527 0.045776
0.393433 0.082306 0.047211
0.427124 0.080566 0.048126
0.460999 0.078491 0.049194
0.495239 0.077148 0.051208
0.529175 0.076263 0.055511
0.563141 0.074890 0.058746
0.595795 0.073822 0.061340
0.627869 0.073090 0.065277
0.659698 0.071960 0.068573
0.690796 0.071075 0.071808
0.720856 0.070587 0.075409
0.749420 0.069977 0.078522
0.776794 0.069824 0.082092
0.802429 0.069489 0.085052
0.826599 0.069885 0.088562
0.849335 0.070099 0.091827
0.870514 0.071198 0.094757
0.890228 0.072266 0.097687
0.908447 0.073334 0.100311
0.026306 0.110382 0.040314
0.041260 0.110565 0.041748
0.062836 0.115845 0.044128
0.091248 0.121399 0.045593
0.120636 0.121765 0.047058
0.149261 0.120514 0.046478
0.177673 0.118439 0.046478
0.206604 0.116913 0.046570
0.236176 0.116028 0.046783
0.266724 0.114777 0.046936
0.298096 0.113708 0.047241
0.329987 0.112854 0.049286
0.362701 0.111786 0.050568
0.395721 0.110260 0.051453
0.428589 0.108582 0.051697
0.461487 0.107086 0.053741
0.494659 0.106049 0.056915
0.529175 0.104919 0.059845
0.563416 0.103546 0.062592
0.596100 0.102631 0.066193
0.628357 0.101501 0.069275
0.660126 0.100433 0.072662
0.691101 0.099518 0.076569
0.721222 0.098480 0.079285
0.750244 0.097382 0.083069
0.777588 0.096832 0.086060
0.803375 0.096466 0.089294
0.827576 0.096252 0.092590
0.850189 0.096466 0.096344
0.871368 0.097015 0.099396
0.891113 0.097443 0.102783
0.909271 0.097595 0.105957
0.027863 0.137299 0.044403
0.043060 0.137360 0.045807
0.063538 0.141571 0.047699
0.090424 0.146881 0.049377
0.119873 0.150879 0.051117
0.150543 0.151825 0.052002
0.180420 0.150543 0.051208
0.210541 0.148773 0.051208
0.239929 0.146210 0.051056
0.270477 0.144806 0.050842
0.301453 0.143768 0.052948
0.333313 0.142487 0.054382
0.366089 0.141266 0.055481
0.399445 0.139618 0.055267
0.431976 0.138336 0.056732
0.464539 0.137238 0.059998
0.497650 0.136017 0.062439
0.531494 0.134766 0.064880
0.565155 0.133667 0.067444
0.597168 0.132416 0.070557
0.628937 0.131256 0.073029
0.660553 0.130829 0.076508
0.691528 0.129517 0.079773
0.721588 0.128845 0.082825
0.750824 0.127960 0.085754
0.778473 0.127228 0.088226
0.804291 0.126923 0.091370
0.828522 0.126526 0.094696
0.851227 0.126831 0.098114
0.872314 0.126862 0.101196
0.892059 0.127045 0.104431
0.910187 0.127380 0.107178
0.028290 0.164764 0.048706
0.043671 0.164734 0.049713
0.063110 0.167694 0.051544
0.089783 0.173126 0.052887
0.119263 0.178833 0.054504
0.149780 0.181976 0.056335
0.181610 0.182831 0.057281
0.212494 0.181458 0.056488
0.244019 0.179932 0.055878
0.274414 0.176788 0.055756
0.305420 0.175018 0.058105
0.337219 0.173431 0.059204
0.370056 0.171936 0.059296
0.403046 0.170654 0.060638
0.435425 0.169250 0.063416
0.467834 0.168030 0.066345
0.500885 0.166870 0.068268
0.534576 0.165894 0.071136
0.568390 0.164612 0.073425
0.600708 0.163483 0.076019
0.632202 0.162506 0.078918
0.663116 0.161377 0.081665
0.693237 0.160309 0.084595
0.722656 0.159271 0.087097
0.751312 0.158539 0.089447
0.779266 0.157715 0.092041
0.805328 0.157196 0.094940
0.829559 0.157227 0.098175
0.852264 0.157196 0.101074
0.873383 0.157135 0.104309
0.893005 0.157166 0.106934
0.911194 0.157532 0.109802
0.028839 0.193024 0.052795
0.044067 0.192657 0.053558
0.063324 0.194550 0.055725
0.089996 0.199921 0.058258
0.118439 0.205475 0.060608
0.149384 0.211365 0.062500
0.180603 0.213531 0.062500
0.213593 0.214539 0.062500
0.245422 0.213043 0.061279
0.277679 0.211334 0.062317
0.309418 0.208557 0.063477
0.341125 0.205994 0.064728
0.373932 0.204254 0.064606
0.406799 0.202820 0.066528
0.438934 0.201416 0.070587
0.471527 0.199890 0.072235
0.504425 0.198761 0.074402
0.537811 0.197601 0.077484
0.571533 0.196503 0.079620
0.604309 0.195312 0.082306
0.635864 0.194427 0.084808
0.666687 0.193359 0.087555
0.696716 0.192169 0.090179
0.726013 0.191071 0.092560
0.754639 0.190338 0.094788
0.781708 0.189606 0.097076
0.807465 0.188812 0.099945
0.831360 0.188324 0.102448
0.853455 0.188110 0.105530
0.874390 0.188110 0.108276
0.894073 0.188293 0.110809
0.912231 0.188721 0.113342
0.030365 0.221344 0.060425
0.045776 0.220825 0.060913
0.064331 0.221649 0.062683
0.090088 0.227264 0.064697
0.118378 0.232880 0.066803
0.148529 0.238831 0.068756
0.180542 0.244659 0.070343
0.212402 0.245850 0.070740
0.246246 0.246857 0.071228
0.278778 0.245392 0.070099
0.312164 0.243713 0.070129
0.345428 0.241272 0.069977
0.377991 0.238098 0.070984
0.410522 0.236359 0.073547
0.442688 0.234650 0.076477
0.475220 0.233154 0.078552
0.508057 0.231750 0.081909
0.541382 0.230652 0.083771
0.574890 0.229462 0.086304
0.607697 0.228149 0.088959
0.639465 0.226898 0.091461
0.670197 0.225983 0.093994
0.700287 0.224792 0.096252
0.729370 0.223816 0.098572
0.757843 0.222931 0.100616
0.784973 0.222015 0.103027
0.810822 0.221649 0.105621
0.834900 0.221069 0.108093
0.856964 0.220734 0.110840
0.877441 0.220490 0.113556
0.896515 0.220551 0.115936
0.914337 0.220795 0.118591
0.030853 0.251099 0.066345
0.045776 0.250183 0.066345
0.064362 0.250885 0.067780
0.089691 0.255341 0.070007
0.117737 0.261230 0.072113
0.147430 0.267120 0.074127
0.179230 0.273254 0.075989
0.212097 0.278015 0.077759
0.244965 0.279114 0.078308
0.279724 0.280121 0.078888
0.313263 0.278534 0.077423
0.347290 0.276886 0.077423
0.382050 0.275024 0.078186
0.414368 0.271606 0.081177
0.446747 0.269073 0.083099
0.479218 0.267334 0.085541
0.511780 0.265900 0.088165
0.545044 0.264404 0.090790
0.578278 0.263123 0.093506
0.611572 0.261932 0.095398
0.643188 0.260742 0.098236
0.673767 0.259583 0.100494
0.703613 0.258362 0.102661
0.732910 0.257385 0.104706
0.761108 0.256592 0.107117
0.788239 0.255829 0.109436
0.814026 0.254944 0.111664
0.837891 0.254486 0.114349
0.860352 0.254364 0.116791
0.880951 0.254181 0.119354
0.899902 0.254089 0.121765
0.917603 0.253815 0.124176
0.031891 0.281189 0.074829
0.047150 0.279968 0.074585
0.064789 0.280518 0.076538
0.090302 0.283997 0.078461
0.118225 0.289886 0.081573
0.147583 0.295837 0.084106
0.178345 0.302032 0.086090
0.211395 0.308350 0.088074
0.244080 0.311920 0.089081
0.278137 0.313202 0.088806
0.313965 0.314209 0.088593
0.348206 0.312836 0.086914
0.383148 0.311127 0.087280
0.417877 0.309265 0.089630
0.450897 0.306213 0.090759
0.483154 0.302917 0.093323
0.515686 0.301270 0.095673
0.548859 0.299713 0.098022
0.582092 0.298248 0.100250
0.615326 0.297028 0.102600
0.647034 0.295654 0.104858
0.677460 0.294403 0.107330
0.707245 0.292969 0.109161
0.736298 0.292114 0.111786
0.764587 0.291138 0.114075
0.791504 0.290192 0.116425
0.817291 0.289459 0.118652
0.841339 0.289154 0.120941
0.863617 0.288513 0.123474
0.884186 0.288361 0.126068
0.903198 0.288239 0.128479
0.920868 0.288483 0.130920
0.033722 0.312256 0.084961
0.049133 0.311005 0.084412
0.066711 0.311096 0.085266
0.091095 0.313354 0.086914
0.118591 0.319336 0.089325
0.147491 0.325409 0.091736
0.177948 0.331573 0.094147
0.210297 0.337952 0.096313
0.244354 0.344452 0.098480
0.276855 0.346680 0.099091
0.312469 0.347931 0.099487
0.348877 0.348969 0.099854
0.383911 0.347504 0.098358
0.418915 0.345978 0.097839
0.453735 0.344147 0.098755
0.487335 0.341705 0.101624
0.519836 0.338318 0.103180
0.552734 0.335785 0.105652
0.585999 0.334167 0.107391
0.619019 0.332672 0.109955
0.650543 0.331390 0.111938
0.681122 0.329865 0.114471
0.710999 0.328644 0.116608
0.739960 0.327423 0.118988
0.768127 0.326569 0.121002
0.794922 0.325562 0.123230
0.820557 0.324982 0.125610
0.844482 0.324341 0.127899
0.867188 0.323853 0.130127
0.887604 0.323639 0.132782
0.906586 0.323364 0.135101
0.924225 0.323456 0.137756
0.036072 0.343750 0.094879
0.051575 0.342590 0.094635
0.068542 0.342255 0.095184
0.092529 0.343231 0.096161
0.119598 0.349274 0.098358
0.148071 0.355408 0.100494
0.177765 0.361572 0.102997
0.209625 0.367920 0.105255
0.243103 0.374359 0.107727
0.277893 0.380676 0.109558
0.310822 0.381836 0.109894
0.347351 0.383087 0.110596
0.384735 0.384186 0.110474
0.419769 0.382782 0.108948
0.454590 0.381195 0.108856
0.489227 0.379517 0.109924
0.523804 0.377441 0.111694
0.556580 0.373871 0.113770
0.589783 0.370911 0.115295
0.622772 0.369232 0.117584
0.654236 0.367493 0.119568
0.684875 0.366028 0.121521
0.714355 0.364349 0.123810
0.743439 0.363281 0.126190
0.771454 0.362213 0.128418
0.798157 0.361237 0.130737
0.823792 0.360687 0.133179
0.847748 0.359863 0.135498
0.870239 0.359344 0.137726
0.890747 0.358917 0.140259
0.909698 0.358734 0.142578
0.927338 0.358643 0.145111
0.038513 0.375793 0.104126
0.054169 0.374573 0.103668
0.070557 0.373932 0.103912
0.094360 0.374573 0.104919
0.120972 0.379547 0.107117
0.149292 0.385742 0.109772
0.178741 0.391998 0.112213
0.209930 0.398285 0.114532
0.242554 0.404724 0.116699
0.277008 0.411316 0.118988
0.312134 0.416351 0.120850
0.345978 0.417572 0.121155
0.383545 0.418976 0.121246
0.420685 0.419983 0.121399
0.455475 0.418488 0.119934
0.490204 0.416840 0.119537
0.524994 0.415192 0.120636
0.560242 0.413269 0.122040
0.593658 0.410095 0.123810
0.626434 0.406647 0.125549
0.657898 0.404236 0.127319
0.688568 0.402710 0.129364
0.718170 0.401245 0.131744
0.747009 0.399719 0.133942
0.774750 0.398468 0.136047
0.801514 0.397614 0.138428
0.826874 0.396576 0.140686
0.850922 0.396088 0.143158
0.873322 0.395447 0.145386
0.893921 0.395233 0.147919
0.912933 0.394684 0.150391
0.930450 0.394470 0.152771
0.041534 0.408295 0.113953
0.057495 0.407104 0.113342
0.073090 0.406128 0.113251
0.096954 0.406769 0.114044
0.122742 0.410553 0.115753
0.150635 0.416565 0.118500
0.179535 0.422821 0.121246
0.210236 0.429169 0.123688
0.242340 0.435638 0.125977
0.276123 0.442108 0.128235
0.311951 0.448853 0.130310
0.346893 0.452515 0.131714
0.382141 0.453796 0.131958
0.419495 0.455109 0.132019
0.456390 0.456024 0.132568
0.491058 0.454468 0.131042
0.526001 0.452911 0.130219
0.561188 0.451172 0.131104
0.596466 0.449310 0.132507
0.630463 0.446808 0.134003
0.661896 0.443329 0.135681
0.692352 0.440002 0.137787
0.722046 0.438446 0.139771
0.750641 0.436646 0.141815
0.778259 0.435486 0.144073
0.804901 0.434570 0.146545
0.830078 0.433289 0.148773
0.853943 0.432770 0.151215
0.876282 0.432068 0.153778
0.896973 0.431580 0.156097
0.916138 0.431122 0.158661
0.933594 0.431000 0.161011
0.045166 0.441223 0.123718
0.060760 0.440002 0.123260
0.076874 0.438873 0.122589
0.099701 0.439331 0.123260
0.124939 0.441650 0.124664
0.152435 0.447723 0.127106
0.180878 0.454041 0.129669
0.210968 0.460144 0.132355
0.242615 0.466461 0.134766
0.275848 0.472900 0.137177
0.310852 0.479401 0.139618
0.347656 0.485992 0.141785
0.382416 0.488373 0.142731
0.418030 0.489594 0.142853
0.454926 0.490692 0.143677
0.491760 0.491730 0.144196
0.526611 0.490082 0.142639
0.561890 0.488525 0.141998
0.597168 0.486786 0.142212
0.632202 0.485016 0.143341
0.665588 0.482971 0.144836
0.695984 0.479401 0.146606
0.725525 0.476501 0.148529
0.754059 0.473999 0.150482
0.781799 0.472443 0.152618
0.808228 0.471222 0.155060
0.833191 0.470062 0.157288
0.857056 0.469147 0.159637
0.879211 0.468384 0.162140
0.900085 0.467926 0.164612
0.919220 0.467407 0.166962
0.936646 0.466980 0.169250
0.049072 0.473938 0.133545
0.064850 0.472748 0.132904
0.080414 0.471710 0.132477
0.103088 0.471893 0.132874
0.127228 0.472809 0.133667
0.154114 0.478790 0.136169
0.182343 0.484894 0.138550
0.211945 0.491028 0.141388
0.243195 0.497253 0.143829
0.275909 0.503601 0.146301
0.310577 0.510132 0.148682
0.346619 0.516602 0.151123
0.383850 0.522797 0.153259
0.417664 0.523987 0.154022
0.453217 0.525024 0.154358
0.490051 0.526184 0.154999
0.527313 0.527130 0.155792
0.562592 0.525574 0.154114
0.597839 0.524078 0.153351
0.632874 0.522308 0.153290
0.666779 0.520599 0.154449
0.699524 0.518982 0.156189
0.729095 0.515778 0.157776
0.757599 0.512756 0.159576
0.785095 0.510162 0.161591
0.811371 0.508148 0.163879
0.836304 0.506866 0.166168
0.860138 0.506012 0.168610
0.882202 0.504944 0.170898
0.902985 0.504272 0.173431
0.922058 0.503876 0.175598
0.939392 0.503479 0.178284
0.053650 0.506866 0.143372
0.068848 0.505676 0.142914
0.084686 0.504700 0.142517
0.106415 0.504547 0.142334
0.130157 0.505096 0.143097
0.156250 0.509979 0.144989
0.184143 0.515900 0.147736
0.213318 0.522003 0.150299
0.243927 0.528076 0.152893
0.276367 0.534302 0.155396
0.310455 0.540619 0.157898
0.345764 0.546936 0.160400
0.382385 0.553314 0.162781
0.418793 0.558197 0.164734
0.451904 0.559235 0.165466
0.488342 0.560303 0.166016
0.525635 0.561493 0.166779
0.563141 0.562378 0.167450
0.598358 0.560913 0.165894
0.633514 0.559387 0.164978
0.667419 0.557617 0.164948
0.700134 0.555969 0.166138
0.731537 0.554443 0.167786
0.760925 0.551880 0.169525
0.788239 0.548950 0.171417
0.814362 0.546173 0.173279
0.839386 0.543732 0.175568
0.862854 0.542267 0.177979
0.884918 0.541168 0.180298
0.905701 0.540436 0.182587
0.924744 0.539764 0.184814
0.942078 0.539124 0.187317
0.058136 0.539551 0.153137
0.072784 0.538391 0.152649
0.088531 0.537354 0.152222
0.109741 0.537018 0.151886
0.133301 0.537476 0.152527
0.158478 0.541016 0.154327
0.185944 0.546844 0.156738
0.214783 0.552826 0.159271
0.245178 0.558899 0.162048
0.277008 0.565002 0.164490
0.310608 0.571167 0.167114
0.345551 0.577484 0.169647
0.381287 0.583801 0.172119
0.418091 0.590118 0.174561
0.453186 0.593536 0.176086
0.486725 0.594543 0.176849
0.523956 0.595703 0.177582
0.561615 0.596863 0.178284
0.599182 0.597809 0.179108
0.634247 0.596436 0.177460
0.668121 0.594788 0.176697
0.700714 0.593170 0.176880
0.732147 0.591522 0.178009
0.762543 0.590027 0.179718
0.791473 0.588196 0.181671
0.817627 0.585388 0.183441
0.842346 0.582977 0.185547
0.865662 0.580353 0.187622
0.887665 0.578430 0.189819
0.908447 0.576721 0.192139
0.927429 0.576141 0.194397
0.944855 0.575531 0.196960
0.062347 0.572113 0.163055
0.076782 0.570923 0.162689
0.092773 0.570007 0.162262
0.112885 0.569336 0.161469
0.135956 0.569763 0.162231
0.160736 0.571808 0.163483
0.187714 0.577698 0.166016
0.216553 0.583588 0.168488
0.246399 0.589600 0.171082
0.277924 0.595673 0.173706
0.311188 0.601807 0.176300
0.345795 0.608063 0.178833
0.380920 0.614288 0.181519
0.416779 0.620483 0.183929
0.453552 0.626648 0.186584
0.488068 0.628906 0.187714
0.522430 0.630005 0.188354
0.560059 0.631104 0.189117
0.597900 0.632324 0.189911
0.634979 0.633087 0.190491
0.668762 0.631592 0.189209
0.701294 0.630066 0.188721
0.732727 0.628326 0.189026
0.763062 0.626831 0.190155
0.792328 0.625366 0.191772
0.820221 0.624176 0.193756
0.845398 0.621582 0.195679
0.868622 0.618958 0.197723
0.890533 0.616791 0.199738
0.911194 0.615082 0.201965
0.930054 0.613098 0.204285
0.947449 0.611694 0.206543
0.066711 0.604462 0.173157
0.080902 0.603333 0.172638
0.096832 0.602417 0.172272
0.116302 0.601440 0.171204
0.139526 0.601868 0.171661
0.163391 0.602570 0.172607
0.190155 0.608398 0.174957
0.218384 0.614319 0.177460
0.248077 0.620209 0.180084
0.279510 0.626282 0.182770
0.311951 0.632324 0.185486
0.346069 0.638519 0.188110
0.380402 0.644470 0.190826
0.415863 0.650604 0.193359
0.452271 0.656647 0.195953
0.489532 0.662903 0.198517
0.523224 0.663879 0.199341
0.558624 0.665009 0.200043
0.596375 0.666138 0.200806
0.633728 0.667267 0.201721
0.669434 0.667999 0.202667
0.701874 0.666351 0.201416
0.733307 0.664825 0.201080
0.763672 0.663177 0.201447
0.792847 0.661774 0.202362
0.820587 0.660339 0.204071
0.847046 0.659119 0.206146
0.871490 0.657532 0.208191
0.893341 0.655243 0.210083
0.913879 0.653198 0.212189
0.932770 0.651428 0.214355
0.950195 0.649780 0.216400
0.071106 0.636597 0.183014
0.084991 0.635498 0.182922
0.101044 0.634583 0.182037
0.120209 0.633575 0.180878
0.142700 0.633789 0.181244
0.166595 0.634216 0.181824
0.192688 0.638916 0.184113
0.220795 0.644653 0.186584
0.250183 0.650604 0.189209
0.281250 0.656494 0.191864
0.313538 0.662415 0.194611
0.346802 0.668396 0.197418
0.380859 0.674255 0.200104
0.415588 0.679932 0.202698
0.451355 0.685913 0.205475
0.488068 0.691803 0.208099
0.524780 0.696564 0.210297
0.558838 0.697632 0.211060
0.595093 0.698669 0.211975
0.632172 0.699829 0.212738
0.667725 0.700684 0.213837
0.702271 0.701355 0.214996
0.733673 0.699615 0.213837
0.763977 0.698181 0.213531
0.793213 0.696808 0.213959
0.820953 0.695496 0.214874
0.847382 0.694153 0.216522
0.872223 0.692871 0.218414
0.895508 0.691833 0.220612
0.916443 0.690002 0.222504
0.935425 0.688141 0.224579
0.952911 0.686646 0.226410
0.076111 0.667816 0.192841
0.091095 0.666840 0.192474
0.106293 0.665955 0.191833
0.124786 0.665009 0.190643
0.146667 0.665009 0.190735
0.170349 0.665405 0.191345
0.195923 0.668610 0.193024
0.223633 0.674255 0.195679
0.252563 0.679810 0.198151
0.283264 0.685516 0.201080
0.314819 0.691101 0.203735
0.347412 0.696777 0.206543
0.380890 0.702423 0.209320
0.415558 0.708252 0.212128
0.451019 0.714020 0.214935
0.487305 0.719818 0.217743
0.524292 0.725677 0.220428
0.560425 0.729126 0.222260
0.594452 0.730194 0.223145
0.630707 0.731171 0.223938
0.666016 0.732056 0.225006
0.700500 0.732880 0.226196
0.734039 0.733459 0.227356
0.764313 0.731934 0.226532
0.793488 0.730530 0.226105
0.821289 0.729340 0.226410
0.847626 0.727844 0.227417
0.872467 0.726837 0.228912
0.895752 0.725433 0.230652
0.917694 0.724823 0.232849
0.937927 0.723907 0.234833
0.955475 0.722198 0.236511
0.081848 0.697418 0.202881
0.097351 0.696442 0.202301
0.112457 0.695648 0.201416
0.130493 0.694641 0.200256
0.151733 0.694519 0.200104
0.174683 0.694885 0.200806
0.199280 0.696838 0.202148
0.226929 0.702362 0.204681
0.255585 0.707916 0.207458
0.285645 0.713470 0.210114
0.316895 0.718933 0.212952
0.348724 0.724396 0.215820
0.381714 0.729889 0.218597
0.415955 0.735443 0.221436
0.450958 0.741058 0.224304
0.486908 0.746796 0.227112
0.523346 0.752380 0.229889
0.560974 0.758270 0.232788
0.596008 0.760345 0.234100
0.629700 0.761261 0.234985
0.664398 0.762024 0.235962
0.698700 0.762817 0.237091
0.732269 0.763672 0.238342
0.764587 0.764343 0.239594
0.793732 0.762695 0.238678
0.821411 0.761414 0.238464
0.847839 0.760071 0.238678
0.872681 0.758942 0.239716
0.895996 0.757904 0.240967
0.917938 0.756927 0.242584
0.938232 0.756134 0.244415
0.957031 0.755554 0.246368
0.089508 0.725952 0.212372
0.104889 0.725037 0.211884
0.119537 0.724274 0.210907
0.136780 0.723389 0.209900
0.157196 0.723083 0.209412
0.179596 0.723450 0.210205
0.203400 0.724243 0.211121
0.230499 0.729584 0.213654
0.258606 0.734802 0.216217
0.288208 0.740295 0.219147
0.318695 0.745544 0.221832
0.350250 0.750824 0.224762
0.383240 0.756378 0.227722
0.416809 0.761719 0.230682
0.451416 0.767181 0.233582
0.486847 0.772766 0.236450
0.522949 0.778290 0.239258
0.560150 0.783936 0.242126
0.597107 0.789368 0.244843
0.630524 0.790253 0.245880
0.663208 0.790924 0.246918
0.697296 0.791656 0.247986
0.730499 0.792419 0.249023
0.762878 0.793182 0.250336
0.794006 0.793854 0.251648
0.821686 0.792389 0.250793
0.848022 0.791077 0.250580
0.872894 0.790070 0.250885
0.896179 0.788849 0.251617
0.918274 0.788086 0.252838
0.938477 0.787292 0.254395
0.957306 0.786713 0.255981
0.098236 0.753204 0.221649
0.112457 0.752350 0.221100
0.126831 0.751648 0.220032
0.143524 0.750824 0.219147
0.162964 0.750458 0.218750
0.185028 0.750793 0.219360
0.208374 0.751160 0.220154
0.234558 0.755493 0.222412
0.262238 0.760834 0.225128
0.290894 0.765900 0.227875
0.321075 0.771179 0.230774
0.352478 0.776398 0.233612
0.384613 0.781616 0.236603
0.417999 0.786804 0.239380
0.452454 0.792358 0.242462
0.487335 0.797577 0.245453
0.523102 0.803070 0.248383
0.559662 0.808594 0.251251
0.596710 0.814148 0.254272
0.631714 0.817810 0.256439
0.663055 0.818481 0.257599
0.696167 0.819214 0.258545
0.729370 0.819916 0.259644
0.761444 0.820648 0.260712
0.792511 0.821442 0.262024
0.822235 0.822113 0.263397
0.848480 0.820740 0.262726
0.873291 0.819794 0.262573
0.896576 0.818695 0.262726
0.918549 0.817719 0.263458
0.938812 0.817108 0.264587
0.957611 0.816284 0.265991
0.107483 0.779144 0.230927
0.121674 0.778381 0.229980
0.134827 0.777679 0.229095
0.150787 0.776825 0.228027
0.169586 0.776459 0.227722
0.190887 0.776764 0.228363
0.213196 0.777008 0.229126
0.238617 0.780334 0.231018
0.265564 0.785370 0.233673
0.293915 0.790314 0.236481
0.323669 0.795410 0.239166
0.354645 0.800446 0.242035
0.386749 0.805756 0.245056
0.419617 0.810913 0.248108
0.453644 0.816132 0.251007
0.488129 0.821289 0.254059
0.523621 0.826660 0.257050
0.559906 0.832062 0.260071
0.596008 0.837555 0.263123
0.631989 0.842743 0.266052
0.664398 0.844757 0.267792
0.695404 0.845459 0.268890
0.728333 0.846161 0.269897
0.760345 0.846924 0.271027
0.791321 0.847626 0.272186
0.820923 0.848419 0.273529
0.848999 0.848999 0.274872
0.873779 0.847992 0.274353
0.897003 0.846771 0.274170
0.918945 0.845825 0.274292
0.939056 0.845123 0.275085
0.957855 0.844269 0.276062
0.117584 0.803589 0.239319
0.130646 0.802917 0.238434
0.143280 0.802277 0.237427
0.158234 0.801483 0.236511
0.176300 0.801056 0.236267
0.196533 0.801331 0.236847
0.218628 0.801605 0.237579
0.242462 0.803650 0.239136
0.269257 0.808563 0.241821
0.297424 0.813538 0.244598
0.326874 0.818481 0.247528
0.357269 0.823517 0.250244
0.389252 0.828644 0.253357
0.421753 0.833679 0.256348
0.455231 0.838745 0.259308
0.489502 0.843964 0.262360
0.524719 0.849182 0.265503
0.560486 0.854492 0.268494
