web/frontend/public/assets/luts/Lut_v05.lut.CUBE
#Created by: Adobe Photoshop Export Color Lookup Plugin
TITLE "Lut_v05.psd"
#LUT size
LUT_3D_SIZE 5
#data domain
#LUT data points
DOMAIN_MIN 0.000000 0.000000 0.000000
DOMAIN_MAX 0.903226 0.903226 0.903226
0.019897 0.019836 0.030090
0.205719 0.022552 0.030426
0.438873 0.019135 0.030334
0.654633 0.027283 0.060883
0.848846 0.034698 0.074677
0.028839 0.193024 0.052795
0.213593 0.214539 0.062500
0.438934 0.201416 0.070587
0.666687 0.193359 0.087555
0.853455 0.188110 0.105530
0.041534 0.408295 0.113953
0.210236 0.429169 0.123688
0.456390 0.456024 0.132568
0.692352 0.440002 0.137787
0.876282 0.432068 0.153778
0.071106 0.636597 0.183014
0.220795 0.644653 0.186584
0.451355 0.685913 0.205475
0.702271 0.701355 0.214996
0.895508 0.691833 0.220612
0.127319 0.826599 0.247559
0.246826 0.825714 0.247101
0.457458 0.860291 0.267426
0.698425 0.893860 0.288544
0.898285 0.898499 0.297150
0.007568 0.012207 0.247314
0.245392 0.037384 0.288849
0.497101 0.033844 0.274261
0.695374 0.037170 0.253021
0.857239 0.044342 0.247223
0.023865 0.188873 0.236542
0.222290 0.227997 0.294250
0.464508 0.214142 0.278198
0.708588 0.198822 0.266724
0.902252 0.188782 0.262665
0.045837 0.401825 0.268799
0.197205 0.486420 0.291229
0.467621 0.471527 0.327484
0.710785 0.458160 0.312683
0.905640 0.447296 0.303131
0.072906 0.634338 0.311157
0.202454 0.743439 0.310120
0.467010 0.729797 0.338348
0.713531 0.716492 0.375702
0.905090 0.707916 0.372223
0.119568 0.827332 0.362579
0.245422 0.945099 0.348511
0.471161 0.940521 0.363892
0.715942 0.914032 0.415131
0.908722 0.911743 0.434052
0.000031 0.009003 0.483093
0.217651 0.048248 0.577179
0.522125 0.057587 0.588135
0.780457 0.071869 0.599701
0.955627 0.074677 0.574432
0.019928 0.191010 0.474182
0.185059 0.222229 0.579987
0.497925 0.255615 0.590820
0.764923 0.220062 0.574829
0.929779 0.211853 0.544769
0.037933 0.399048 0.475739
0.195923 0.476837 0.585022
0.478821 0.490112 0.602448
0.717712 0.477112 0.584839
0.906433 0.472443 0.572968
0.079498 0.620789 0.512878
0.191559 0.723846 0.600189
0.450134 0.741547 0.591888
0.717102 0.725464 0.630737
0.904663 0.718262 0.618866
0.131287 0.815247 0.554962
0.237549 0.937256 0.595703
0.463409 0.941986 0.587158
0.718689 0.928101 0.626587
0.910461 0.917511 0.664032
0.000031 0.022949 0.721649
0.185211 0.059967 0.765900
0.513031 0.100433 0.851471
0.775269 0.115723 0.852631
0.978516 0.131256 0.873688
0.023010 0.191132 0.724091
0.158325 0.199036 0.811859
0.475830 0.232117 0.860352
0.758209 0.296448 0.855408
0.969788 0.290070 0.869141
0.048065 0.399384 0.703583
0.184601 0.464905 0.824921
0.450409 0.480377 0.846222
0.738861 0.524445 0.859192
0.959564 0.480682 0.853760
0.078064 0.617706 0.722931
0.217804 0.700439 0.834961
0.470673 0.716888 0.848297
0.729675 0.740234 0.865295
0.912323 0.732391 0.850433
0.119781 0.805695 0.748657
0.213898 0.900299 0.842285
0.450165 0.925690 0.854340
0.711884 0.935944 0.851929
0.913483 0.923309 0.882843
0.030640 0.064117 0.908051
0.180756 0.099365 0.919952
0.481415 0.183563 0.994812
0.774719 0.238556 1.000000
0.961456 0.255646 1.000000
0.048187 0.208130 0.911469
0.170746 0.218750 0.988861
0.444458 0.281189 0.994385
0.761688 0.359100 0.999207
0.954193 0.398071 0.997803
0.081238 0.417206 0.905243
0.215668 0.471588 0.987061
0.448914 0.501556 0.988159
0.736359 0.527191 0.996765
0.941223 0.594604 0.992706
0.125488 0.610901 0.897919
0.259979 0.692139 0.974030
0.479370 0.723663 0.981750
0.715851 0.735809 0.985046
0.931396 0.784698 0.986877
0.168243 0.796631 0.926697
0.308319 0.879852 0.973114
0.521149 0.897919 0.977173
0.749878 0.914124 0.979584
0.927063 0.934082 0.981598
