web/frontend/public/assets/luts/Lut_Brighter_LowSaturation.CUBE
#Created by: Adobe Photoshop Export Color Lookup Plugin
TITLE "Lut_v05.psd"
#LUT size
LUT_3D_SIZE 32
#data domain
DOMAIN_MIN 0.0 0.0 0.0
DOMAIN_MAX 1.0 1.0 1.0
#LUT data points
0.025391 0.025146 0.035400
0.043671 0.027039 0.037048
0.069031 0.031769 0.040558
0.098572 0.037476 0.045319
0.127106 0.042572 0.050140
0.157806 0.047119 0.054169
0.189880 0.051483 0.058136
0.221863 0.055847 0.062225
0.255035 0.060669 0.066986
0.286774 0.065186 0.071930
0.320312 0.067627 0.075073
0.352844 0.071198 0.079315
0.385193 0.075134 0.082886
0.416107 0.078339 0.086121
0.445984 0.082947 0.092133
0.473419 0.088196 0.099213
0.500427 0.093628 0.107208
0.526794 0.099274 0.115509
0.553101 0.104584 0.123688
0.579254 0.109985 0.131927
0.604126 0.114990 0.139282
0.628815 0.119995 0.147034
0.652557 0.124847 0.153748
0.675568 0.129364 0.160034
0.699066 0.133850 0.164917
0.721100 0.138062 0.169525
0.742523 0.142212 0.173920
0.762238 0.146118 0.177643
0.781189 0.149780 0.181488
0.798523 0.153259 0.185089
0.813660 0.157379 0.190613
0.827667 0.161438 0.195740
0.027893 0.043060 0.039001
0.047058 0.046875 0.043152
0.072113 0.050262 0.046722
0.098907 0.054169 0.050293
0.125885 0.058105 0.054474
0.154877 0.062134 0.058655
0.185333 0.066406 0.062378
0.216888 0.071503 0.067352
0.248352 0.076630 0.072571
0.280518 0.080048 0.076172
0.312927 0.083649 0.080231
0.345459 0.087402 0.084930
0.377441 0.090759 0.089081
0.408325 0.094971 0.095062
0.439026 0.098846 0.100739
0.469391 0.102264 0.105865
0.499084 0.104980 0.110779
0.527954 0.109192 0.116699
0.555450 0.114441 0.124268
0.582642 0.119171 0.130951
0.609161 0.123749 0.137177
0.634918 0.128632 0.144531
0.659668 0.133240 0.150269
0.683044 0.137817 0.156830
0.705505 0.142426 0.163116
0.726654 0.146759 0.169037
0.746643 0.151184 0.174652
0.765381 0.155182 0.180023
0.782867 0.159363 0.185669
0.799164 0.163208 0.191101
0.814331 0.167084 0.196411
0.828247 0.170502 0.201141
0.035370 0.069489 0.046265
0.051636 0.073334 0.049988
0.075439 0.076263 0.052246
0.102997 0.078491 0.054901
0.130371 0.081238 0.058411
0.157654 0.083984 0.062012
0.187286 0.088226 0.066681
0.217590 0.092590 0.072144
0.248566 0.095917 0.075897
0.280304 0.099091 0.080109
0.312378 0.102844 0.085022
0.344788 0.105896 0.089478
0.376770 0.109009 0.094696
0.407837 0.112854 0.101013
0.438629 0.115875 0.106140
0.469330 0.118164 0.110687
0.499451 0.122253 0.117188
0.528961 0.126556 0.124420
0.557007 0.130768 0.132629
0.583984 0.134613 0.139008
0.610168 0.138214 0.145660
0.635681 0.141998 0.152222
0.660309 0.145599 0.158661
0.683807 0.149780 0.164764
0.706207 0.153564 0.169769
0.727325 0.157562 0.175598
0.747223 0.161316 0.180573
0.765930 0.165039 0.185791
0.783386 0.168762 0.191284
0.799713 0.172424 0.196442
0.814911 0.175995 0.201538
0.828827 0.179321 0.206390
0.041321 0.095764 0.052307
0.056122 0.098755 0.055786
0.078552 0.104126 0.058350
0.105499 0.106476 0.060150
0.133606 0.107971 0.062988
0.162109 0.110229 0.067139
0.190948 0.113800 0.071716
0.221313 0.117035 0.075653
0.251678 0.120148 0.079529
0.282227 0.123657 0.084686
0.313507 0.126770 0.089050
0.344757 0.129822 0.093658
0.375763 0.133759 0.099884
0.407318 0.136841 0.105164
0.438049 0.139557 0.110291
0.468445 0.142242 0.115814
0.498657 0.145447 0.122345
0.528290 0.149567 0.130615
0.557251 0.152863 0.137634
0.584717 0.156067 0.144562
0.611298 0.159760 0.152283
0.637299 0.163025 0.158813
0.662445 0.166229 0.165466
0.686279 0.169373 0.171844
0.708618 0.172150 0.177612
0.729919 0.175171 0.183716
0.749664 0.177917 0.188812
0.768280 0.181122 0.194336
0.785645 0.184021 0.199860
0.801788 0.187103 0.205536
0.816864 0.190399 0.210419
0.830719 0.193390 0.215088
0.046631 0.122589 0.058838
0.061554 0.124542 0.062286
0.083008 0.130493 0.065735
0.109589 0.136841 0.068512
0.136444 0.137512 0.069733
0.165894 0.139862 0.072876
0.195557 0.141846 0.076599
0.225586 0.144104 0.079773
0.255585 0.147430 0.084900
0.286163 0.150452 0.089111
0.317200 0.153290 0.093658
0.347992 0.157166 0.100250
0.379089 0.160156 0.105408
0.409729 0.162872 0.110382
0.439606 0.165527 0.114807
0.469177 0.168518 0.120697
0.498596 0.171936 0.128479
0.528564 0.175629 0.135529
0.557739 0.178894 0.142059
0.585205 0.182434 0.149139
0.611847 0.185547 0.155670
0.637848 0.188629 0.162842
0.662903 0.192047 0.169495
0.687164 0.194763 0.175690
0.710327 0.197662 0.182343
0.731934 0.200562 0.187927
0.752167 0.203613 0.193542
0.771118 0.206696 0.199524
0.788849 0.209869 0.205658
0.805298 0.213135 0.210907
0.820648 0.216339 0.216064
0.834412 0.218658 0.220917
0.054565 0.151367 0.068604
0.068481 0.153320 0.071350
0.087708 0.158630 0.073608
0.113098 0.164215 0.075592
0.140533 0.168793 0.077759
0.168854 0.170013 0.079163
0.199402 0.172211 0.081665
0.230255 0.174530 0.086029
0.259888 0.175934 0.090332
0.290405 0.178558 0.093811
0.321014 0.181976 0.100708
0.351715 0.184845 0.105804
0.382660 0.187927 0.111206
0.413483 0.190430 0.115570
0.443115 0.193390 0.121338
0.472473 0.196838 0.128418
0.501648 0.200073 0.134918
0.530945 0.203156 0.141449
0.559601 0.206421 0.148102
0.586456 0.209412 0.154663
0.612640 0.212158 0.160706
0.638519 0.215698 0.167847
0.663544 0.218536 0.173889
0.687714 0.221527 0.180023
0.710968 0.224426 0.185760
0.732788 0.227081 0.191284
0.753113 0.230194 0.197113
0.772034 0.233063 0.202698
0.789734 0.236237 0.208252
0.806091 0.239044 0.213318
0.821411 0.241974 0.218536
0.835419 0.244781 0.223053
0.057587 0.180634 0.075165
0.072510 0.182404 0.078064
0.092346 0.186340 0.080994
0.117249 0.192230 0.083923
0.144684 0.198364 0.086823
0.172943 0.201965 0.088898
0.201965 0.203064 0.090149
0.233093 0.205353 0.092712
0.264893 0.207855 0.096130
0.295044 0.208832 0.100128
0.325562 0.211273 0.106445
0.356049 0.214020 0.112183
0.386871 0.216522 0.116272
0.417358 0.219513 0.122223
0.446899 0.222443 0.128693
0.476013 0.225647 0.135834
0.505005 0.228699 0.141968
0.534119 0.232086 0.148590
0.562805 0.235077 0.155212
0.589844 0.237915 0.161346
0.615845 0.240997 0.167603
0.640961 0.243774 0.173767
0.665405 0.246490 0.179810
0.688965 0.249023 0.185455
0.711731 0.251678 0.190826
0.733765 0.254395 0.196106
0.754181 0.257111 0.201447
0.773132 0.260193 0.207123
0.790802 0.263031 0.212433
0.807190 0.265747 0.217560
0.822418 0.268402 0.222534
0.836456 0.271088 0.227051
0.063965 0.209961 0.084351
0.078156 0.211365 0.087036
0.097168 0.214813 0.090271
0.121857 0.220703 0.093536
0.148682 0.226654 0.096741
0.177612 0.232910 0.099609
0.205902 0.235291 0.100098
0.235596 0.236450 0.100067
0.267303 0.238708 0.102722
0.299316 0.241211 0.107971
0.330170 0.242767 0.113159
0.360474 0.244202 0.118591
0.391174 0.246582 0.122803
0.421509 0.249390 0.128845
0.450897 0.252472 0.137024
0.479950 0.255249 0.142853
0.508728 0.258331 0.149048
0.537537 0.261505 0.156250
0.566071 0.264618 0.162231
0.593414 0.267487 0.168518
0.619385 0.270355 0.174744
0.644409 0.273163 0.180695
0.668640 0.275543 0.186432
0.692139 0.278046 0.191925
0.714844 0.280792 0.197205
0.736145 0.283142 0.202148
0.756348 0.285645 0.207428
0.774963 0.288147 0.212555
0.792145 0.290680 0.217804
0.808411 0.293304 0.222534
0.823639 0.295990 0.227478
0.837585 0.298584 0.231659
0.070709 0.239288 0.096069
0.084930 0.240601 0.098480
0.103546 0.243469 0.101624
0.127289 0.249390 0.104309
0.153412 0.255341 0.107391
0.181519 0.261688 0.110443
0.211151 0.267731 0.112915
0.239746 0.269135 0.113770
0.269806 0.270355 0.114319
0.301575 0.272644 0.116669
0.333862 0.275177 0.120880
0.365417 0.276978 0.124878
0.395752 0.278198 0.130157
0.425812 0.280457 0.137177
0.454987 0.283112 0.143921
0.483887 0.285767 0.150146
0.512695 0.288849 0.157440
0.541260 0.291718 0.163391
0.569550 0.294708 0.169708
0.596832 0.297577 0.175964
0.622894 0.300079 0.182068
0.647858 0.302826 0.187958
0.672150 0.305359 0.193268
0.695374 0.307800 0.198761
0.717926 0.310303 0.203674
0.739349 0.312683 0.209290
0.759521 0.315430 0.214294
0.778229 0.317810 0.219360
0.795349 0.320160 0.224213
0.811218 0.322571 0.229156
0.825989 0.324799 0.233551
0.839752 0.327423 0.238007
0.076080 0.269440 0.105957
0.090118 0.270325 0.107513
0.108154 0.273224 0.111267
0.132385 0.278351 0.114288
0.157928 0.284485 0.117340
0.185516 0.290588 0.120239
0.214691 0.296967 0.123383
0.244568 0.301880 0.125519
0.273712 0.303162 0.126099
0.304077 0.304382 0.126648
0.336121 0.306732 0.129028
0.368256 0.309204 0.133209
0.400604 0.311829 0.138214
0.430359 0.313049 0.145203
0.459503 0.314362 0.151337
0.488251 0.316833 0.157867
0.516693 0.319672 0.164520
0.545166 0.322388 0.171021
0.573151 0.325226 0.177460
0.600708 0.328094 0.183319
0.626617 0.330780 0.189606
0.651489 0.333252 0.195312
0.675537 0.335693 0.200714
0.698914 0.338165 0.205780
0.721161 0.340729 0.211090
0.742493 0.343231 0.216431
0.762604 0.345398 0.221191
0.781189 0.347778 0.226410
0.798615 0.350464 0.231232
0.814545 0.352783 0.236084
0.829163 0.355011 0.240356
0.842804 0.357056 0.244751
0.082489 0.299438 0.118286
0.096436 0.300110 0.119629
0.114166 0.302826 0.123383
0.138245 0.307770 0.127228
0.163849 0.313965 0.131256
0.190704 0.320038 0.134583
0.219116 0.326355 0.137451
0.249298 0.332764 0.140167
0.278351 0.336395 0.141724
0.308075 0.337677 0.141418
0.338623 0.338837 0.141418
0.370667 0.341370 0.143494
0.403076 0.344055 0.147949
0.434753 0.346680 0.154541
0.464264 0.348053 0.159668
0.492737 0.349152 0.166168
0.520966 0.351166 0.172455
0.549316 0.353851 0.178864
0.577179 0.356445 0.184998
0.604614 0.359192 0.191254
0.630493 0.361755 0.196930
0.655243 0.364197 0.202698
0.679138 0.366333 0.207825
0.702332 0.368958 0.213531
0.724670 0.371338 0.218597
0.745789 0.373688 0.223938
0.765869 0.375977 0.228851
0.784546 0.378723 0.233856
0.801788 0.380768 0.238647
0.817688 0.383179 0.243378
0.832367 0.385254 0.247986
0.845978 0.387756 0.252319
0.090393 0.330017 0.132050
0.103699 0.330597 0.133240
0.120117 0.332794 0.136169
0.144562 0.337402 0.139832
0.169678 0.343414 0.143311
0.195892 0.349548 0.146576
0.223816 0.355743 0.149841
0.253387 0.362122 0.152985
0.284180 0.368561 0.155853
0.312500 0.370850 0.156555
0.343018 0.372253 0.157135
0.373413 0.373474 0.157532
0.405426 0.375977 0.159821
0.437042 0.378632 0.163483
0.468018 0.381165 0.168274
0.497589 0.383179 0.175110
0.525574 0.384247 0.180511
0.553528 0.385437 0.187042
0.581329 0.387726 0.192688
0.608521 0.390320 0.198792
0.634247 0.392822 0.204559
0.659088 0.395142 0.210205
0.683044 0.397491 0.215637
0.706024 0.399841 0.221039
0.728241 0.402374 0.226166
0.749237 0.404572 0.231293
0.769165 0.407074 0.236450
0.787750 0.409271 0.241333
0.805298 0.411591 0.246185
0.821045 0.413818 0.251007
0.835663 0.415863 0.255402
0.849274 0.418243 0.260010
0.097595 0.360352 0.145691
0.111481 0.361145 0.147186
0.127899 0.363007 0.149414
0.151459 0.366791 0.153168
0.175995 0.373047 0.156647
0.201935 0.379120 0.159668
0.229309 0.385223 0.163147
0.258148 0.391449 0.166382
0.288300 0.397736 0.169373
0.319000 0.403900 0.172089
0.347321 0.405121 0.172394
0.377716 0.406494 0.173096
0.408234 0.407806 0.173279
0.439545 0.410278 0.175232
0.470306 0.412811 0.178955
0.500488 0.415436 0.183899
0.530151 0.417664 0.189453
0.557861 0.418640 0.195496
0.585449 0.419952 0.200897
0.612579 0.421478 0.206909
0.638275 0.423706 0.212311
0.663025 0.425934 0.217743
0.686646 0.427948 0.223358
0.709717 0.430420 0.228729
0.731750 0.432770 0.233948
0.752625 0.435028 0.239197
0.772583 0.437683 0.244415
0.791138 0.439636 0.249390
0.808472 0.441956 0.254089
0.824310 0.444061 0.259064
0.838898 0.446198 0.263489
0.852478 0.448364 0.267914
0.105835 0.390778 0.158813
0.119629 0.391571 0.160034
0.135132 0.393036 0.162018
0.158142 0.396484 0.165771
0.183014 0.402496 0.169678
0.208588 0.408478 0.173248
0.235504 0.414551 0.176514
0.263641 0.420624 0.179810
0.292908 0.426819 0.182953
0.323425 0.433105 0.185822
0.353790 0.438019 0.188171
0.382233 0.439209 0.188538
0.412750 0.440643 0.188568
0.442413 0.441925 0.188995
0.472809 0.444183 0.190582
0.502838 0.446564 0.193970
0.532471 0.449127 0.198761
0.562164 0.451569 0.204102
0.589813 0.452850 0.209656
0.616760 0.453796 0.214935
0.642334 0.454956 0.220306
0.667084 0.456665 0.225677
0.690704 0.458954 0.231323
0.713501 0.460999 0.236603
0.735291 0.463196 0.241882
0.756134 0.465454 0.247101
0.775879 0.467743 0.252289
0.794495 0.470032 0.257416
0.811737 0.472137 0.262146
0.827667 0.474457 0.267029
0.842285 0.476318 0.271637
0.855743 0.478424 0.276093
0.114746 0.421112 0.172363
0.127899 0.421906 0.173584
0.142944 0.423035 0.175140
0.165802 0.426514 0.178650
0.190399 0.431976 0.182587
0.215424 0.437775 0.186310
0.241669 0.443756 0.189728
0.269226 0.449768 0.193085
0.298035 0.455841 0.196198
0.327759 0.461914 0.199066
0.358917 0.468201 0.201935
0.388092 0.471710 0.203613
0.417175 0.472992 0.203796
0.446869 0.474274 0.203918
0.475647 0.475403 0.204346
0.505310 0.477570 0.206146
0.534882 0.479980 0.208954
0.564270 0.482391 0.213348
0.593536 0.484955 0.218658
0.621368 0.486816 0.223755
0.646759 0.487701 0.228607
0.671265 0.488617 0.234161
0.694885 0.489899 0.239532
0.717377 0.491241 0.244751
0.739075 0.493469 0.250092
0.759827 0.495850 0.255371
0.779327 0.497864 0.260406
0.797760 0.500183 0.265625
0.815033 0.502319 0.270508
0.830933 0.504425 0.275330
0.845642 0.506348 0.279968
0.859039 0.508423 0.284424
0.123779 0.451294 0.185669
0.137085 0.452087 0.187073
0.151184 0.452972 0.188263
0.173615 0.456238 0.191559
0.197845 0.461029 0.195740
0.222229 0.466766 0.199005
0.248169 0.472626 0.202362
0.275085 0.478363 0.205719
0.303314 0.484222 0.208923
0.332550 0.490204 0.212158
0.362885 0.496155 0.215149
0.394104 0.502228 0.218079
0.422272 0.504486 0.218964
0.451111 0.505676 0.219086
0.479797 0.506866 0.219666
0.508057 0.508057 0.220215
0.537323 0.510193 0.221802
0.566620 0.512604 0.224487
0.595673 0.515015 0.228271
0.624268 0.517517 0.233063
0.651184 0.519653 0.238129
0.675446 0.520447 0.243042
0.698822 0.521545 0.248291
0.721283 0.522736 0.253387
0.742920 0.523773 0.258453
0.763519 0.525452 0.263916
0.782776 0.527466 0.268890
0.801239 0.529510 0.274017
0.818268 0.531494 0.279022
0.834320 0.533691 0.283966
0.848999 0.535583 0.288391
0.862396 0.537476 0.292847
0.132782 0.480713 0.199066
0.145874 0.481537 0.200409
0.160706 0.482635 0.201477
0.181732 0.485504 0.204437
0.204834 0.489166 0.208130
0.229309 0.495178 0.211884
0.254700 0.500793 0.215149
0.281158 0.506378 0.218536
0.308899 0.512115 0.221802
0.337585 0.517883 0.225067
0.367493 0.523773 0.228058
0.398071 0.529663 0.231079
0.428955 0.535339 0.233734
0.455597 0.536469 0.234100
0.483917 0.537598 0.234375
0.512115 0.538849 0.234863
0.540192 0.540039 0.235535
0.569275 0.542328 0.237152
0.598053 0.544678 0.239655
0.626404 0.547028 0.243042
0.653656 0.549347 0.247711
0.679718 0.551727 0.252808
0.703033 0.552612 0.257538
0.725342 0.553650 0.262482
0.746796 0.554840 0.267548
0.767120 0.555939 0.272675
0.786407 0.557098 0.277649
0.804749 0.558777 0.282898
0.821686 0.560486 0.287811
0.837616 0.562469 0.292664
0.852264 0.564545 0.297150
0.865570 0.566345 0.301788
0.141907 0.509766 0.212433
0.154907 0.510620 0.213684
0.169739 0.511749 0.214813
0.189972 0.514282 0.217255
0.212494 0.517609 0.220734
0.236420 0.523193 0.224670
0.261169 0.528564 0.227966
0.287384 0.534149 0.231354
0.314545 0.539642 0.234497
0.342896 0.545319 0.237610
0.372375 0.550995 0.240814
0.402313 0.556702 0.243835
0.432587 0.562439 0.246674
0.461975 0.566864 0.248840
0.488129 0.567902 0.249329
0.516205 0.569031 0.249756
0.544189 0.570312 0.250397
0.572021 0.571472 0.251190
0.600555 0.573822 0.252502
0.628815 0.576141 0.254913
0.655792 0.578247 0.258240
0.681732 0.580444 0.262695
0.706421 0.582855 0.267517
0.729401 0.584137 0.272491
0.750549 0.585144 0.277313
0.770752 0.585968 0.282074
0.790009 0.587067 0.287140
0.808075 0.588287 0.292084
0.824982 0.589447 0.296967
0.840912 0.590851 0.301727
0.855469 0.592438 0.306274
0.868744 0.594147 0.310730
0.150726 0.538177 0.225586
0.163635 0.539032 0.226685
0.178131 0.540131 0.227814
0.197693 0.542450 0.229828
0.219818 0.545715 0.233276
0.243774 0.550842 0.237335
0.267914 0.556122 0.240509
0.293518 0.561493 0.243774
0.320496 0.566986 0.247009
0.348267 0.572388 0.250244
0.377319 0.577911 0.253326
0.406982 0.583527 0.256439
0.436493 0.589111 0.259491
0.466461 0.594727 0.262299
0.493988 0.597809 0.263885
0.520447 0.598846 0.264465
0.548340 0.600067 0.264954
0.576080 0.601288 0.265594
0.603546 0.602509 0.266449
0.631470 0.604858 0.267822
0.658295 0.606903 0.270111
0.683929 0.609009 0.273529
0.708496 0.611145 0.277710
0.732178 0.613281 0.282471
0.754578 0.615265 0.287476
0.774719 0.616058 0.292053
0.793701 0.617188 0.296967
0.811554 0.617889 0.301544
0.828369 0.619171 0.306549
0.844208 0.620117 0.311096
0.858765 0.621490 0.315826
0.872070 0.622559 0.320312
0.159851 0.566315 0.238342
0.171783 0.567017 0.239563
0.186829 0.568390 0.240753
0.205414 0.570312 0.242371
0.227142 0.573425 0.245728
0.250793 0.577972 0.249786
0.274628 0.583252 0.253143
0.300049 0.588409 0.256287
0.326508 0.593750 0.259491
0.354004 0.599121 0.262726
0.382690 0.604553 0.266052
0.411865 0.610016 0.268921
0.441101 0.615509 0.272186
0.470184 0.620911 0.275055
0.499451 0.626282 0.277985
0.525940 0.628387 0.279083
0.552582 0.629486 0.279602
0.580231 0.630615 0.280273
0.607605 0.631897 0.280853
0.634277 0.632965 0.281555
0.660889 0.635040 0.283142
0.686279 0.637146 0.285522
0.710724 0.639038 0.288727
0.734222 0.641083 0.293030
0.756805 0.643280 0.297577
0.778198 0.645386 0.302429
0.797516 0.646362 0.307251
0.815247 0.647125 0.311890
0.831940 0.648163 0.316315
0.847656 0.649292 0.321014
0.862091 0.650238 0.325470
0.875305 0.651245 0.329865
0.167969 0.593750 0.251434
0.180267 0.594574 0.252502
0.195343 0.595947 0.253601
0.213165 0.597534 0.254822
0.234680 0.600647 0.258118
0.257568 0.604126 0.261841
0.281769 0.609802 0.265411
0.306610 0.614990 0.268616
0.332794 0.620178 0.271942
0.360168 0.625458 0.275299
0.388153 0.630707 0.278442
0.417053 0.636078 0.281616
0.445404 0.641235 0.284790
0.474152 0.646515 0.287811
0.503174 0.651764 0.290771
0.532349 0.657227 0.293793
0.557434 0.658173 0.294281
0.584503 0.659241 0.294830
0.611755 0.660431 0.295471
0.638367 0.661652 0.296295
0.663696 0.662781 0.297272
0.688843 0.664490 0.298889
0.713104 0.666473 0.301239
0.736450 0.668335 0.304321
0.758850 0.670227 0.308167
0.780029 0.672272 0.312683
0.800262 0.674255 0.317474
0.818909 0.675873 0.322266
0.835510 0.676819 0.326691
0.851166 0.677795 0.331085
0.865479 0.678711 0.335449
0.878723 0.679596 0.339569
0.176910 0.620697 0.264099
0.189331 0.621613 0.265259
0.203949 0.622925 0.266266
0.221436 0.624420 0.267334
0.242188 0.627289 0.270386
0.264771 0.630493 0.273834
0.289093 0.635864 0.277802
0.313660 0.640900 0.281036
0.339417 0.645966 0.284241
0.366486 0.651093 0.287628
0.394196 0.656189 0.290924
0.422302 0.661346 0.294189
0.450409 0.666351 0.297455
0.478607 0.671265 0.300354
0.507111 0.676422 0.303619
0.535736 0.681427 0.306488
0.563660 0.685547 0.308868
0.588867 0.686584 0.309540
0.615875 0.687653 0.310181
0.642303 0.688873 0.310883
0.667328 0.689880 0.311829
0.691437 0.690765 0.313049
0.715485 0.692444 0.314484
0.738647 0.694366 0.316803
0.760956 0.696259 0.319946
0.782013 0.698151 0.323669
0.802155 0.699982 0.327972
0.821014 0.701874 0.332520
0.838715 0.703796 0.337280
0.854553 0.704865 0.341583
0.868958 0.705688 0.345764
0.882202 0.706726 0.349762
0.186218 0.646606 0.276794
0.199097 0.647705 0.278107
0.213623 0.649017 0.278839
0.230621 0.650543 0.279785
0.250397 0.653076 0.282715
0.272736 0.656311 0.286163
0.296539 0.661011 0.290222
0.321045 0.665833 0.293304
0.346222 0.670624 0.296570
0.372772 0.675476 0.299927
0.399841 0.680298 0.303253
0.427460 0.685120 0.306519
0.455017 0.689941 0.309784
0.483154 0.694946 0.313049
0.511353 0.699860 0.316254
0.539673 0.704834 0.319366
0.567993 0.709808 0.322418
0.594666 0.712799 0.324280
0.620209 0.713837 0.325012
0.646149 0.714844 0.325592
0.670929 0.715790 0.326538
0.694946 0.716797 0.327545
0.718048 0.717651 0.328796
0.741058 0.719360 0.330505
0.763123 0.721161 0.332703
0.784149 0.723022 0.335571
0.804016 0.724640 0.339050
0.822815 0.726624 0.343140
0.840424 0.728149 0.347412
0.857025 0.730225 0.351898
0.872314 0.731812 0.356232
0.885590 0.732666 0.360046
0.196136 0.671051 0.289520
0.209595 0.672211 0.290619
0.223572 0.673553 0.291443
0.239838 0.674957 0.292450
0.259430 0.677460 0.294800
0.281036 0.680481 0.298187
0.304535 0.684662 0.302155
0.328522 0.689331 0.305481
0.353546 0.694061 0.308807
0.379578 0.698822 0.312134
0.406189 0.703491 0.315521
0.433014 0.708130 0.318878
0.460175 0.712769 0.322113
0.488007 0.717499 0.325409
0.515717 0.722290 0.328766
0.543701 0.727112 0.331940
0.571625 0.731873 0.335022
0.599884 0.736847 0.338257
0.625183 0.738739 0.339478
0.650391 0.739624 0.340149
0.674652 0.740479 0.340973
0.698364 0.741425 0.341888
0.721436 0.742371 0.343048
0.743469 0.743378 0.344330
0.765350 0.744812 0.345825
0.786163 0.746521 0.348114
0.806000 0.748169 0.350800
0.824677 0.749939 0.354187
0.842194 0.751587 0.357941
0.858704 0.753296 0.361847
0.873993 0.755066 0.365967
0.888214 0.756775 0.370117
0.206970 0.694580 0.301880
0.220795 0.695831 0.303070
0.234192 0.697083 0.303833
0.250061 0.698547 0.304840
0.268799 0.700775 0.306915
0.289825 0.703735 0.310364
0.312500 0.707245 0.314117
0.336365 0.711945 0.317444
0.360687 0.716400 0.320679
0.386230 0.721008 0.324188
0.412231 0.725464 0.327423
0.438690 0.729919 0.330841
0.465759 0.734650 0.334351
0.492981 0.739166 0.337769
0.520416 0.743774 0.341034
0.548065 0.748505 0.344238
0.575562 0.753082 0.347412
0.603455 0.757904 0.350647
0.630676 0.762482 0.353638
0.654388 0.763336 0.354401
0.678467 0.764130 0.355286
0.701935 0.764923 0.356140
0.724762 0.765839 0.357117
0.746704 0.766785 0.358398
0.767761 0.767670 0.359741
0.788422 0.769104 0.361298
0.808075 0.770691 0.363403
0.826630 0.772430 0.366058
0.843994 0.773956 0.368988
0.860596 0.775665 0.372528
0.875732 0.777313 0.376251
0.889893 0.779083 0.380035
0.219482 0.717102 0.314178
0.232513 0.718323 0.315125
0.245544 0.719574 0.315704
0.260620 0.720978 0.316864
0.278473 0.723022 0.318848
0.298920 0.725952 0.322144
0.321075 0.729004 0.325714
0.344360 0.733307 0.329224
0.368256 0.737823 0.332642
0.392975 0.742065 0.335846
0.418610 0.746521 0.339325
0.444733 0.750885 0.342743
0.471222 0.755341 0.346161
0.498077 0.759674 0.349487
0.525421 0.764374 0.353027
0.552490 0.768738 0.356262
0.579834 0.773346 0.359558
0.607239 0.778015 0.362854
0.634491 0.782684 0.366150
0.659668 0.785828 0.368500
0.682251 0.786560 0.369324
0.705627 0.787354 0.370178
0.728363 0.788177 0.371124
0.750031 0.789032 0.372101
0.771057 0.789978 0.373383
0.790924 0.790833 0.374847
0.810394 0.792297 0.376312
0.828796 0.794006 0.378479
0.846069 0.795502 0.380859
0.862427 0.796967 0.383759
0.877594 0.798676 0.386963
0.891632 0.800232 0.390350
0.232483 0.738586 0.326385
0.245361 0.739777 0.326996
0.257294 0.740906 0.327667
0.271240 0.742157 0.328644
0.288483 0.744110 0.330566
0.308563 0.746918 0.333771
0.329651 0.749786 0.337189
0.352264 0.753693 0.340668
0.375549 0.757904 0.343994
0.399811 0.762054 0.347321
0.424927 0.766296 0.350677
0.450684 0.770538 0.354065
0.476929 0.774994 0.357605
0.503662 0.779358 0.361053
0.530365 0.783691 0.364471
0.557190 0.788055 0.367859
0.584198 0.792480 0.371185
0.611298 0.797058 0.374512
0.637939 0.801666 0.378021
0.664062 0.806030 0.381317
0.686737 0.807892 0.382904
0.709473 0.808624 0.383820
0.731873 0.809387 0.384583
0.753571 0.810242 0.385651
0.774353 0.811127 0.386871
0.794128 0.812042 0.388092
0.812866 0.812866 0.389557
0.831116 0.814423 0.391174
0.848328 0.815704 0.393127
0.864502 0.817230 0.395416
0.879425 0.818756 0.398163
0.893402 0.820099 0.401123
0.245758 0.758789 0.337891
0.257721 0.759949 0.338318
0.268921 0.760986 0.338928
0.282227 0.762146 0.339935
0.298737 0.764038 0.341766
0.317566 0.766663 0.344879
0.338257 0.769470 0.348236
0.359802 0.772675 0.351593
0.382874 0.776764 0.354889
0.406860 0.780945 0.358276
0.431854 0.785095 0.361786
0.457001 0.789307 0.365173
0.483063 0.793579 0.368713
0.509186 0.797791 0.372101
0.535553 0.802063 0.375671
0.562164 0.806396 0.379028
0.588898 0.810791 0.382629
0.615662 0.815247 0.386017
