web/frontend/public/assets/luts/Lut_Brighter.CUBE
#Created by: Adobe Photoshop Export Color Lookup Plugin
TITLE "Lut_v05.psd"
#LUT size
LUT_3D_SIZE 8
#data domain
#LUT data points
DOMAIN_MIN 0.000000 0.000000 0.000000
DOMAIN_MAX 0.903226 0.903226 0.903226
0.024292 0.023987 0.036774
0.141174 0.026306 0.037140
0.285126 0.026520 0.035675
0.431946 0.022766 0.034119
0.561249 0.023590 0.044006
0.677155 0.028198 0.065277
0.782745 0.032257 0.080017
0.873413 0.035706 0.085022
0.031342 0.134277 0.048553
0.146606 0.148010 0.056122
0.282623 0.141052 0.055908
0.421936 0.135529 0.059631
0.555450 0.127655 0.066284
0.681000 0.121490 0.078583
0.789062 0.115723 0.093475
0.874542 0.113739 0.107574
0.035980 0.265564 0.073273
0.143768 0.278870 0.080139
0.294159 0.294861 0.085876
0.437958 0.284851 0.084869
0.568451 0.276520 0.096649
0.691040 0.269928 0.106567
0.795624 0.264404 0.115784
0.880280 0.260986 0.126465
0.041138 0.401825 0.113770
0.144409 0.407715 0.117126
0.290131 0.434174 0.127716
0.444977 0.444427 0.130463
0.583557 0.437378 0.130585
0.704346 0.425385 0.139099
0.807373 0.419128 0.148315
0.891479 0.415466 0.158234
0.055878 0.535187 0.157318
0.152130 0.534088 0.156891
0.289062 0.557983 0.168365
0.443146 0.582611 0.178467
0.586945 0.586761 0.179871
0.715607 0.580505 0.177094
0.819122 0.570465 0.184570
0.901550 0.563049 0.194733
0.073608 0.659149 0.201263
0.164490 0.656769 0.198486
0.292755 0.673584 0.207825
0.438507 0.695557 0.219147
0.581635 0.713013 0.227386
0.717957 0.716705 0.229584
0.825775 0.711090 0.227844
0.910889 0.705261 0.236176
0.098633 0.767914 0.243317
0.183319 0.765381 0.238922
0.302826 0.775635 0.246460
0.440033 0.794373 0.258820
0.580688 0.813232 0.270569
0.712433 0.824127 0.277557
0.826752 0.826599 0.281433
0.913269 0.822357 0.280182
0.144745 0.854553 0.280060
0.211853 0.852448 0.276428
0.317657 0.857910 0.282288
0.447784 0.874451 0.294800
0.582581 0.891510 0.307587
0.712616 0.908722 0.320221
0.823212 0.912994 0.325165
0.915039 0.915222 0.329834
0.018646 0.022614 0.178345
0.169067 0.037811 0.206818
0.322723 0.033936 0.196472
0.449005 0.029144 0.182465
0.566010 0.026917 0.171936
0.681671 0.028961 0.171875
0.788849 0.032928 0.174957
0.874573 0.039581 0.181183
0.025085 0.131592 0.174591
0.151428 0.155548 0.209625
0.297577 0.146790 0.200409
0.448639 0.136963 0.191254
0.591553 0.125122 0.183289
0.719086 0.112427 0.179688
0.828369 0.101013 0.180847
0.913879 0.096222 0.185822
0.034515 0.261475 0.194366
0.131317 0.311157 0.207794
0.299622 0.301910 0.229340
0.449463 0.293365 0.218842
0.591248 0.282867 0.207062
0.720123 0.269592 0.198059
0.830109 0.258179 0.195251
0.915771 0.251038 0.196625
0.043701 0.400360 0.216766
0.124146 0.470215 0.215668
0.296753 0.461121 0.232666
0.452545 0.453278 0.254761
0.591858 0.446289 0.246948
0.721832 0.436981 0.237122
0.831299 0.427673 0.232025
0.918274 0.419617 0.230499
0.057770 0.535889 0.243164
0.123810 0.618469 0.235138
0.287048 0.614716 0.240326
0.452454 0.597595 0.272766
0.594788 0.595886 0.284760
0.722137 0.589874 0.279785
0.831421 0.581696 0.273773
0.919220 0.575775 0.272461
0.074554 0.659729 0.273987
0.134277 0.752869 0.264832
0.278046 0.751221 0.263489
0.451111 0.738647 0.285828
0.590790 0.722229 0.314819
0.725464 0.725525 0.318970
0.832001 0.720337 0.315918
0.918915 0.715485 0.315704
0.096558 0.768311 0.307983
0.171967 0.864746 0.299774
0.284271 0.863403 0.298737
0.447723 0.854919 0.312592
0.598206 0.842773 0.333252
0.720825 0.832123 0.353577
0.833740 0.834625 0.358246
0.919281 0.830902 0.356384
0.140930 0.854828 0.338043
0.223145 0.953705 0.336121
0.307190 0.952942 0.336456
0.451996 0.948669 0.345581
0.602173 0.937653 0.361053
0.725403 0.924622 0.381622
0.831116 0.920502 0.393585
0.921539 0.922760 0.398743
0.005798 0.012268 0.333710
0.150635 0.036865 0.381653
0.335083 0.045929 0.388245
0.497803 0.054382 0.391541
0.629120 0.044067 0.371185
0.731476 0.045319 0.353546
0.820526 0.047150 0.342865
0.892548 0.052124 0.337982
0.019653 0.133057 0.320496
0.127106 0.152252 0.383392
0.316498 0.172516 0.389160
0.484894 0.150940 0.378357
0.609711 0.139069 0.357330
0.720764 0.126526 0.343292
0.827942 0.113831 0.336639
0.913696 0.109741 0.335205
0.029907 0.260193 0.319946
0.133820 0.304535 0.384735
0.306274 0.313538 0.396729
0.457153 0.304840 0.386047
0.597168 0.294495 0.375366
0.724915 0.283203 0.366058
0.834534 0.273224 0.358551
0.919464 0.267670 0.354248
0.047699 0.391876 0.339294
0.121063 0.456207 0.395142
0.281403 0.472168 0.391327
0.458588 0.462585 0.415131
0.597534 0.453339 0.403107
0.726044 0.443207 0.389648
0.834717 0.433014 0.378967
0.920807 0.427917 0.374634
0.061523 0.528137 0.362854
0.107635 0.614349 0.396729
0.271515 0.619171 0.390045
0.449860 0.610687 0.411316
0.599396 0.603149 0.437408
0.726349 0.596832 0.429321
0.834961 0.588379 0.418396
0.922180 0.583405 0.411224
0.078094 0.654877 0.387390
0.119141 0.753967 0.402405
0.271149 0.752960 0.395203
0.441101 0.749329 0.404785
0.597076 0.733917 0.447388
0.728729 0.731689 0.463013
0.834106 0.726746 0.460388
0.921509 0.722076 0.452545
0.101807 0.765900 0.414948
0.163422 0.865295 0.412201
0.283966 0.864716 0.407288
0.436890 0.863861 0.409821
0.599243 0.852722 0.446472
0.725494 0.837250 0.486786
0.836670 0.839813 0.492065
0.921295 0.836670 0.490601
0.134399 0.853912 0.445251
0.225037 0.954071 0.425140
0.311310 0.954102 0.425018
0.447235 0.954102 0.428040
0.601532 0.946381 0.454834
0.730164 0.933350 0.491058
0.835785 0.924927 0.516571
0.924316 0.927216 0.521606
0.000031 0.009521 0.477509
0.124481 0.028534 0.507111
0.330048 0.045654 0.564850
0.501831 0.060028 0.565155
0.649780 0.075562 0.575745
0.787079 0.063599 0.568115
0.872009 0.065826 0.549194
0.939667 0.073151 0.537140
0.014557 0.130249 0.474396
0.100861 0.127960 0.537323
0.302338 0.146698 0.573822
0.487701 0.187988 0.568054
0.642548 0.184326 0.571655
0.776428 0.145874 0.551208
0.867523 0.136993 0.532196
0.940460 0.136353 0.518555
0.027313 0.259155 0.457916
0.108856 0.293823 0.540802
0.281403 0.304932 0.562805
0.474945 0.331177 0.572662
0.631073 0.307068 0.562195
0.740112 0.295715 0.542145
0.836426 0.285492 0.528320
0.918976 0.280518 0.520813
0.038483 0.393311 0.467865
0.116272 0.443939 0.545227
0.288422 0.460358 0.565704
0.465576 0.474670 0.581879
0.605225 0.466644 0.572601
0.730438 0.456543 0.562439
0.837280 0.449738 0.553711
0.921936 0.446716 0.547852
0.064026 0.520416 0.487610
0.123474 0.586639 0.556396
0.273956 0.607544 0.576599
0.441620 0.621307 0.576721
0.604523 0.611328 0.597748
0.729187 0.602661 0.586823
0.835602 0.595490 0.575500
0.921295 0.590942 0.567230
0.083160 0.647614 0.513733
0.127350 0.731659 0.567078
0.257812 0.750092 0.577576
0.428131 0.752563 0.571564
0.598328 0.744019 0.591522
0.730591 0.736694 0.616516
0.835236 0.732269 0.610901
0.920624 0.727631 0.603363
0.107574 0.759735 0.537842
0.161102 0.850128 0.577271
0.279266 0.865662 0.574463
0.434509 0.863220 0.570679
0.591492 0.859741 0.581787
0.730957 0.845062 0.624146
0.837860 0.843262 0.638153
0.920898 0.840973 0.637421
0.143341 0.847870 0.562958
0.218781 0.945648 0.579132
0.316254 0.954651 0.574951
0.449280 0.952545 0.572632
0.592041 0.952576 0.576782
0.730377 0.940399 0.615967
0.839142 0.927673 0.652893
0.924927 0.929871 0.658783
0.000031 0.014679 0.609741
0.111267 0.027344 0.623627
0.300568 0.058167 0.708282
0.503265 0.074585 0.718079
0.654449 0.074738 0.722809
0.785553 0.093658 0.733185
0.896637 0.097778 0.736603
0.986450 0.094513 0.727905
0.013977 0.131348 0.617432
0.077118 0.106720 0.674072
0.268036 0.149933 0.724548
0.487915 0.179321 0.726471
0.644592 0.203094 0.727142
0.776825 0.217926 0.735168
0.893951 0.180298 0.726532
0.983582 0.160706 0.710083
0.025543 0.264099 0.605682
0.083923 0.277100 0.688171
0.257874 0.309265 0.727509
0.463043 0.302948 0.733582
0.631958 0.348907 0.731445
0.768982 0.343323 0.734650
0.884338 0.300476 0.714813
0.956116 0.296753 0.696777
0.037109 0.389282 0.592621
0.093292 0.433838 0.678986
0.265686 0.478363 0.734039
0.443604 0.464081 0.726349
0.619385 0.491486 0.736450
0.758606 0.467560 0.727936
0.852173 0.458435 0.708771
0.925385 0.455719 0.696716
0.048431 0.525208 0.610474
0.107056 0.583038 0.692383
0.274078 0.614807 0.737091
0.450806 0.607452 0.730194
0.612549 0.621338 0.743195
0.735687 0.615082 0.734467
0.838928 0.609802 0.725006
0.922241 0.607452 0.718353
0.084534 0.642242 0.630615
0.131439 0.707336 0.700928
0.273865 0.736298 0.742798
0.434296 0.743378 0.735870
0.596436 0.752502 0.736511
0.734375 0.742889 0.754669
0.836243 0.737854 0.746460
0.920624 0.733521 0.737274
0.108856 0.753815 0.653076
0.165283 0.831024 0.716827
0.282532 0.846649 0.739746
0.430908 0.860687 0.731140
0.586029 0.861450 0.728607
0.732605 0.852814 0.747284
0.839996 0.847015 0.767792
0.921448 0.845123 0.764984
0.148224 0.842438 0.676880
0.217468 0.927368 0.728546
0.308380 0.941711 0.731598
0.444824 0.953888 0.725891
0.585693 0.950256 0.723663
0.726166 0.946228 0.735565
0.843140 0.932831 0.772156
0.925720 0.932373 0.782043
0.000031 0.023499 0.734619
0.101105 0.033569 0.747192
0.275208 0.081055 0.810730
0.483459 0.088257 0.849609
0.651001 0.118103 0.848938
0.781952 0.118408 0.854797
0.893494 0.130768 0.865295
0.983124 0.142944 0.874115
0.012817 0.128052 0.743500
0.066437 0.101318 0.793121
0.240173 0.139526 0.826721
0.459808 0.160461 0.860962
0.642792 0.225525 0.854614
0.773651 0.232452 0.858246
0.887146 0.244720 0.867798
0.980865 0.229858 0.871094
0.029175 0.265198 0.736023
0.079071 0.264465 0.812103
0.240356 0.293518 0.842529
0.432617 0.297577 0.849365
0.630249 0.345734 0.862427
0.763580 0.373688 0.862915
0.879272 0.385010 0.872833
0.977081 0.342194 0.867310
0.044800 0.398102 0.728821
0.097809 0.428650 0.809937
0.255157 0.468140 0.857910
0.427582 0.461487 0.853851
0.609558 0.469543 0.867920
0.753174 0.513672 0.867035
0.873138 0.507080 0.873810
0.970703 0.463135 0.858704
0.055420 0.519989 0.726288
0.114960 0.566345 0.804169
0.273010 0.607361 0.852509
0.441315 0.610596 0.856262
0.596649 0.612671 0.861603
0.745392 0.637665 0.870300
0.866516 0.614319 0.866180
0.940369 0.607819 0.849487
0.074982 0.644684 0.744202
0.144440 0.704315 0.825806
0.291168 0.734375 0.865265
0.452515 0.727905 0.857239
0.606354 0.739044 0.864136
0.741882 0.751465 0.874939
0.844391 0.746033 0.867157
0.925476 0.743256 0.859772
0.107361 0.750671 0.762634
0.151825 0.814636 0.830750
0.281311 0.835632 0.867035
0.434509 0.840057 0.863861
0.587311 0.853699 0.867462
0.729492 0.860138 0.867889
0.844086 0.852020 0.883240
0.923737 0.849396 0.877563
0.136902 0.837860 0.777679
0.187836 0.909882 0.840088
0.295319 0.931854 0.873596
0.439148 0.937164 0.862854
0.585022 0.947327 0.862457
0.723114 0.947296 0.861267
0.845520 0.939789 0.878052
0.927246 0.935211 0.893494
0.007263 0.038849 0.844391
0.103027 0.058502 0.845703
0.261414 0.101044 0.890594
0.458466 0.131439 0.937256
0.646545 0.160461 0.959564
0.780090 0.181213 0.956879
0.887024 0.184326 0.961578
0.977478 0.190277 0.970917
0.020966 0.131134 0.847076
0.074768 0.116455 0.892700
0.228424 0.151611 0.920776
0.433380 0.189331 0.959717
0.633118 0.222839 0.964050
0.773895 0.276978 0.960602
0.881622 0.280579 0.964691
0.972046 0.289124 0.973694
0.041473 0.270264 0.844482
0.093048 0.263458 0.910980
0.234680 0.290680 0.937073
0.413818 0.309998 0.952637
0.612488 0.325256 0.970123
0.766388 0.403503 0.965973
0.874268 0.410858 0.969177
0.964783 0.422455 0.971985
0.060822 0.405609 0.842438
0.119629 0.426697 0.918365
0.256622 0.464203 0.959656
0.419647 0.470337 0.963074
0.589874 0.466705 0.958954
0.756989 0.520264 0.968384
0.866150 0.544281 0.967346
0.957520 0.554016 0.969635
0.079376 0.524719 0.837646
0.150848 0.568268 0.918945
0.284393 0.610504 0.957794
0.438690 0.618713 0.961914
0.588654 0.611145 0.961670
0.742188 0.623871 0.966949
0.858521 0.661743 0.964691
0.952209 0.661774 0.966675
0.104614 0.637909 0.845276
0.187469 0.691772 0.923492
0.307831 0.726532 0.951233
0.454742 0.731598 0.955200
0.600861 0.739960 0.959015
0.730988 0.744965 0.960907
0.853027 0.767822 0.962067
0.950470 0.750427 0.961609
0.131653 0.746185 0.864319
0.217346 0.807953 0.942505
0.325775 0.828888 0.952362
0.466858 0.829193 0.954620
0.608521 0.838562 0.956451
0.738190 0.848511 0.958191
0.851715 0.859497 0.959991
0.930847 0.857605 0.957184
0.138428 0.836060 0.875214
0.179443 0.900726 0.941803
0.291840 0.910431 0.951752
0.439362 0.918732 0.953735
0.583710 0.929535 0.955597
0.720276 0.940643 0.956116
0.844421 0.944916 0.955261
0.930298 0.938568 0.959259
0.037445 0.076050 0.923248
0.118225 0.093384 0.923676
0.260254 0.133270 0.960236
0.447906 0.188141 0.989563
0.634033 0.235413 1.000000
0.779938 0.271362 1.000000
0.884308 0.287323 1.000000
0.967865 0.294983 1.000000
0.045685 0.155548 0.925018
0.108612 0.156708 0.975342
0.235657 0.187469 0.990662
0.420715 0.251099 0.995636
0.621063 0.292328 1.000000
0.773224 0.331085 1.000000
0.881378 0.363831 0.999237
0.966217 0.370331 0.999664
0.062622 0.282593 0.932037
0.129059 0.282623 0.991211
0.247375 0.307861 0.990814
0.412170 0.348419 0.991272
0.597168 0.356171 0.997955
0.763458 0.420135 1.000000
0.876190 0.477844 0.997192
0.960327 0.484680 0.997620
0.084778 0.415558 0.933044
0.158905 0.438110 0.988617
0.276337 0.469177 0.991852
0.424255 0.493896 0.990662
0.581696 0.481049 0.990845
0.748840 0.520233 0.999298
0.870148 0.589996 0.994812
0.953949 0.597260 0.995239
0.112701 0.536133 0.932892
0.195831 0.576599 0.982849
0.308441 0.609436 0.987244
0.448273 0.625793 0.990814
0.588837 0.618134 0.989502
0.730133 0.631317 0.991669
0.863556 0.684021 0.993103
0.948120 0.703522 0.992584
0.143066 0.639221 0.930084
0.232758 0.693390 0.976471
0.333862 0.722046 0.981018
0.467102 0.733307 0.984741
0.602997 0.741089 0.987915
0.727600 0.746979 0.987946
0.853546 0.766876 0.991669
0.943604 0.798706 0.989746
0.184631 0.742950 0.946289
0.265106 0.799683 0.974274
0.357452 0.811981 0.977142
0.485107 0.822968 0.979218
0.619751 0.835724 0.981781
0.737854 0.848145 0.984772
0.846649 0.856659 0.986206
0.940155 0.881226 0.986877
0.203461 0.829010 0.955933
0.309998 0.891663 0.975372
0.391327 0.902008 0.978210
0.527344 0.910797 0.980194
0.652466 0.918549 0.981628
0.766602 0.926300 0.982758
0.863464 0.934601 0.983612
0.939148 0.945007 0.984650
